; generated by Slic3r 1.1.5 on 2014-10-23 at 19:05:23

; perimeters extrusion width = 0.30mm
; infill extrusion width = 0.80mm
; solid infill extrusion width = 0.80mm
; top infill extrusion width = 0.60mm

G21 ; set units to millimeters
M104 S200 ; set temperature

M109 S200 ; wait for temperature to be reached
G90 ; use absolute coordinates
M83 ; use relative distances for extrusion
M106 S153 ; enable fan
G1 Z0.200 F18000.000 ; move to next layer (0)
G1 F1800.000 E-1.00000 ; retract
G1 X104.626 Y127.506 F18000.000 ; move to first perimeter point
G1 E1.00000 F1800.000 ; compensate retraction
G1 X117.367 Y127.506 E2.03262 F1080.000 ; perimeter
G1 X117.512 Y129.750 E0.35882 ; perimeter
G1 X117.591 Y130.352 E0.09679 ; perimeter
G1 X117.741 Y130.934 E0.09589 ; perimeter
G1 X117.975 Y131.533 E0.10261 ; perimeter
G1 X118.630 Y132.938 E0.24733 ; perimeter
G1 X118.924 Y133.674 E0.12636 ; perimeter
G1 X119.091 Y134.304 E0.10401 ; perimeter
G1 X119.144 Y134.798 E0.07937 ; perimeter
G1 X119.137 Y135.135 E0.05375 ; perimeter
G1 X119.056 Y135.718 E0.09381 ; perimeter
G1 X118.876 Y136.370 E0.10801 ; perimeter
G1 X118.592 Y137.047 E0.11713 ; perimeter
G1 X118.255 Y137.614 E0.10518 ; perimeter
G1 X117.968 Y137.962 E0.07203 ; perimeter
G1 X117.716 Y138.184 E0.05357 ; perimeter
G1 X117.467 Y138.342 E0.04700 ; perimeter
G1 X117.240 Y138.433 E0.03901 ; perimeter
G1 X116.979 Y138.492 E0.04265 ; perimeter
G1 X116.659 Y138.513 E0.05114 ; perimeter
G1 X116.394 Y138.503 E0.04238 ; perimeter
G1 X115.827 Y138.416 E0.09142 ; perimeter
G1 X115.072 Y138.212 E0.12490 ; perimeter
G1 X113.500 Y137.655 E0.26606 ; perimeter
G1 X113.282 Y137.530 E0.03997 ; perimeter
G1 X113.000 Y137.302 E0.05797 ; perimeter
G1 X112.615 Y136.875 E0.09165 ; perimeter
G1 X111.877 Y135.819 E0.20561 ; perimeter
G1 X111.656 Y135.573 E0.05273 ; perimeter
G1 X111.453 Y135.405 E0.04200 ; perimeter
G1 X111.330 Y135.331 E0.02298 ; perimeter
G1 X111.123 Y135.261 E0.03486 ; perimeter
G1 X110.982 Y135.250 E0.02252 ; perimeter
G1 X110.722 Y135.317 E0.04284 ; perimeter
G1 X110.556 Y135.406 E0.03009 ; perimeter
G1 X110.338 Y135.567 E0.04324 ; perimeter
G1 X110.085 Y135.810 E0.05589 ; perimeter
G1 X109.285 Y136.736 E0.19528 ; perimeter
G1 X108.683 Y137.310 E0.13270 ; perimeter
G1 X107.622 Y138.175 E0.21834 ; perimeter
G1 X107.100 Y138.492 E0.09743 ; perimeter
G1 X106.560 Y138.715 E0.09328 ; perimeter
G1 X106.037 Y138.843 E0.08578 ; perimeter
G1 X105.530 Y138.885 E0.08126 ; perimeter
G1 X105.188 Y138.868 E0.05465 ; perimeter
G1 X104.760 Y138.792 E0.06923 ; perimeter
G1 X104.351 Y138.654 E0.06892 ; perimeter
G1 X103.976 Y138.458 E0.06755 ; perimeter
G1 X103.639 Y138.208 E0.06691 ; perimeter
G1 X103.359 Y137.925 E0.06351 ; perimeter
G1 X103.093 Y137.554 E0.07281 ; perimeter
G1 X102.891 Y137.141 E0.07332 ; perimeter
G1 X102.742 Y136.658 E0.08075 ; perimeter
G1 X102.660 Y136.053 E0.09738 ; perimeter
G1 X102.655 Y135.632 E0.06714 ; perimeter
G1 X102.713 Y134.989 E0.10305 ; perimeter
G1 X102.859 Y134.259 E0.11867 ; perimeter
G1 X103.085 Y133.466 E0.13160 ; perimeter
G1 X103.727 Y131.583 E0.31748 ; perimeter
G1 X103.976 Y130.744 E0.13956 ; perimeter
G1 X104.143 Y130.007 E0.12065 ; perimeter
G1 X104.603 Y127.624 E0.38721 ; perimeter
G1 X105.283 Y128.306 F18000.000 ; move to first perimeter point
G1 X116.619 Y128.306 E1.80851 F1080.000 ; perimeter
G1 X116.716 Y129.828 E0.24339 ; perimeter
G1 X116.803 Y130.499 E0.10783 ; perimeter
G1 X116.936 Y131.043 E0.08936 ; perimeter
G1 X117.239 Y131.847 E0.13711 ; perimeter
G1 X117.895 Y133.257 E0.24813 ; perimeter
G1 X118.163 Y133.926 E0.11495 ; perimeter
G1 X118.302 Y134.449 E0.08641 ; perimeter
G1 X118.343 Y134.832 E0.06142 ; perimeter
G1 X118.338 Y135.072 E0.03824 ; perimeter
G1 X118.271 Y135.556 E0.07791 ; perimeter
G1 X118.118 Y136.108 E0.09140 ; perimeter
G1 X117.875 Y136.686 E0.10014 ; perimeter
G1 X117.599 Y137.152 E0.08646 ; perimeter
G1 X117.391 Y137.404 E0.05207 ; perimeter
G1 X117.234 Y137.543 E0.03338 ; perimeter
G1 X117.002 Y137.666 E0.04196 ; perimeter
G1 X116.863 Y137.698 E0.02272 ; perimeter
G1 X116.470 Y137.705 E0.06273 ; perimeter
G1 X115.993 Y137.632 E0.07698 ; perimeter
G1 X115.307 Y137.447 E0.11335 ; perimeter
G1 X113.918 Y136.962 E0.23471 ; perimeter
G1 X113.735 Y136.868 E0.03287 ; perimeter
G1 X113.551 Y136.720 E0.03761 ; perimeter
G1 X113.242 Y136.376 E0.07368 ; perimeter
G1 X112.504 Y135.321 E0.20555 ; perimeter
G1 X112.212 Y134.995 E0.06978 ; perimeter
G1 X111.917 Y134.751 E0.06107 ; perimeter
G1 X111.692 Y134.616 E0.04192 ; perimeter
G1 X111.473 Y134.524 E0.03788 ; perimeter
G1 X111.252 Y134.469 E0.03623 ; perimeter
G1 X110.876 Y134.456 E0.06007 ; perimeter
G1 X110.642 Y134.498 E0.03791 ; perimeter
G1 X110.401 Y134.582 E0.04082 ; perimeter
G1 X110.127 Y134.728 E0.04941 ; perimeter
G1 X109.821 Y134.955 E0.06088 ; perimeter
G1 X109.502 Y135.261 E0.07055 ; perimeter
G1 X108.706 Y136.182 E0.19413 ; perimeter
G1 X108.151 Y136.712 E0.12256 ; perimeter
G1 X107.312 Y137.407 E0.17371 ; perimeter
G1 X107.174 Y137.512 E0.02772 ; perimeter
G1 X106.738 Y137.775 E0.08121 ; perimeter
G1 X106.310 Y137.952 E0.07385 ; perimeter
G1 X105.908 Y138.051 E0.06606 ; perimeter
G1 X105.517 Y138.083 E0.06271 ; perimeter
G1 X105.278 Y138.071 E0.03814 ; perimeter
G1 X104.960 Y138.015 E0.05151 ; perimeter
G1 X104.666 Y137.916 E0.04943 ; perimeter
G1 X104.402 Y137.778 E0.04765 ; perimeter
G1 X104.165 Y137.602 E0.04709 ; perimeter
G1 X103.973 Y137.408 E0.04355 ; perimeter
G1 X103.782 Y137.142 E0.05211 ; perimeter
G1 X103.637 Y136.845 E0.05276 ; perimeter
G1 X103.525 Y136.485 E0.06016 ; perimeter
G1 X103.459 Y135.994 E0.07900 ; perimeter
G1 X103.455 Y135.663 E0.05280 ; perimeter
G1 X103.506 Y135.104 E0.08969 ; perimeter
G1 X103.637 Y134.448 E0.10663 ; perimeter
G1 X103.849 Y133.705 E0.12331 ; perimeter
G1 X104.489 Y131.826 E0.31668 ; perimeter
G1 X104.750 Y130.947 E0.14633 ; perimeter
G1 X104.926 Y130.170 E0.12710 ; perimeter
G1 X105.259 Y128.424 E0.28361 ; perimeter
G1 X105.333 Y127.508 F18000.000 ; move inwards before travel
G1 F1800.000 E-1.00000 ; retract
G1 X121.762 Y129.570 F18000.000 ; move to first perimeter point
G1 E1.00000 F1800.000 ; compensate retraction
G1 X122.128 Y127.506 E0.33436 F1080.000 ; perimeter
G1 X127.070 Y127.506 E0.78847 ; perimeter
G1 X127.612 Y127.474 E0.08663 ; perimeter
G1 X128.097 Y127.389 E0.07867 ; perimeter
G1 X128.566 Y127.248 E0.07806 ; perimeter
G1 X129.012 Y127.054 E0.07755 ; perimeter
G1 X129.429 Y126.810 E0.07709 ; perimeter
G1 X129.811 Y126.521 E0.07647 ; perimeter
G1 X130.150 Y126.190 E0.07557 ; perimeter
G1 X130.442 Y125.825 E0.07453 ; perimeter
G1 X130.681 Y125.434 E0.07315 ; perimeter
G1 X130.865 Y125.023 E0.07188 ; perimeter
G1 X130.995 Y124.585 E0.07277 ; perimeter
G1 X131.232 Y123.257 E0.21530 ; perimeter
G1 X143.970 Y123.030 E2.03256 ; perimeter
G1 X144.438 Y123.059 E0.07471 ; perimeter
G1 X144.941 Y123.174 E0.08237 ; perimeter
G1 X145.420 Y123.369 E0.08247 ; perimeter
G1 X145.861 Y123.637 E0.08239 ; perimeter
G1 X145.943 Y123.707 E0.01719 ; perimeter
G1 X146.253 Y123.974 E0.06526 ; perimeter
G1 X146.586 Y124.368 E0.08241 ; perimeter
G1 X146.852 Y124.811 E0.08239 ; perimeter
G1 X147.043 Y125.292 E0.08257 ; perimeter
G1 X147.153 Y125.796 E0.08226 ; perimeter
G1 X147.182 Y126.312 E0.08240 ; perimeter
G1 X147.127 Y126.825 E0.08242 ; perimeter
G1 X146.991 Y127.324 E0.08242 ; perimeter
G1 X146.790 Y127.762 E0.07692 ; perimeter
G1 X146.325 Y128.552 E0.14626 ; perimeter
G1 X145.693 Y129.503 E0.18220 ; perimeter
G1 X145.001 Y130.407 E0.18157 ; perimeter
G1 X144.268 Y131.276 E0.18130 ; perimeter
G1 X142.991 Y132.703 E0.30569 ; perimeter
G1 X141.531 Y134.230 E0.33689 ; perimeter
G1 X139.862 Y135.880 E0.37447 ; perimeter
G1 X137.393 Y138.205 E0.54111 ; perimeter
G1 X137.054 Y138.483 E0.06999 ; perimeter
G1 X136.622 Y138.750 E0.08107 ; perimeter
G1 X136.179 Y138.937 E0.07660 ; perimeter
G1 X135.732 Y139.049 E0.07361 ; perimeter
G1 X135.314 Y139.084 E0.06686 ; perimeter
G1 X134.757 Y139.039 E0.08924 ; perimeter
G1 X134.316 Y138.919 E0.07280 ; perimeter
G1 X133.874 Y138.721 E0.07737 ; perimeter
G1 X133.433 Y138.434 E0.08385 ; perimeter
G1 X133.001 Y138.043 E0.09300 ; perimeter
G1 X132.617 Y137.568 E0.09743 ; perimeter
G1 X132.175 Y136.942 E0.12230 ; perimeter
G1 X131.398 Y135.937 E0.20272 ; perimeter
G1 X130.599 Y135.017 E0.19439 ; perimeter
G1 X129.771 Y134.170 E0.18887 ; perimeter
G1 X128.912 Y133.393 E0.18494 ; perimeter
G1 X128.017 Y132.678 E0.18267 ; perimeter
G1 X127.082 Y132.024 E0.18196 ; perimeter
G1 X126.103 Y131.428 E0.18294 ; perimeter
G1 X125.074 Y130.886 E0.18555 ; perimeter
G1 X123.989 Y130.398 E0.18987 ; perimeter
G1 X121.875 Y129.611 E0.35989 ; perimeter
G1 X122.667 Y129.049 F18000.000 ; move to first perimeter point
G1 X122.798 Y128.306 E0.12035 F1080.000 ; perimeter
G1 X127.093 Y128.306 E0.68518 ; perimeter
G1 X127.705 Y128.270 E0.09780 ; perimeter
G1 X128.283 Y128.168 E0.09359 ; perimeter
G1 X128.841 Y128.000 E0.09307 ; perimeter
G1 X129.374 Y127.769 E0.09270 ; perimeter
G1 X129.874 Y127.477 E0.09240 ; perimeter
G1 X130.334 Y127.128 E0.09199 ; perimeter
G1 X130.744 Y126.729 E0.09134 ; perimeter
G1 X131.099 Y126.286 E0.09057 ; perimeter
G1 X131.391 Y125.807 E0.08946 ; perimeter
G1 X131.616 Y125.301 E0.08841 ; perimeter
G1 X131.774 Y124.771 E0.08826 ; perimeter
G1 X131.904 Y124.045 E0.11756 ; perimeter
G1 X143.952 Y123.830 E1.92252 ; perimeter
G1 X144.323 Y123.854 E0.05920 ; perimeter
G1 X144.700 Y123.940 E0.06175 ; perimeter
G1 X145.059 Y124.085 E0.06179 ; perimeter
G1 X145.390 Y124.287 E0.06176 ; perimeter
G1 X145.684 Y124.539 E0.06178 ; perimeter
G1 X145.933 Y124.835 E0.06177 ; perimeter
G1 X146.132 Y125.167 E0.06176 ; perimeter
G1 X146.275 Y125.527 E0.06182 ; perimeter
G1 X146.358 Y125.905 E0.06172 ; perimeter
G1 X146.380 Y126.291 E0.06176 ; perimeter
G1 X146.339 Y126.676 E0.06177 ; perimeter
G1 X146.236 Y127.050 E0.06177 ; perimeter
G1 X146.080 Y127.391 E0.05994 ; perimeter
G1 X145.647 Y128.128 E0.13628 ; perimeter
G1 X145.042 Y129.038 E0.17443 ; perimeter
G1 X144.377 Y129.906 E0.17429 ; perimeter
G1 X143.664 Y130.751 E0.17642 ; perimeter
G1 X142.403 Y132.160 E0.30173 ; perimeter
G1 X140.961 Y133.669 E0.33301 ; perimeter
G1 X139.307 Y135.304 E0.37111 ; perimeter
G1 X136.864 Y137.604 E0.53523 ; perimeter
G1 X136.588 Y137.831 E0.05703 ; perimeter
G1 X136.254 Y138.037 E0.06271 ; perimeter
G1 X135.925 Y138.176 E0.05693 ; perimeter
G1 X135.601 Y138.257 E0.05329 ; perimeter
G1 X135.204 Y138.282 E0.06351 ; perimeter
G1 X134.905 Y138.250 E0.04789 ; perimeter
G1 X134.586 Y138.164 E0.05275 ; perimeter
G1 X134.258 Y138.017 E0.05732 ; perimeter
G1 X133.923 Y137.798 E0.06387 ; perimeter
G1 X133.584 Y137.492 E0.07288 ; perimeter
G1 X133.256 Y137.086 E0.08328 ; perimeter
G1 X132.818 Y136.466 E0.12098 ; perimeter
G1 X132.017 Y135.429 E0.20910 ; perimeter
G1 X131.187 Y134.474 E0.20182 ; perimeter
G1 X130.326 Y133.594 E0.19652 ; perimeter
G1 X129.430 Y132.783 E0.19280 ; perimeter
G1 X128.496 Y132.037 E0.19064 ; perimeter
G1 X127.520 Y131.354 E0.19001 ; perimeter
G1 X126.498 Y130.731 E0.19098 ; perimeter
G1 X125.425 Y130.166 E0.19355 ; perimeter
G1 X124.294 Y129.659 E0.19775 ; perimeter
G1 X122.779 Y129.090 E0.25812 ; perimeter
G1 X121.933 Y128.872 F18000.000 ; move inwards before travel
G1 F1800.000 E-1.00000 ; retract
G1 X151.001 Y113.849 F18000.000 ; move to first perimeter point
G1 E1.00000 F1800.000 ; compensate retraction
G1 X150.834 Y115.467 E0.25963 F1080.000 ; perimeter
G1 X150.677 Y116.502 E0.16692 ; perimeter
G1 X150.486 Y117.318 E0.13370 ; perimeter
G1 X149.990 Y119.084 E0.29274 ; perimeter
G1 X149.829 Y119.520 E0.07407 ; perimeter
G1 X149.578 Y119.966 E0.08172 ; perimeter
G1 X149.259 Y120.367 E0.08170 ; perimeter
G1 X148.880 Y120.711 E0.08174 ; perimeter
G1 X148.451 Y120.991 E0.08172 ; perimeter
G1 X147.983 Y121.199 E0.08173 ; perimeter
G1 X147.487 Y121.330 E0.08173 ; perimeter
G1 X147.026 Y121.375 E0.07403 ; perimeter
G1 X131.079 Y121.660 E2.54456 ; perimeter
G1 X131.079 Y117.948 E0.59211 ; perimeter
G1 X131.048 Y117.468 E0.07675 ; perimeter
G1 X130.966 Y117.038 E0.06988 ; perimeter
G1 X130.828 Y116.613 E0.07130 ; perimeter
G1 X130.635 Y116.198 E0.07304 ; perimeter
G1 X130.387 Y115.800 E0.07483 ; perimeter
G1 X130.085 Y115.425 E0.07669 ; perimeter
G1 X129.750 Y115.098 E0.07474 ; perimeter
G1 X129.359 Y114.797 E0.07870 ; perimeter
G1 X128.935 Y114.546 E0.07868 ; perimeter
G1 X128.484 Y114.348 E0.07854 ; perimeter
G1 X127.988 Y114.200 E0.08262 ; perimeter
G1 X127.122 Y114.014 E0.14136 ; perimeter
G1 X126.931 Y112.212 E0.28908 ; perimeter
G1 X128.265 Y111.614 E0.23325 ; perimeter
G1 X130.726 Y110.285 E0.44612 ; perimeter
G1 X131.216 Y110.079 E0.08491 ; perimeter
G1 X131.739 Y109.947 E0.08607 ; perimeter
G1 X132.162 Y109.911 E0.06767 ; perimeter
G1 X132.680 Y109.954 E0.08287 ; perimeter
G1 X133.044 Y110.056 E0.06034 ; perimeter
G1 X133.383 Y110.217 E0.05993 ; perimeter
G1 X133.654 Y110.399 E0.05205 ; perimeter
G1 X133.932 Y110.652 E0.05994 ; perimeter
G1 X134.198 Y110.982 E0.06761 ; perimeter
G1 X134.738 Y111.992 E0.18270 ; perimeter
G1 X135.060 Y112.491 E0.09486 ; perimeter
G1 X135.400 Y112.914 E0.08658 ; perimeter
G1 X135.760 Y113.268 E0.08051 ; perimeter
G1 X136.139 Y113.563 E0.07666 ; perimeter
G1 X136.526 Y113.794 E0.07182 ; perimeter
G1 X136.956 Y113.984 E0.07509 ; perimeter
G1 X137.421 Y114.124 E0.07754 ; perimeter
G1 X137.931 Y114.212 E0.08253 ; perimeter
G1 X138.504 Y114.244 E0.09161 ; perimeter
G1 X139.265 Y114.189 E0.12161 ; perimeter
G1 X139.982 Y114.056 E0.11643 ; perimeter
G1 X140.775 Y113.833 E0.13145 ; perimeter
G1 X141.649 Y113.505 E0.14884 ; perimeter
G1 X142.591 Y113.069 E0.16569 ; perimeter
G1 X143.856 Y112.376 E0.22998 ; perimeter
G1 X145.909 Y111.137 E0.38269 ; perimeter
G1 X146.733 Y110.654 E0.15235 ; perimeter
G1 X147.206 Y110.410 E0.08484 ; perimeter
G1 X147.841 Y110.163 E0.10881 ; perimeter
G1 X148.357 Y110.045 E0.08440 ; perimeter
G1 X148.738 Y110.016 E0.06091 ; perimeter
G1 X148.950 Y110.025 E0.03394 ; perimeter
G1 X149.250 Y110.072 E0.04835 ; perimeter
G1 X149.560 Y110.176 E0.05220 ; perimeter
G1 X149.835 Y110.322 E0.04971 ; perimeter
G1 X150.083 Y110.509 E0.04959 ; perimeter
G1 X150.301 Y110.730 E0.04938 ; perimeter
G1 X150.509 Y111.015 E0.05641 ; perimeter
G1 X150.700 Y111.382 E0.06602 ; perimeter
G1 X150.890 Y111.957 E0.09658 ; perimeter
G1 X151.003 Y112.597 E0.10371 ; perimeter
G1 X151.056 Y113.406 E0.12935 ; perimeter
G1 X151.018 Y113.732 E0.05229 ; perimeter
G1 F1800.000 E-1.00000 ; retract
G1 X131.879 Y120.845 F18000.000 ; move to first perimeter point
G1 E1.00000 F1800.000 ; compensate retraction
G1 X131.879 Y117.923 E0.46624 F1080.000 ; perimeter
G1 X131.844 Y117.367 E0.08884 ; perimeter
G1 X131.742 Y116.839 E0.08584 ; perimeter
G1 X131.574 Y116.320 E0.08705 ; perimeter
G1 X131.340 Y115.816 E0.08863 ; perimeter
G1 X131.040 Y115.336 E0.09030 ; perimeter
G1 X130.679 Y114.887 E0.09197 ; perimeter
G1 X130.276 Y114.493 E0.08988 ; perimeter
G1 X129.809 Y114.133 E0.09402 ; perimeter
G1 X129.301 Y113.832 E0.09421 ; perimeter
G1 X128.760 Y113.596 E0.09418 ; perimeter
G1 X128.186 Y113.424 E0.09549 ; perimeter
G1 X127.856 Y113.354 E0.05388 ; perimeter
G1 X127.788 Y112.705 E0.10405 ; perimeter
G1 X128.619 Y112.332 E0.14527 ; perimeter
G1 X131.066 Y111.010 E0.44381 ; perimeter
G1 X131.471 Y110.840 E0.07002 ; perimeter
G1 X131.872 Y110.738 E0.06607 ; perimeter
G1 X132.188 Y110.712 E0.05060 ; perimeter
G1 X132.525 Y110.741 E0.05387 ; perimeter
G1 X132.763 Y110.808 E0.03948 ; perimeter
G1 X133.016 Y110.934 E0.04514 ; perimeter
G1 X133.159 Y111.030 E0.02748 ; perimeter
G1 X133.348 Y111.202 E0.04071 ; perimeter
G1 X133.533 Y111.432 E0.04714 ; perimeter
G1 X134.044 Y112.392 E0.17358 ; perimeter
G1 X134.410 Y112.960 E0.10780 ; perimeter
G1 X134.806 Y113.451 E0.10063 ; perimeter
G1 X135.232 Y113.871 E0.09534 ; perimeter
G1 X135.687 Y114.225 E0.09198 ; perimeter
G1 X136.157 Y114.506 E0.08738 ; perimeter
G1 X136.678 Y114.736 E0.09087 ; perimeter
G1 X137.238 Y114.904 E0.09323 ; perimeter
G1 X137.841 Y115.008 E0.09769 ; perimeter
G1 X138.701 Y115.040 E0.13730 ; perimeter
