; File post-processed by the CEL Tech Roboxiser on Sun 2 Nov 2014 14:55:24
; Robox® AutoMaker™ - 1.00.15
;
; Pre print gcode
M139			;Set & heat first layer Bed temp.
M190			;Wait for Bed to get to temp.

M103			;Set & heat first layer nozzle temp.

G90 			;Absolute positioning
G0 B0			;Close Nozzle
G91				;Use X, Y relative Mode
G0 Z5			;Move up 5mm
G90 			;Absolute positioning
M190			;Wait for Bed to get to temp.

G28 X Y			;Home X, then Y

M109			;Wait for Nozzle to get to temp.

T0				;Select Nozzle 0 (T0)
G0 X30 Y75		;Level Gantry Position 1
G28 Z			;Home Z
G0 Z5 			;Move up 5mm
G0 X190 Y75		;Level Gantry Position 2
G28 Z			;Home Z
G0 Z5 			;Move up 5mm
G38 			;Level gantry
G0 X113 Y20		;Bed levelling Y Position 1
G28 Z			;Home Z
G0 Z5 			;Move up 5mm
G0 X113 Y130	;Bed levelling Y Position 2
G28 Z			;Home Z
G0 Z5 			;Move up 5mm
G39 			;level bed

G0 Y0 X21 Z10
M106

G36 E500 F1000
;Short Purge
G0 Z3
T0
G0 B2
G1 E25 X44 F150
G0 B0
T0
G0 Z5
G0 Y10

G36 E500 F1000
G0 Y0 Z8
T1
G0 Y0
G0 Z3
T1
G0 B2
G1 E35 X21 F200
G0 B0
T1
G0 Z5
G0 Y10
G0 X110 Y75

G1 E3 F1000
M129			;Head LED on
; End of Pre print gcode
M139 ; take 1st layer bed temperature from reel
M190 ; wait for bed temperature to be reached
M103 ; take 1st layer nozzle temperature from loaded reel
M109 ; wait for nozzle temperature to be reached
M170 ; take ambient temperature from loaded reel
 ;  generated by Slic3r 1.1.5 on 2014-11-02 at 14:55:24
 ;  perimeters extrusion width = 0.80mm
 ;  infill extrusion width = 0.80mm
 ;  solid infill extrusion width = 0.80mm
 ;  top infill extrusion width = 0.60mm
G21 ;  set units to millimeters
G90 ;  use absolute coordinates
M83 ;  use relative distances for extrusion
M106 S251 ;  enable fan
T1 ;  - force to nozzle 1 on first layer
G1 Z0.2 F18000 ;  move to next layer (0)
G1 X102.764 Y73.137 F18000 ; ->126.1327097346283  ;  move to first perimeter point
G1 B1.0 ; Open and replenish from extrusion
G1 X115.514 Y73.137 E2.03415 D0 F1080 ; ->L12.75 ->E2.03415 ->D0.0 ;  perimeter
G1 X115.514 Y85.887 E2.03415 D0 ; ->L12.75 ->E2.03415 ->D0.0 ;  perimeter
G1 X102.764 Y85.887 E2.03415 D0 ; ->L12.75 ->E2.03415 ->D0.0 ;  perimeter
G1 X102.764 Y73.257 E2.01501 D0 ; ->L12.629999999999995 ->E2.01501 ->D0.0 ;  perimeter
G1 X101.964 Y72.337 F18000 ; ->1.2191800523302532  ;  move to first perimeter point
G1 X116.314 Y72.337 E2.28942 D0 F1080 ; ->L14.349999999999994 ->E2.28942 ->D0.0 ;  perimeter
G1 X116.314 Y86.687 E2.28942 D0 ; ->L14.349999999999994 ->E2.28942 ->D0.0 ;  perimeter
G1 X101.964 Y86.687 E2.28942 D0 ; ->L14.349999999999994 ->E2.28942 ->D0.0 ;  perimeter
G1 X101.964 Y72.457 E2.27027 D0 ; ->L14.230000000000004 ->E2.27027 ->D0.0 ;  perimeter
G1 X114.914 Y73.697 F18000 ; ->12.294537364211804  ;  move to first fill point
G1 X114.954 Y73.737 E0.00903 D0 F1080 ; ->L0.05656854249491255 ->E0.00903 ->D0.0 ;  fill
G1 X114.954 Y74.896 E0.18491 D0 ; ->L1.159000000000006 ->E0.18491 ->D0.0 ;  fill
G1 X113.755 Y73.697 E0.27053 D0 ; ->L1.6956420612853382 ->E0.27053 ->D0.0 ;  fill
G1 X112.596 Y73.697 E0.18491 D0 ; ->L1.1589999999999918 ->E0.18491 ->D0.0 ;  fill
G1 X114.954 Y76.055 E0.53203 D0 ; ->L3.3347155800757537 ->E0.53203 ->D0.0 ;  fill
G1 X114.954 Y77.214 E0.18491 D0 ; ->L1.1589999999999918 ->E0.18491 ->D0.0 ;  fill
G1 X111.437 Y73.697 E0.79353 D0 ; ->L4.9737890988661695 ->E0.79353 ->D0.0 ;  fill
G1 X110.278 Y73.697 E0.18491 D0 ; ->L1.1589999999999918 ->E0.18491 ->D0.0 ;  fill
G1 X114.954 Y78.373 E1.05503 D0 ; ->L6.612862617656584 ->E1.05503 ->D0.0 ;  fill
G1 X114.954 Y79.532 E0.18491 D0 ; ->L1.1589999999999918 ->E0.18491 ->D0.0 ;  fill
G1 X109.119 Y73.697 E1.31653 D0 ; ->L8.251936136447 ->E1.31653 ->D0.0 ;  fill
G1 X107.96 Y73.697 E0.18491 D0 ; ->L1.159000000000006 ->E0.18491 ->D0.0 ;  fill
G1 X114.954 Y80.691 E1.57803 D0 ; ->L9.891009655237427 ->E1.57803 ->D0.0 ;  fill
G1 X114.954 Y81.85 E0.18491 D0 ; ->L1.1589999999999918 ->E0.18491 ->D0.0 ;  fill
G1 X106.801 Y73.697 E1.83953 D0 ; ->L11.530083174027832 ->E1.83953 ->D0.0 ;  fill
G1 X105.642 Y73.697 E0.18491 D0 ; ->L1.159000000000006 ->E0.18491 ->D0.0 ;  fill
G1 X114.954 Y83.009 E2.10103 D0 ; ->L13.169156692818257 ->E2.10103 ->D0.0 ;  fill
G1 X114.954 Y84.168 E0.18491 D0 ; ->L1.159000000000006 ->E0.18491 ->D0.0 ;  fill
G1 X104.483 Y73.697 E2.36253 D0 ; ->L14.808230211608672 ->E2.36253 ->D0.0 ;  fill
G1 X103.344 Y73.717 E0.18175 D0 ; ->L1.1391755790921883 ->E0.18175 ->D0.0 ;  fill
G1 X114.934 Y85.307 E2.61501 D0 ; ->L16.390735187904177 ->E2.61501 ->D0.0 ;  fill
G1 X113.795 Y85.327 E0.18175 D0 ; ->L1.139175579092174 ->E0.18175 ->D0.0 ;  fill
G1 X103.324 Y74.856 E2.36253 D0 ; ->L14.808230211608683 ->E2.36253 ->D0.0 ;  fill
G1 X103.324 Y76.015 E0.18491 D0 ; ->L1.159000000000006 ->E0.18491 ->D0.0 ;  fill
G1 X112.636 Y85.327 E2.10103 D0 ; ->L13.169156692818257 ->E2.10103 ->D0.0 ;  fill
G1 X111.477 Y85.327 E0.18491 D0 ; ->L1.1589999999999918 ->E0.18491 ->D0.0 ;  fill
G1 X103.324 Y77.174 E1.83953 D0 ; ->L11.530083174027842 ->E1.83953 ->D0.0 ;  fill
G1 X103.324 Y78.333 E0.18491 D0 ; ->L1.1589999999999918 ->E0.18491 ->D0.0 ;  fill
G1 X110.318 Y85.327 E1.57803 D0 ; ->L9.891009655237427 ->E1.57803 ->D0.0 ;  fill
G1 X109.159 Y85.327 E0.18491 D0 ; ->L1.1589999999999918 ->E0.18491 ->D0.0 ;  fill
G1 X103.324 Y79.492 E1.31653 D0 ; ->L8.25193613644701 ->E1.31653 ->D0.0 ;  fill
G1 X103.324 Y80.651 E0.18491 D0 ; ->L1.1589999999999918 ->E0.18491 ->D0.0 ;  fill
G1 X108 Y85.327 E1.05503 D0 ; ->L6.612862617656595 ->E1.05503 ->D0.0 ;  fill
G1 X106.841 Y85.327 E0.18491 D0 ; ->L1.159000000000006 ->E0.18491 ->D0.0 ;  fill
G1 X103.473 Y81.959 E0.75985 D0 ; ->L4.762685238273747 ->E0.7598499940395356 ->D0.0 ; closing nozzle after forced nozzle select on layer 0
G1 X103.324 Y81.81 B0.966 ; ->L0.21110386059242284  ; ->E0.03368000596046439  ; closing nozzle after forced nozzle select on layer 0 Normal close
G1 X103.324 Y82.969 B0.781 ; ->L1.1589999999999918  ; ->E0.18491  ;  fill Normal close
G1 X105.682 Y85.327 B0.249 ; ->L3.334715580075764  ; ->E0.53203  ;  fill Normal close
G1 X104.523 Y85.327 B0.064 ; ->L1.159000000000006  ; ->E0.18491  ;  fill Normal close
G1 X104.237 Y85.041 B0 ; ->L0.4040883953138339  ; ->E0.06446999403953552  ; closing nozzle after forced nozzle select on layer 0 Normal close
G1 X103.324 Y84.128 ; ->1.2915536659715043  ; Wipe
G1 X103.324 Y85.287 ; ->1.159000000000006  ; Wipe
G1 X103.364 Y85.327 ; ->0.056568542494922595  ; Wipe
M106 S255 ;  enable fan
M104 ; take post layer 1 nozzle temperature from loaded reel - don't wait
M140 ; take post layer 1 bed temperature from loaded reel - don't wait
G1 Z0.5 F18000 ;  move to next layer (1)
G1 X102.764 Y73.137 F18000 ; ->12.204757269196302  ;  move to first perimeter point
T1 ; return to required nozzle
G1 B1.0 E1.4 F400 ; Open and replenish from extrusion
G1 X115.514 Y73.137 E3.05123 D0 F1185.359 ; ->L12.75 ->E3.05123 ->D0.0 ;  perimeter
G1 X115.514 Y85.887 E3.05123 D0 ; ->L12.75 ->E3.05123 ->D0.0 ;  perimeter
G1 X102.764 Y85.887 E3.05123 D0 ; ->L12.75 ->E3.05123 ->D0.0 ;  perimeter
G1 X102.764 Y73.257 E3.02251 D0 ; ->L12.629999999999995 ->E3.02251 ->D0.0 ;  perimeter
G1 X101.964 Y72.337 F18000 ; ->1.2191800523302532  ;  move to first perimeter point
G1 X116.314 Y72.337 E3.43413 D0 F1185.359 ; ->L14.349999999999994 ->E3.43413 ->D0.0 ;  perimeter
G1 X116.314 Y86.687 E3.43413 D0 ; ->L14.349999999999994 ->E3.43413 ->D0.0 ;  perimeter
G1 X101.964 Y86.687 E3.43413 D0 ; ->L14.349999999999994 ->E3.43413 ->D0.0 ;  perimeter
G1 X101.964 Y72.457 E3.40541 D0 ; ->L14.230000000000004 ->E3.40541 ->D0.0 ;  perimeter
G1 X103.324 Y73.737 F18000 ; ->1.2020353572170837  ;  move to first fill point
G1 X103.364 Y73.697 E0.01354 D0 F1185.359 ; ->L0.056568542494922595 ->E0.01354 ->D0.0 ;  fill
G1 X104.523 Y73.697 E0.27736 D0 ; ->L1.1589999999999918 ->E0.27736 ->D0.0 ;  fill
G1 X103.324 Y74.896 E0.40579 D0 ; ->L1.6956420612853382 ->E0.40579 ->D0.0 ;  fill
G1 X103.324 Y76.055 E0.27736 D0 ; ->L1.159000000000006 ->E0.27736 ->D0.0 ;  fill
G1 X105.682 Y73.697 E0.79804 D0 ; ->L3.334715580075764 ->E0.79804 ->D0.0 ;  fill
G1 X106.841 Y73.697 E0.27736 D0 ; ->L1.1589999999999918 ->E0.27736 ->D0.0 ;  fill
G1 X103.324 Y77.214 E1.19029 D0 ; ->L4.9737890988661695 ->E1.19029 ->D0.0 ;  fill
G1 X103.324 Y78.373 E0.27736 D0 ; ->L1.159000000000006 ->E0.27736 ->D0.0 ;  fill
G1 X108 Y73.697 E1.58254 D0 ; ->L6.612862617656595 ->E1.58254 ->D0.0 ;  fill
G1 X109.159 Y73.697 E0.27736 D0 ; ->L1.159000000000006 ->E0.27736 ->D0.0 ;  fill
G1 X103.324 Y79.532 E1.97479 D0 ; ->L8.25193613644701 ->E1.97479 ->D0.0 ;  fill
G1 X103.324 Y80.691 E0.27736 D0 ; ->L1.159000000000006 ->E0.27736 ->D0.0 ;  fill
G1 X110.318 Y73.697 E2.36704 D0 ; ->L9.891009655237427 ->E2.36704 ->D0.0 ;  fill
G1 X111.477 Y73.697 E0.27736 D0 ; ->L1.159000000000006 ->E0.27736 ->D0.0 ;  fill
G1 X103.324 Y81.85 E2.7593 D0 ; ->L11.530083174027842 ->E2.7593 ->D0.0 ;  fill
G1 X103.324 Y83.009 E0.27736 D0 ; ->L1.159000000000006 ->E0.27736 ->D0.0 ;  fill
G1 X112.636 Y73.697 E3.15155 D0 ; ->L13.169156692818257 ->E3.15155 ->D0.0 ;  fill
G1 X113.795 Y73.697 E0.27736 D0 ; ->L1.159000000000006 ->E0.27736 ->D0.0 ;  fill
G1 X103.324 Y84.168 E3.5438 D0 ; ->L14.808230211608683 ->E3.5438 ->D0.0 ;  fill
G1 X103.344 Y85.307 E0.27262 D0 ; ->L1.139175579092174 ->E0.27262 ->D0.0 ;  fill
G1 X114.934 Y73.717 E3.92251 D0 ; ->L16.390735187904177 ->E3.92251 ->D0.0 ;  fill
G1 X114.954 Y74.856 E0.27262 D0 ; ->L1.139175579092174 ->E0.27262 ->D0.0 ;  fill
G1 X104.483 Y85.327 E3.5438 D0 ; ->L14.808230211608672 ->E3.5438 ->D0.0 ;  fill
G1 X105.642 Y85.327 E0.27736 D0 ; ->L1.1589999999999918 ->E0.27736 ->D0.0 ;  fill
G1 X114.954 Y76.015 E3.15155 D0 ; ->L13.169156692818257 ->E3.15155 ->D0.0 ;  fill
G1 X114.954 Y77.174 E0.27736 D0 ; ->L1.159000000000006 ->E0.27736 ->D0.0 ;  fill
G1 X106.801 Y85.327 E2.7593 D0 ; ->L11.530083174027832 ->E2.7593 ->D0.0 ;  fill
G1 X107.96 Y85.327 E0.27736 D0 ; ->L1.1589999999999918 ->E0.27736 ->D0.0 ;  fill
G1 X114.954 Y78.333 E2.36705 D0 ; ->L9.891009655237427 ->E2.36705 ->D0.0 ;  fill
G1 X114.954 Y79.492 E0.27736 D0 ; ->L1.159000000000006 ->E0.27736 ->D0.0 ;  fill
G1 X109.119 Y85.327 E1.97479 D0 ; ->L8.251936136447 ->E1.97479 ->D0.0 ;  fill
G1 X110.278 Y85.327 E0.27736 D0 ; ->L1.159000000000006 ->E0.27736 ->D0.0 ;  fill
G1 X114.954 Y80.651 E1.58254 D0 ; ->L6.612862617656584 ->E1.58254 ->D0.0 ;  fill
G1 X114.954 Y81.81 E0.27736 D0 ; ->L1.159000000000006 ->E0.27736 ->D0.0 ;  fill
G1 X111.437 Y85.327 E1.19029 D0 ; ->L4.9737890988661695 ->E1.19029 ->D0.0 ;  fill
G1 X112.596 Y85.327 E0.27736 D0 ; ->L1.159000000000006 ->E0.27736 ->D0.0 ;  fill
G1 X114.954 Y82.969 E0.79804 D0 ; ->L3.3347155800757537 ->E0.79804 ->D0.0 ;  fill
G1 X114.954 Y84.128 E0.27736 D0 ; ->L1.159000000000006 ->E0.27736 ->D0.0 ;  fill
G1 X113.755 Y85.327 E0.40579 D0 ; ->L1.6956420612853382 ->E0.40579 ->D0.0 ;  fill
G1 X114.914 Y85.327 E0.27736 D0 ; ->L1.159000000000006 ->E0.27736 ->D0.0 ;  fill
G1 X114.954 Y85.287 E0.01354 D0 ; ->L0.05656854249491255 ->E0.01354 ->D0.0 ;  fill
G1 Z0.8 F18000 ;  move to next layer (2)
G1 X102.764 Y73.137 F18000 ; ->17.211002295043716  ;  move to first perimeter point
G1 X115.514 Y73.137 E3.05123 D0 F900 ; ->L12.75 ->E3.05123 ->D0.0 ;  perimeter
G1 X115.514 Y85.887 E3.05123 D0 ; ->L12.75 ->E3.05123 ->D0.0 ;  perimeter
G1 X102.764 Y85.887 E3.05123 D0 ; ->L12.75 ->E3.05123 ->D0.0 ;  perimeter
G1 X102.764 Y73.257 E3.02251 D0 ; ->L12.629999999999995 ->E3.02251 ->D0.0 ;  perimeter
G1 X101.964 Y72.337 F18000 ; ->1.2191800523302532  ;  move to first perimeter point
G1 X116.314 Y72.337 E3.43413 D0 F900 ; ->L14.349999999999994 ->E3.43413 ->D0.0 ;  perimeter
G1 X116.314 Y86.687 E3.43413 D0 ; ->L14.349999999999994 ->E3.43413 ->D0.0 ;  perimeter
G1 X101.964 Y86.687 E3.43413 D0 ; ->L14.349999999999994 ->E3.43413 ->D0.0 ;  perimeter
G1 X101.964 Y72.457 E3.40541 D0 ; ->L14.230000000000004 ->E3.40541 ->D0.0 ;  perimeter
G1 X114.954 Y75.438 F18000 ; ->12.590139395574615  ;  move to first fill point
G1 X111.554 Y73.697 E0.91425 D0 F900 ; ->L3.819827352119457 ->E0.91425 ->D0.0 ;  fill
G1 X107.779 Y73.697 E0.90325 D0 ; ->L3.7750000000000057 ->E0.90325 ->D0.0 ;  fill
G1 X114.954 Y80.872 E2.42824 D0 ; ->L10.146982310026953 ->E2.42824 ->D0.0 ;  fill
G1 X114.954 Y83.991 E0.74656 D0 ; ->L3.1189999999999998 ->E0.74656 ->D0.0 ;  fill
G1 X103.324 Y78.037 E3.12683 D0 ; ->L13.065489504798503 ->E3.12683 ->D0.0 ;  fill
G1 X103.324 Y80.556 E0.60282 D0 ; ->L2.5189999999999912 ->E0.60282 ->D0.0 ;  fill
G1 X108.095 Y85.327 E1.61485 D0 ; ->L6.747212906082037 ->E1.61485 ->D0.0 ;  fill
G1 Z1.1 F18000 ;  move to next layer (3)
G1 X102.764 Y73.137 F18000 ; ->13.30472325905353  ;  move to first perimeter point
G1 X115.514 Y73.137 E3.05123 D0 F900 ; ->L12.75 ->E3.05123 ->D0.0 ;  perimeter
G1 X115.514 Y85.887 E3.05123 D0 ; ->L12.75 ->E3.05123 ->D0.0 ;  perimeter
G1 X102.764 Y85.887 E3.05123 D0 ; ->L12.75 ->E3.05123 ->D0.0 ;  perimeter
G1 X102.764 Y73.257 E3.02251 D0 ; ->L12.629999999999995 ->E3.02251 ->D0.0 ;  perimeter
G1 X101.964 Y72.337 F18000 ; ->1.2191800523302532  ;  move to first perimeter point
G1 X116.314 Y72.337 E3.43413 D0 F900 ; ->L14.349999999999994 ->E3.43413 ->D0.0 ;  perimeter
G1 X116.314 Y86.687 E3.43413 D0 ; ->L14.349999999999994 ->E3.43413 ->D0.0 ;  perimeter
G1 X101.964 Y86.687 E3.43413 D0 ; ->L14.349999999999994 ->E3.43413 ->D0.0 ;  perimeter
G1 X101.964 Y72.457 E3.40541 D0 ; ->L14.230000000000004 ->E3.40541 ->D0.0 ;  perimeter
G1 X103.324 Y79.155 F18000 ; ->6.452566388654989  ;  move to first fill point
G1 X108.782 Y73.697 E1.84715 D0 F900 ; ->L7.71877762343235 ->E1.84715 ->D0.0 ;  fill
G1 X111.156 Y73.697 E0.56825 D0 ; ->L2.3740000000000094 ->E0.56825 ->D0.0 ;  fill
G1 X105.309 Y85.327 E3.11523 D0 ; ->L13.017077590611496 ->E3.11523 ->D0.0 ;  fill
G1 X108.466 Y85.327 E0.7555 D0 ; ->L3.1569999999999965 ->E0.7555 ->D0.0 ;  fill
G1 X114.954 Y78.839 E2.19595 D0 ; ->L9.17541759267664 ->E2.19595 ->D0.0 ;  fill
G1 X114.954 Y83.051 E1.0082 D0 ; ->L4.212000000000003 ->E1.0082 ->D0.0 ;  fill
G1 X113.81 Y85.327 E0.60954 D0 ; ->L2.5473342929423226 ->E0.60954 ->D0.0 ;  fill
G1 Z1.4 F18000 ;  move to next layer (4)
G1 X102.764 Y73.137 F18000 ; ->16.45023452720356  ;  move to first perimeter point
G1 X115.514 Y73.137 E3.05123 D0 F1149.58 ; ->L12.75 ->E3.05123 ->D0.0 ;  perimeter
G1 X115.514 Y85.887 E3.05123 D0 ; ->L12.75 ->E3.05123 ->D0.0 ;  perimeter
G1 X102.764 Y85.887 E3.05123 D0 ; ->L12.75 ->E3.05123 ->D0.0 ;  perimeter
G1 X102.764 Y73.257 E3.02251 D0 ; ->L12.629999999999995 ->E3.02251 ->D0.0 ;  perimeter
G1 X101.964 Y72.337 F18000 ; ->1.2191800523302532  ;  move to first perimeter point
G1 X116.314 Y72.337 E3.43413 D0 F1149.58 ; ->L14.349999999999994 ->E3.43413 ->D0.0 ;  perimeter
G1 X116.314 Y86.687 E3.43413 D0 ; ->L14.349999999999994 ->E3.43413 ->D0.0 ;  perimeter
G1 X101.964 Y86.687 E3.43413 D0 ; ->L14.349999999999994 ->E3.43413 ->D0.0 ;  perimeter
G1 X101.964 Y72.457 E3.40541 D0 ; ->L14.230000000000004 ->E3.40541 ->D0.0 ;  perimeter
G1 X114.914 Y73.697 F18000 ; ->12.294537364211804  ;  move to first fill point
M106 S255 ;  enable fan
G1 X114.954 Y73.737 E0.02835 D0 F1500 ; ->L0.05656854249491255 ->E0.02835 ->D0.0 ;  fill
G1 X114.954 Y74.957 E0.61148 D0 ; ->L1.2199999999999989 ->E0.61148 ->D0.0 ;  fill
G1 X113.694 Y73.697 E0.89312 D0 ; ->L1.7819090885900868 ->E0.89312 ->D0.0 ;  fill
G1 X112.474 Y73.697 E0.61148 D0 ; ->L1.2199999999999989 ->E0.61148 ->D0.0 ;  fill
G1 X114.954 Y76.177 E1.75789 D0 ; ->L3.5072496346852713 ->E1.75789 ->D0.0 ;  fill
G1 X114.954 Y77.397 E0.61148 D0 ; ->L1.2199999999999989 ->E0.61148 ->D0.0 ;  fill
G1 X111.254 Y73.697 E2.62265 D0 ; ->L5.232590180780446 ->E2.62265 ->D0.0 ;  fill
G1 X110.034 Y73.697 E0.61148 D0 ; ->L1.2199999999999989 ->E0.61148 ->D0.0 ;  fill
G1 X114.954 Y78.617 E3.48742 D0 ; ->L6.957930726875619 ->E3.48742 ->D0.0 ;  fill
G1 X114.954 Y79.837 E0.61148 D0 ; ->L1.2199999999999989 ->E0.61148 ->D0.0 ;  fill
G1 X108.814 Y73.697 E4.35218 D0 ; ->L8.683271272970805 ->E4.35218 ->D0.0 ;  fill
G1 X107.594 Y73.697 E0.61148 D0 ; ->L1.2199999999999989 ->E0.61148 ->D0.0 ;  fill
G1 X114.954 Y81.057 E5.21695 D0 ; ->L10.408611819065978 ->E5.21695 ->D0.0 ;  fill
G1 X114.954 Y82.277 E0.61148 D0 ; ->L1.2199999999999989 ->E0.61148 ->D0.0 ;  fill
G1 X106.374 Y73.697 E6.08172 D0 ; ->L12.133952365161154 ->E6.08172 ->D0.0 ;  fill
G1 X105.154 Y73.697 E0.61148 D0 ; ->L1.2199999999999989 ->E0.61148 ->D0.0 ;  fill
G1 X114.954 Y83.497 E6.94648 D0 ; ->L13.859292911256327 ->E6.94648 ->D0.0 ;  fill
G1 X114.954 Y84.717 E0.61148 D0 ; ->L1.2199999999999989 ->E0.61148 ->D0.0 ;  fill
G1 X103.934 Y73.697 E7.81125 D0 ; ->L15.584633457351503 ->E7.81125 ->D0.0 ;  fill
G1 X103.324 Y74.307 E0.43238 D0 ; ->L0.8626702730475871 ->E0.43238 ->D0.0 ;  fill
G1 X114.344 Y85.327 E7.81125 D0 ; ->L15.584633457351503 ->E7.81125 ->D0.0 ;  fill
G1 X113.124 Y85.327 E0.61148 D0 ; ->L1.2199999999999989 ->E0.61148 ->D0.0 ;  fill
G1 X103.324 Y75.527 E6.94648 D0 ; ->L13.859292911256327 ->E6.94648 ->D0.0 ;  fill
G1 X103.324 Y76.747 E0.61148 D0 ; ->L1.2199999999999989 ->E0.61148 ->D0.0 ;  fill
G1 X111.904 Y85.327 E6.08172 D0 ; ->L12.133952365161154 ->E6.08172 ->D0.0 ;  fill
G1 X110.684 Y85.327 E0.61148 D0 ; ->L1.2199999999999989 ->E0.61148 ->D0.0 ;  fill
G1 X103.324 Y77.967 E5.21695 D0 ; ->L10.408611819065978 ->E5.21695 ->D0.0 ;  fill
G1 X103.324 Y79.187 E0.61148 D0 ; ->L1.2199999999999989 ->E0.61148 ->D0.0 ;  fill
G1 X109.464 Y85.327 E4.35218 D0 ; ->L8.683271272970805 ->E4.35218 ->D0.0 ;  fill
G1 X108.244 Y85.327 E0.61148 D0 ; ->L1.2199999999999989 ->E0.61148 ->D0.0 ;  fill
G1 X103.324 Y80.407 E3.48742 D0 ; ->L6.95793072687563 ->E3.48742 ->D0.0 ;  fill
G1 X103.324 Y81.627 E0.61148 D0 ; ->L1.2199999999999989 ->E0.61148 ->D0.0 ;  fill
G1 X107.024 Y85.327 E2.62265 D0 ; ->L5.232590180780456 ->E2.62265 ->D0.0 ;  fill
G1 X105.804 Y85.327 E0.61148 D0 ; ->L1.2199999999999989 ->E0.61148 ->D0.0 ;  fill
G1 X103.324 Y82.847 E1.75788 D0 ; ->L3.5072496346852815 ->E1.75788 ->D0.0 ;  fill
G1 X103.324 Y84.067 E0.61148 D0 ; ->L1.2199999999999989 ->E0.61148 ->D0.0 ;  fill
G1 X104.584 Y85.327 E0.89312 D0 ; ->L1.781909088590107 ->E0.89312 ->D0.0 ;  fill
G1 X103.364 Y85.327 E0.61148 D0 ; ->L1.2199999999999989 ->E0.61148 ->D0.0 ;  fill
G1 X103.324 Y85.287 E0.02835 D0 ; ->L0.056568542494922595 ->E0.02835 ->D0.0 ;  fill
M106 S255 ;  enable fan
G1 Z1.7 F18000 ;  move to next layer (5)
G1 X102.764 Y73.137 F18000 ; ->12.162898503235162  ;  move to first perimeter point
G1 X115.514 Y73.137 E3.05123 D0 F1185.359 ; ->L12.75 ->E3.05123 ->D0.0 ;  perimeter
G1 X115.514 Y85.887 E3.05123 D0 ; ->L12.75 ->E3.05123 ->D0.0 ;  perimeter
G1 X102.764 Y85.887 E3.05123 D0 ; ->L12.75 ->E3.05123 ->D0.0 ;  perimeter
G1 X102.764 Y73.257 E3.02251 D0 ; ->L12.629999999999995 ->E3.02251 ->D0.0 ;  perimeter
G1 X101.964 Y72.337 F18000 ; ->1.2191800523302532  ;  move to first perimeter point
G1 X116.314 Y72.337 E3.43413 D0 F1185.359 ; ->L14.349999999999994 ->E3.43413 ->D0.0 ;  perimeter
G1 X116.314 Y86.687 E3.43413 D0 ; ->L14.349999999999994 ->E3.43413 ->D0.0 ;  perimeter
G1 X101.964 Y86.687 E3.43413 D0 ; ->L14.349999999999994 ->E3.43413 ->D0.0 ;  perimeter
G1 X101.964 Y72.457 E3.40541 D0 ; ->L14.230000000000004 ->E3.40541 ->D0.0 ;  perimeter
G1 X103.324 Y73.737 F18000 ; ->1.2020353572170837  ;  move to first fill point
G1 X103.364 Y73.697 E0.01354 D0 F1185.359 ; ->L0.056568542494922595 ->E0.01354 ->D0.0 ;  fill
G1 X104.523 Y73.697 E0.27736 D0 ; ->L1.1589999999999918 ->E0.27736 ->D0.0 ;  fill
G1 X103.324 Y74.896 E0.40579 D0 ; ->L1.6956420612853382 ->E0.40579 ->D0.0 ;  fill
G1 X103.324 Y76.055 E0.27736 D0 ; ->L1.159000000000006 ->E0.27736 ->D0.0 ;  fill
G1 X105.682 Y73.697 E0.79804 D0 ; ->L3.334715580075764 ->E0.79804 ->D0.0 ;  fill
G1 X106.841 Y73.697 E0.27736 D0 ; ->L1.1589999999999918 ->E0.27736 ->D0.0 ;  fill
G1 X103.324 Y77.214 E1.19029 D0 ; ->L4.9737890988661695 ->E1.19029 ->D0.0 ;  fill
G1 X103.324 Y78.373 E0.27736 D0 ; ->L1.159000000000006 ->E0.27736 ->D0.0 ;  fill
G1 X108 Y73.697 E1.58254 D0 ; ->L6.612862617656595 ->E1.58254 ->D0.0 ;  fill
G1 X109.159 Y73.697 E0.27736 D0 ; ->L1.159000000000006 ->E0.27736 ->D0.0 ;  fill
G1 X103.324 Y79.532 E1.97479 D0 ; ->L8.25193613644701 ->E1.97479 ->D0.0 ;  fill
G1 X103.324 Y80.691 E0.27736 D0 ; ->L1.159000000000006 ->E0.27736 ->D0.0 ;  fill
G1 X110.318 Y73.697 E2.36704 D0 ; ->L9.891009655237427 ->E2.36704 ->D0.0 ;  fill
G1 X111.477 Y73.697 E0.27736 D0 ; ->L1.159000000000006 ->E0.27736 ->D0.0 ;  fill
G1 X103.324 Y81.85 E2.7593 D0 ; ->L11.530083174027842 ->E2.7593 ->D0.0 ;  fill
G1 X103.324 Y83.009 E0.27736 D0 ; ->L1.159000000000006 ->E0.27736 ->D0.0 ;  fill
G1 X112.636 Y73.697 E3.15155 D0 ; ->L13.169156692818257 ->E3.15155 ->D0.0 ;  fill
G1 X113.795 Y73.697 E0.27736 D0 ; ->L1.159000000000006 ->E0.27736 ->D0.0 ;  fill
G1 X103.324 Y84.168 E3.5438 D0 ; ->L14.808230211608683 ->E3.5438 ->D0.0 ;  fill
G1 X103.344 Y85.307 E0.27262 D0 ; ->L1.139175579092174 ->E0.27262 ->D0.0 ;  fill
G1 X114.934 Y73.717 E3.92251 D0 ; ->L16.390735187904177 ->E3.92251 ->D0.0 ;  fill
G1 X114.954 Y74.856 E0.27262 D0 ; ->L1.139175579092174 ->E0.27262 ->D0.0 ;  fill
G1 X104.483 Y85.327 E3.5438 D0 ; ->L14.808230211608672 ->E3.5438 ->D0.0 ;  fill
G1 X105.642 Y85.327 E0.27736 D0 ; ->L1.1589999999999918 ->E0.27736 ->D0.0 ;  fill
G1 X114.954 Y76.015 E3.15155 D0 ; ->L13.169156692818257 ->E3.15155 ->D0.0 ;  fill
G1 X114.954 Y77.174 E0.27736 D0 ; ->L1.159000000000006 ->E0.27736 ->D0.0 ;  fill
G1 X106.801 Y85.327 E2.7593 D0 ; ->L11.530083174027832 ->E2.7593 ->D0.0 ;  fill
G1 X107.96 Y85.327 E0.27736 D0 ; ->L1.1589999999999918 ->E0.27736 ->D0.0 ;  fill
G1 X114.954 Y78.333 E2.36705 D0 ; ->L9.891009655237427 ->E2.36705 ->D0.0 ;  fill
G1 X114.954 Y79.492 E0.27736 D0 ; ->L1.159000000000006 ->E0.27736 ->D0.0 ;  fill
G1 X109.119 Y85.327 E1.97479 D0 ; ->L8.251936136447 ->E1.97479 ->D0.0 ;  fill
G1 X110.278 Y85.327 E0.27736 D0 ; ->L1.159000000000006 ->E0.27736 ->D0.0 ;  fill
G1 X114.954 Y80.651 E1.58254 D0 ; ->L6.612862617656584 ->E1.58254 ->D0.0 ;  fill
G1 X114.954 Y81.81 E0.27736 D0 ; ->L1.159000000000006 ->E0.27736 ->D0.0 ;  fill
G1 X111.437 Y85.327 E1.19029 D0 ; ->L4.9737890988661695 ->E1.19029 ->D0.0 ;  fill
G1 X112.596 Y85.327 E0.27736 D0 ; ->L1.159000000000006 ->E0.27736 ->D0.0 ;  fill
G1 X113.695 Y84.228 E0.37209 D0 ; ->L1.5548272020374083 ->E0.37208999403953547 ->D0.0 ; retract trigger
G1 X114.954 Y82.969 B0.574 ; ->L1.7798883780383454  ; ->E0.4259500059604645  ; retract trigger Normal close
G1 X114.954 Y84.128 B0.297 ; ->L1.159000000000006  ; ->E0.27736  ;  fill Normal close
G1 X114.077 Y85.005 B0 ; ->L1.2397546343082204  ; ->E0.29668999403953555  ; retract trigger Normal close
G1 X113.755 Y85.327 ; ->0.45588742697711776  ; Wipe
G1 X114.914 Y85.327 ; ->1.159000000000006  ; Wipe
G1 X114.954 Y85.287 ; ->0.05656854249491255  ; Wipe
M106 S253 ;  enable fan
G1 Z2 F18000 ;  move to next layer (6)
G1 X102.764 Y73.137 F18000 ; ->17.211002295043716  ;  move to first perimeter point
G1 B1.0 E1.4 F400 ; Open and replenish from extrusion
G1 X115.514 Y73.137 E3.05123 D0 F1500 ; ->L12.75 ->E3.05123 ->D0.0 ;  perimeter
G1 X115.514 Y85.887 E3.05123 D0 ; ->L12.75 ->E3.05123 ->D0.0 ;  perimeter
G1 X102.764 Y85.887 E3.05123 D0 ; ->L12.75 ->E3.05123 ->D0.0 ;  perimeter
G1 X102.764 Y73.257 E3.02251 D0 ; ->L12.629999999999995 ->E3.02251 ->D0.0 ;  perimeter
G1 X101.964 Y72.337 F18000 ; ->1.2191800523302532  ;  move to first perimeter point
G1 X116.314 Y72.337 E3.43413 D0 F1500 ; ->L14.349999999999994 ->E3.43413 ->D0.0 ;  perimeter
G1 X116.314 Y86.687 E3.43413 D0 ; ->L14.349999999999994 ->E3.43413 ->D0.0 ;  perimeter
G1 X101.964 Y86.687 E3.43413 D0 ; ->L14.349999999999994 ->E3.43413 ->D0.0 ;  perimeter
G1 X101.964 Y72.457 E3.40541 D0 ; ->L14.230000000000004 ->E3.40541 ->D0.0 ;  perimeter
G1 X114.914 Y73.697 F18000 ; ->12.294537364211804  ;  move to first fill point
G1 X114.954 Y73.737 E0.01088 D0 F1200 ; ->L0.05656854249491255 ->E0.01088 ->D0.0 ;  fill
G1 X114.954 Y74.664 E0.17832 D0 ; ->L0.9270000000000067 ->E0.17832 ->D0.0 ;  fill
G1 X113.987 Y73.697 E0.26307 D0 ; ->L1.3675445148147811 ->E0.26307 ->D0.0 ;  fill
G1 X113.06 Y73.697 E0.17832 D0 ; ->L0.9269999999999925 ->E0.17832 ->D0.0 ;  fill
G1 X114.954 Y75.591 E0.51525 D0 ; ->L2.6785204871346298 ->E0.51525 ->D0.0 ;  fill
G1 X114.954 Y76.519 E0.17832 D0 ; ->L0.9280000000000115 ->E0.17832 ->D0.0 ;  fill
G1 X112.132 Y73.697 E0.76744 D0 ; ->L3.990910673016868 ->E0.76744 ->D0.0 ;  fill
G1 X111.205 Y73.697 E0.17832 D0 ; ->L0.9270000000000067 ->E0.17832 ->D0.0 ;  fill
G1 X114.954 Y77.446 E1.01962 D0 ; ->L5.301886645336727 ->E1.01962 ->D0.0 ;  fill
G1 X114.954 Y78.373 E0.17832 D0 ; ->L0.9270000000000067 ->E0.17832 ->D0.0 ;  fill
G1 X110.278 Y73.697 E1.27181 D0 ; ->L6.612862617656584 ->E1.27181 ->D0.0 ;  fill
G1 X109.351 Y73.697 E0.17832 D0 ; ->L0.9270000000000067 ->E0.17832 ->D0.0 ;  fill
G1 X114.954 Y79.3 E1.524 D0 ; ->L7.923838589976444 ->E1.524 ->D0.0 ;  fill
G1 X114.954 Y80.227 E0.17832 D0 ; ->L0.9270000000000067 ->E0.17832 ->D0.0 ;  fill
G1 X108.424 Y73.697 E1.77618 D0 ; ->L9.234814562296302 ->E1.77618 ->D0.0 ;  fill
G1 X107.496 Y73.697 E0.17832 D0 ; ->L0.9280000000000115 ->E0.17832 ->D0.0 ;  fill
G1 X114.954 Y81.155 E2.02837 D0 ; ->L10.54720474817854 ->E2.02837 ->D0.0 ;  fill
G1 X114.954 Y82.082 E0.17832 D0 ; ->L0.9269999999999925 ->E0.17832 ->D0.0 ;  fill
G1 X106.569 Y73.697 E2.28056 D0 ; ->L11.858180720498389 ->E2.28056 ->D0.0 ;  fill
G1 X105.642 Y73.697 E0.17832 D0 ; ->L0.9270000000000067 ->E0.17832 ->D0.0 ;  fill
G1 X114.954 Y83.009 E2.53274 D0 ; ->L13.169156692818257 ->E2.53274 ->D0.0 ;  fill
G1 X114.954 Y83.936 E0.17832 D0 ; ->L0.9270000000000067 ->E0.17832 ->D0.0 ;  fill
G1 X104.715 Y73.697 E2.78493 D0 ; ->L14.480132665138116 ->E2.78493 ->D0.0 ;  fill
G1 X103.788 Y73.697 E0.17832 D0 ; ->L0.9270000000000067 ->E0.17832 ->D0.0 ;  fill
G1 X114.954 Y84.863 E3.03712 D0 ; ->L15.791108637457976 ->E3.03712 ->D0.0 ;  fill
G1 X114.49 Y85.327 E0.12609 D0 ; ->L0.6561950929411142 ->E0.12609 ->D0.0 ;  fill
G1 X103.324 Y74.161 E3.03712 D0 ; ->L15.791108637457976 ->E3.03712 ->D0.0 ;  fill
G1 X103.324 Y75.088 E0.17832 D0 ; ->L0.9269999999999925 ->E0.17832 ->D0.0 ;  fill
G1 X113.563 Y85.327 E2.78493 D0 ; ->L14.480132665138125 ->E2.78493 ->D0.0 ;  fill
G1 X112.636 Y85.327 E0.17832 D0 ; ->L0.9270000000000067 ->E0.17832 ->D0.0 ;  fill
G1 X103.324 Y76.015 E2.53274 D0 ; ->L13.169156692818257 ->E2.53274 ->D0.0 ;  fill
G1 X103.324 Y76.942 E0.17832 D0 ; ->L0.9269999999999925 ->E0.17832 ->D0.0 ;  fill
G1 X111.709 Y85.327 E2.28056 D0 ; ->L11.85818072049841 ->E2.28056 ->D0.0 ;  fill
G1 X110.782 Y85.327 E0.17832 D0 ; ->L0.9270000000000067 ->E0.17832 ->D0.0 ;  fill
G1 X103.324 Y77.869 E2.02837 D0 ; ->L10.54720474817854 ->E2.02837 ->D0.0 ;  fill
G1 X103.324 Y78.797 E0.17832 D0 ; ->L0.9279999999999973 ->E0.17832 ->D0.0 ;  fill
G1 X109.854 Y85.327 E1.77618 D0 ; ->L9.234814562296313 ->E1.77618 ->D0.0 ;  fill
G1 X108.927 Y85.327 E0.17832 D0 ; ->L0.9269999999999925 ->E0.17832 ->D0.0 ;  fill
G1 X103.324 Y79.724 E1.524 D0 ; ->L7.923838589976454 ->E1.524 ->D0.0 ;  fill
G1 X103.324 Y80.651 E0.17832 D0 ; ->L0.9269999999999925 ->E0.17832 ->D0.0 ;  fill
G1 X108 Y85.327 E1.27181 D0 ; ->L6.612862617656595 ->E1.27181 ->D0.0 ;  fill
G1 X107.073 Y85.327 E0.17832 D0 ; ->L0.9270000000000067 ->E0.17832 ->D0.0 ;  fill
G1 X103.324 Y81.578 E1.01962 D0 ; ->L5.301886645336727 ->E1.01962 ->D0.0 ;  fill
G1 X103.324 Y82.505 E0.17832 D0 ; ->L0.9269999999999925 ->E0.17832 ->D0.0 ;  fill
G1 X106.146 Y85.327 E0.76744 D0 ; ->L3.990910673016878 ->E0.76744 ->D0.0 ;  fill
G1 X105.218 Y85.327 E0.17832 D0 ; ->L0.9279999999999973 ->E0.17832 ->D0.0 ;  fill
G1 X103.324 Y83.433 E0.51525 D0 ; ->L2.6785204871346395 ->E0.51525 ->D0.0 ;  fill
G1 X103.324 Y84.36 E0.17832 D0 ; ->L0.9269999999999925 ->E0.17832 ->D0.0 ;  fill
G1 X104.291 Y85.327 E0.26307 D0 ; ->L1.3675445148147811 ->E0.26307 ->D0.0 ;  fill
G1 X103.364 Y85.327 E0.17832 D0 ; ->L0.9269999999999925 ->E0.17832 ->D0.0 ;  fill
G1 X103.324 Y85.287 E0.01088 D0 ; ->L0.056568542494922595 ->E0.01088 ->D0.0 ;  fill
M106 S255 ;  enable fan
G1 Z2.3 F18000 ;  move to next layer (7)
G1 X103.184 Y73.557 F18000 ; ->11.730835434869935  ;  move to first perimeter point
G1 X115.094 Y73.557 E2.85021 D0 F900 ; ->L11.909999999999997 ->E2.85021 ->D0.0 ;  perimeter
G1 X115.094 Y85.467 E2.85021 D0 ; ->L11.909999999999997 ->E2.85021 ->D0.0 ;  perimeter
G1 X103.184 Y85.467 E2.85021 D0 ; ->L11.909999999999997 ->E2.85021 ->D0.0 ;  perimeter
G1 X103.184 Y73.677 E2.82149 D0 ; ->L11.789999999999992 ->E2.82149 ->D0.0 ;  perimeter
G1 X101.964 Y72.337 F18000 ; ->1.2902712893031445  ;  move to first perimeter point
G1 X116.314 Y72.337 E3.43413 D0 F900 ; ->L14.349999999999994 ->E3.43413 ->D0.0 ;  perimeter
G1 X116.314 Y86.687 E3.43413 D0 ; ->L14.349999999999994 ->E3.43413 ->D0.0 ;  perimeter
G1 X101.964 Y86.687 E3.43413 D0 ; ->L14.349999999999994 ->E3.43413 ->D0.0 ;  perimeter
G1 X101.964 Y72.457 E3.40541 D0 ; ->L14.230000000000004 ->E3.40541 ->D0.0 ;  perimeter
G1 X102.61 Y72.983 F18000 ; ->0.25044959572737246  ;  move to first fill point
G1 X102.784 Y72.947 E0.02582 D0 F900 ; ->L0.17768511473953688 ->E0.02582 ->D0.0 ;  fill
G1 X115.494 Y72.947 E1.8472 D0 ; ->L12.709999999999994 ->E1.8472 ->D0.0 ;  fill
G1 X115.668 Y72.983 E0.02582 D0 ; ->L0.17768511473953688 ->E0.02582 ->D0.0 ;  fill
G1 X115.704 Y73.157 E0.02582 D0 ; ->L0.1776851147395201 ->E0.02582 ->D0.0 ;  fill
G1 X115.704 Y85.867 E1.8472 D0 ; ->L12.710000000000008 ->E1.8472 ->D0.0 ;  fill
G1 X115.668 Y86.041 E0.02582 D0 ; ->L0.1776851147395201 ->E0.02582 ->D0.0 ;  fill
G1 X115.494 Y86.077 E0.02582 D0 ; ->L0.17768511473953688 ->E0.02582 ->D0.0 ;  fill
G1 X102.784 Y86.077 E1.8472 D0 ; ->L12.709999999999994 ->E1.8472 ->D0.0 ;  fill
G1 X102.61 Y86.041 E0.02582 D0 ; ->L0.17768511473953688 ->E0.02582 ->D0.0 ;  fill
G1 X102.574 Y85.867 E0.02582 D0 ; ->L0.17768511473952298 ->E0.02582 ->D0.0 ;  fill
G1 X102.586 Y73.101 E1.85541 D0 ; ->L12.76600563997996 ->E1.85541 ->D0.0 ;  fill
G1 Z2.6 F18000 ;  move to next layer (8)
G1 X103.184 Y73.557 F18000 ; ->0.7520239357892816  ;  move to first perimeter point
G1 X115.094 Y73.557 E2.85021 D0 F900 ; ->L11.909999999999997 ->E2.85021 ->D0.0 ;  perimeter
G1 X115.094 Y85.467 E2.85021 D0 ; ->L11.909999999999997 ->E2.85021 ->D0.0 ;  perimeter
G1 X103.184 Y85.467 E2.85021 D0 ; ->L11.909999999999997 ->E2.85021 ->D0.0 ;  perimeter
G1 X103.184 Y73.677 E2.82149 D0 ; ->L11.789999999999992 ->E2.82149 ->D0.0 ;  perimeter
G1 X101.964 Y72.337 F18000 ; ->1.2902712893031445  ;  move to first perimeter point
G1 X116.314 Y72.337 E3.43413 D0 F900 ; ->L14.349999999999994 ->E3.43413 ->D0.0 ;  perimeter
G1 X116.314 Y86.687 E3.43413 D0 ; ->L14.349999999999994 ->E3.43413 ->D0.0 ;  perimeter
G1 X101.964 Y86.687 E3.43413 D0 ; ->L14.349999999999994 ->E3.43413 ->D0.0 ;  perimeter
G1 X101.964 Y72.457 E3.40541 D0 ; ->L14.230000000000004 ->E3.40541 ->D0.0 ;  perimeter
G1 X102.61 Y72.983 F18000 ; ->0.25044959572737246  ;  move to first fill point
G1 X102.784 Y72.947 E0.02582 D0 F900 ; ->L0.17768511473953688 ->E0.02582 ->D0.0 ;  fill
G1 X115.494 Y72.947 E1.8472 D0 ; ->L12.709999999999994 ->E1.8472 ->D0.0 ;  fill
G1 X115.668 Y72.983 E0.02582 D0 ; ->L0.17768511473953688 ->E0.02582 ->D0.0 ;  fill
G1 X115.704 Y73.157 E0.02582 D0 ; ->L0.1776851147395201 ->E0.02582 ->D0.0 ;  fill
G1 X115.704 Y85.867 E1.8472 D0 ; ->L12.710000000000008 ->E1.8472 ->D0.0 ;  fill
G1 X115.668 Y86.041 E0.02582 D0 ; ->L0.1776851147395201 ->E0.02582 ->D0.0 ;  fill
G1 X115.494 Y86.077 E0.02582 D0 ; ->L0.17768511473953688 ->E0.02582 ->D0.0 ;  fill
G1 X102.784 Y86.077 E1.8472 D0 ; ->L12.709999999999994 ->E1.8472 ->D0.0 ;  fill
G1 X102.61 Y86.041 E0.02582 D0 ; ->L0.17768511473953688 ->E0.02582 ->D0.0 ;  fill
G1 X102.574 Y85.867 E0.02582 D0 ; ->L0.17768511473952298 ->E0.02582 ->D0.0 ;  fill
G1 X102.586 Y73.101 E1.85541 D0 ; ->L12.76600563997996 ->E1.85541 ->D0.0 ;  fill
G1 Z2.9 F18000 ;  move to next layer (9)
G1 X103.184 Y73.557 F18000 ; ->0.7520239357892816  ;  move to first perimeter point
G1 X115.094 Y73.557 E2.85021 D0 F900 ; ->L11.909999999999997 ->E2.85021 ->D0.0 ;  perimeter
G1 X115.094 Y85.467 E2.85021 D0 ; ->L11.909999999999997 ->E2.85021 ->D0.0 ;  perimeter
G1 X103.184 Y85.467 E2.85021 D0 ; ->L11.909999999999997 ->E2.85021 ->D0.0 ;  perimeter
G1 X103.184 Y73.677 E2.82149 D0 ; ->L11.789999999999992 ->E2.82149 ->D0.0 ;  perimeter
G1 X101.964 Y72.337 F18000 ; ->1.2902712893031445  ;  move to first perimeter point
G1 X116.314 Y72.337 E3.43413 D0 F900 ; ->L14.349999999999994 ->E3.43413 ->D0.0 ;  perimeter
G1 X116.314 Y86.687 E3.43413 D0 ; ->L14.349999999999994 ->E3.43413 ->D0.0 ;  perimeter
G1 X101.964 Y86.687 E3.43413 D0 ; ->L14.349999999999994 ->E3.43413 ->D0.0 ;  perimeter
G1 X101.964 Y72.457 E3.40541 D0 ; ->L14.230000000000004 ->E3.40541 ->D0.0 ;  perimeter
G1 X102.61 Y72.983 F18000 ; ->0.25044959572737246  ;  move to first fill point
G1 X102.784 Y72.947 E0.02582 D0 F900 ; ->L0.17768511473953688 ->E0.02582 ->D0.0 ;  fill
G1 X115.494 Y72.947 E1.8472 D0 ; ->L12.709999999999994 ->E1.8472 ->D0.0 ;  fill
G1 X115.668 Y72.983 E0.02582 D0 ; ->L0.17768511473953688 ->E0.02582 ->D0.0 ;  fill
G1 X115.704 Y73.157 E0.02582 D0 ; ->L0.1776851147395201 ->E0.02582 ->D0.0 ;  fill
G1 X115.704 Y85.867 E1.8472 D0 ; ->L12.710000000000008 ->E1.8472 ->D0.0 ;  fill
G1 X115.668 Y86.041 E0.02582 D0 ; ->L0.1776851147395201 ->E0.02582 ->D0.0 ;  fill
G1 X115.494 Y86.077 E0.02582 D0 ; ->L0.17768511473953688 ->E0.02582 ->D0.0 ;  fill
G1 X102.784 Y86.077 E1.8472 D0 ; ->L12.709999999999994 ->E1.8472 ->D0.0 ;  fill
G1 X102.61 Y86.041 E0.02582 D0 ; ->L0.17768511473953688 ->E0.02582 ->D0.0 ;  fill
G1 X102.574 Y85.867 E0.02582 D0 ; ->L0.17768511473952298 ->E0.02582 ->D0.0 ;  fill
G1 X102.586 Y73.101 E1.85541 D0 ; ->L12.76600563997996 ->E1.85541 ->D0.0 ;  fill
G1 Z3.2 F18000 ;  move to next layer (10)
G1 X103.184 Y73.557 F18000 ; ->0.7520239357892816  ;  move to first perimeter point
G1 X115.094 Y73.557 E2.85021 D0 F900 ; ->L11.909999999999997 ->E2.85021 ->D0.0 ;  perimeter
G1 X115.094 Y85.467 E2.85021 D0 ; ->L11.909999999999997 ->E2.85021 ->D0.0 ;  perimeter
G1 X103.184 Y85.467 E2.85021 D0 ; ->L11.909999999999997 ->E2.85021 ->D0.0 ;  perimeter
G1 X103.184 Y73.677 E2.82149 D0 ; ->L11.789999999999992 ->E2.82149 ->D0.0 ;  perimeter
G1 X101.964 Y72.337 F18000 ; ->1.2902712893031445  ;  move to first perimeter point
G1 X116.314 Y72.337 E3.43413 D0 F900 ; ->L14.349999999999994 ->E3.43413 ->D0.0 ;  perimeter
G1 X116.314 Y86.687 E3.43413 D0 ; ->L14.349999999999994 ->E3.43413 ->D0.0 ;  perimeter
G1 X101.964 Y86.687 E3.43413 D0 ; ->L14.349999999999994 ->E3.43413 ->D0.0 ;  perimeter
G1 X101.964 Y72.457 E3.40541 D0 ; ->L14.230000000000004 ->E3.40541 ->D0.0 ;  perimeter
G1 X102.61 Y72.983 F18000 ; ->0.25044959572737246  ;  move to first fill point
G1 X102.784 Y72.947 E0.02582 D0 F900 ; ->L0.17768511473953688 ->E0.02582 ->D0.0 ;  fill
G1 X115.494 Y72.947 E1.8472 D0 ; ->L12.709999999999994 ->E1.8472 ->D0.0 ;  fill
G1 X115.668 Y72.983 E0.02582 D0 ; ->L0.17768511473953688 ->E0.02582 ->D0.0 ;  fill
G1 X115.704 Y73.157 E0.02582 D0 ; ->L0.1776851147395201 ->E0.02582 ->D0.0 ;  fill
G1 X115.704 Y85.867 E1.8472 D0 ; ->L12.710000000000008 ->E1.8472 ->D0.0 ;  fill
G1 X115.668 Y86.041 E0.02582 D0 ; ->L0.1776851147395201 ->E0.02582 ->D0.0 ;  fill
G1 X115.494 Y86.077 E0.02582 D0 ; ->L0.17768511473953688 ->E0.02582 ->D0.0 ;  fill
G1 X102.784 Y86.077 E1.8472 D0 ; ->L12.709999999999994 ->E1.8472 ->D0.0 ;  fill
G1 X102.61 Y86.041 E0.02582 D0 ; ->L0.17768511473953688 ->E0.02582 ->D0.0 ;  fill
G1 X102.574 Y85.867 E0.02582 D0 ; ->L0.17768511473952298 ->E0.02582 ->D0.0 ;  fill
G1 X102.586 Y73.101 E1.85541 D0 ; ->L12.76600563997996 ->E1.85541 ->D0.0 ;  fill
G1 Z3.5 F18000 ;  move to next layer (11)
G1 X103.184 Y73.557 F18000 ; ->0.7520239357892816  ;  move to first perimeter point
G1 X115.094 Y73.557 E2.85021 D0 F900 ; ->L11.909999999999997 ->E2.85021 ->D0.0 ;  perimeter
G1 X115.094 Y85.467 E2.85021 D0 ; ->L11.909999999999997 ->E2.85021 ->D0.0 ;  perimeter
G1 X103.184 Y85.467 E2.85021 D0 ; ->L11.909999999999997 ->E2.85021 ->D0.0 ;  perimeter
G1 X103.184 Y73.677 E2.82149 D0 ; ->L11.789999999999992 ->E2.82149 ->D0.0 ;  perimeter
G1 X101.964 Y72.337 F18000 ; ->1.2902712893031445  ;  move to first perimeter point
G1 X116.314 Y72.337 E3.43413 D0 F900 ; ->L14.349999999999994 ->E3.43413 ->D0.0 ;  perimeter
G1 X116.314 Y86.687 E3.43413 D0 ; ->L14.349999999999994 ->E3.43413 ->D0.0 ;  perimeter
G1 X101.964 Y86.687 E3.43413 D0 ; ->L14.349999999999994 ->E3.43413 ->D0.0 ;  perimeter
G1 X101.964 Y72.457 E3.40541 D0 ; ->L14.230000000000004 ->E3.40541 ->D0.0 ;  perimeter
G1 X102.61 Y72.983 F18000 ; ->0.25044959572737246  ;  move to first fill point
G1 X102.784 Y72.947 E0.02582 D0 F900 ; ->L0.17768511473953688 ->E0.02582 ->D0.0 ;  fill
G1 X115.494 Y72.947 E1.8472 D0 ; ->L12.709999999999994 ->E1.8472 ->D0.0 ;  fill
G1 X115.668 Y72.983 E0.02582 D0 ; ->L0.17768511473953688 ->E0.02582 ->D0.0 ;  fill
G1 X115.704 Y73.157 E0.02582 D0 ; ->L0.1776851147395201 ->E0.02582 ->D0.0 ;  fill
G1 X115.704 Y85.867 E1.8472 D0 ; ->L12.710000000000008 ->E1.8472 ->D0.0 ;  fill
G1 X115.668 Y86.041 E0.02582 D0 ; ->L0.1776851147395201 ->E0.02582 ->D0.0 ;  fill
G1 X115.494 Y86.077 E0.02582 D0 ; ->L0.17768511473953688 ->E0.02582 ->D0.0 ;  fill
G1 X102.784 Y86.077 E1.8472 D0 ; ->L12.709999999999994 ->E1.8472 ->D0.0 ;  fill
G1 X102.61 Y86.041 E0.02582 D0 ; ->L0.17768511473953688 ->E0.02582 ->D0.0 ;  fill
G1 X102.574 Y85.867 E0.02582 D0 ; ->L0.17768511473952298 ->E0.02582 ->D0.0 ;  fill
G1 X102.586 Y73.101 E1.85541 D0 ; ->L12.76600563997996 ->E1.85541 ->D0.0 ;  fill
G1 Z3.8 F18000 ;  move to next layer (12)
G1 X103.184 Y73.557 F18000 ; ->0.7520239357892816  ;  move to first perimeter point
G1 X115.094 Y73.557 E2.85021 D0 F900 ; ->L11.909999999999997 ->E2.85021 ->D0.0 ;  perimeter
G1 X115.094 Y85.467 E2.85021 D0 ; ->L11.909999999999997 ->E2.85021 ->D0.0 ;  perimeter
G1 X103.184 Y85.467 E2.85021 D0 ; ->L11.909999999999997 ->E2.85021 ->D0.0 ;  perimeter
G1 X103.184 Y73.677 E2.82149 D0 ; ->L11.789999999999992 ->E2.82149 ->D0.0 ;  perimeter
G1 X101.964 Y72.337 F18000 ; ->1.2902712893031445  ;  move to first perimeter point
G1 X116.314 Y72.337 E3.43413 D0 F900 ; ->L14.349999999999994 ->E3.43413 ->D0.0 ;  perimeter
G1 X116.314 Y86.687 E3.43413 D0 ; ->L14.349999999999994 ->E3.43413 ->D0.0 ;  perimeter
G1 X101.964 Y86.687 E3.43413 D0 ; ->L14.349999999999994 ->E3.43413 ->D0.0 ;  perimeter
G1 X101.964 Y72.457 E3.40541 D0 ; ->L14.230000000000004 ->E3.40541 ->D0.0 ;  perimeter
G1 X102.61 Y72.983 F18000 ; ->0.25044959572737246  ;  move to first fill point
G1 X102.784 Y72.947 E0.02582 D0 F900 ; ->L0.17768511473953688 ->E0.02582 ->D0.0 ;  fill
G1 X115.494 Y72.947 E1.8472 D0 ; ->L12.709999999999994 ->E1.8472 ->D0.0 ;  fill
G1 X115.668 Y72.983 E0.02582 D0 ; ->L0.17768511473953688 ->E0.02582 ->D0.0 ;  fill
G1 X115.704 Y73.157 E0.02582 D0 ; ->L0.1776851147395201 ->E0.02582 ->D0.0 ;  fill
G1 X115.704 Y85.867 E1.8472 D0 ; ->L12.710000000000008 ->E1.8472 ->D0.0 ;  fill
G1 X115.668 Y86.041 E0.02582 D0 ; ->L0.1776851147395201 ->E0.02582 ->D0.0 ;  fill
G1 X115.494 Y86.077 E0.02582 D0 ; ->L0.17768511473953688 ->E0.02582 ->D0.0 ;  fill
G1 X102.784 Y86.077 E1.8472 D0 ; ->L12.709999999999994 ->E1.8472 ->D0.0 ;  fill
G1 X102.61 Y86.041 E0.02582 D0 ; ->L0.17768511473953688 ->E0.02582 ->D0.0 ;  fill
G1 X102.574 Y85.867 E0.02582 D0 ; ->L0.17768511473952298 ->E0.02582 ->D0.0 ;  fill
G1 X102.586 Y73.101 E1.85541 D0 ; ->L12.76600563997996 ->E1.85541 ->D0.0 ;  fill
G1 Z4.1 F18000 ;  move to next layer (13)
G1 X103.184 Y73.557 F18000 ; ->0.7520239357892816  ;  move to first perimeter point
G1 X115.094 Y73.557 E2.85021 D0 F900 ; ->L11.909999999999997 ->E2.85021 ->D0.0 ;  perimeter
G1 X115.094 Y85.467 E2.85021 D0 ; ->L11.909999999999997 ->E2.85021 ->D0.0 ;  perimeter
G1 X103.184 Y85.467 E2.85021 D0 ; ->L11.909999999999997 ->E2.85021 ->D0.0 ;  perimeter
G1 X103.184 Y73.677 E2.82149 D0 ; ->L11.789999999999992 ->E2.82149 ->D0.0 ;  perimeter
G1 X101.964 Y72.337 F18000 ; ->1.2902712893031445  ;  move to first perimeter point
G1 X116.314 Y72.337 E3.43413 D0 F900 ; ->L14.349999999999994 ->E3.43413 ->D0.0 ;  perimeter
G1 X116.314 Y86.687 E3.43413 D0 ; ->L14.349999999999994 ->E3.43413 ->D0.0 ;  perimeter
G1 X101.964 Y86.687 E3.43413 D0 ; ->L14.349999999999994 ->E3.43413 ->D0.0 ;  perimeter
G1 X101.964 Y72.457 E3.40541 D0 ; ->L14.230000000000004 ->E3.40541 ->D0.0 ;  perimeter
G1 X102.61 Y72.983 F18000 ; ->0.25044959572737246  ;  move to first fill point
G1 X102.784 Y72.947 E0.02582 D0 F900 ; ->L0.17768511473953688 ->E0.02582 ->D0.0 ;  fill
G1 X115.494 Y72.947 E1.8472 D0 ; ->L12.709999999999994 ->E1.8472 ->D0.0 ;  fill
G1 X115.668 Y72.983 E0.02582 D0 ; ->L0.17768511473953688 ->E0.02582 ->D0.0 ;  fill
G1 X115.704 Y73.157 E0.02582 D0 ; ->L0.1776851147395201 ->E0.02582 ->D0.0 ;  fill
G1 X115.704 Y85.867 E1.8472 D0 ; ->L12.710000000000008 ->E1.8472 ->D0.0 ;  fill
G1 X115.668 Y86.041 E0.02582 D0 ; ->L0.1776851147395201 ->E0.02582 ->D0.0 ;  fill
G1 X115.494 Y86.077 E0.02582 D0 ; ->L0.17768511473953688 ->E0.02582 ->D0.0 ;  fill
G1 X102.784 Y86.077 E1.8472 D0 ; ->L12.709999999999994 ->E1.8472 ->D0.0 ;  fill
G1 X102.61 Y86.041 E0.02582 D0 ; ->L0.17768511473953688 ->E0.02582 ->D0.0 ;  fill
G1 X102.574 Y85.867 E0.02582 D0 ; ->L0.17768511473952298 ->E0.02582 ->D0.0 ;  fill
G1 X102.586 Y73.101 E1.85541 D0 ; ->L12.76600563997996 ->E1.85541 ->D0.0 ;  fill
G1 Z4.4 F18000 ;  move to next layer (14)
G1 X103.184 Y73.557 F18000 ; ->0.7520239357892816  ;  move to first perimeter point
G1 X115.094 Y73.557 E2.85021 D0 F900 ; ->L11.909999999999997 ->E2.85021 ->D0.0 ;  perimeter
G1 X115.094 Y85.467 E2.85021 D0 ; ->L11.909999999999997 ->E2.85021 ->D0.0 ;  perimeter
G1 X103.184 Y85.467 E2.85021 D0 ; ->L11.909999999999997 ->E2.85021 ->D0.0 ;  perimeter
G1 X103.184 Y73.677 E2.82149 D0 ; ->L11.789999999999992 ->E2.82149 ->D0.0 ;  perimeter
G1 X101.964 Y72.337 F18000 ; ->1.2902712893031445  ;  move to first perimeter point
G1 X116.314 Y72.337 E3.43413 D0 F900 ; ->L14.349999999999994 ->E3.43413 ->D0.0 ;  perimeter
G1 X116.314 Y86.687 E3.43413 D0 ; ->L14.349999999999994 ->E3.43413 ->D0.0 ;  perimeter
G1 X101.964 Y86.687 E3.43413 D0 ; ->L14.349999999999994 ->E3.43413 ->D0.0 ;  perimeter
G1 X101.964 Y72.457 E3.40541 D0 ; ->L14.230000000000004 ->E3.40541 ->D0.0 ;  perimeter
G1 X102.61 Y72.983 F18000 ; ->0.25044959572737246  ;  move to first fill point
G1 X102.784 Y72.947 E0.02582 D0 F900 ; ->L0.17768511473953688 ->E0.02582 ->D0.0 ;  fill
G1 X115.494 Y72.947 E1.8472 D0 ; ->L12.709999999999994 ->E1.8472 ->D0.0 ;  fill
G1 X115.668 Y72.983 E0.02582 D0 ; ->L0.17768511473953688 ->E0.02582 ->D0.0 ;  fill
G1 X115.704 Y73.157 E0.02582 D0 ; ->L0.1776851147395201 ->E0.02582 ->D0.0 ;  fill
G1 X115.704 Y85.867 E1.8472 D0 ; ->L12.710000000000008 ->E1.8472 ->D0.0 ;  fill
G1 X115.668 Y86.041 E0.02582 D0 ; ->L0.1776851147395201 ->E0.02582 ->D0.0 ;  fill
G1 X115.494 Y86.077 E0.02582 D0 ; ->L0.17768511473953688 ->E0.02582 ->D0.0 ;  fill
G1 X102.784 Y86.077 E1.8472 D0 ; ->L12.709999999999994 ->E1.8472 ->D0.0 ;  fill
G1 X102.61 Y86.041 E0.02582 D0 ; ->L0.17768511473953688 ->E0.02582 ->D0.0 ;  fill
G1 X102.574 Y85.867 E0.02582 D0 ; ->L0.17768511473952298 ->E0.02582 ->D0.0 ;  fill
G1 X102.586 Y73.101 E1.85541 D0 ; ->L12.76600563997996 ->E1.85541 ->D0.0 ;  fill
G1 Z4.7 F18000 ;  move to next layer (15)
G1 X103.184 Y73.557 F18000 ; ->0.7520239357892816  ;  move to first perimeter point
G1 X115.094 Y73.557 E2.85021 D0 F900 ; ->L11.909999999999997 ->E2.85021 ->D0.0 ;  perimeter
G1 X115.094 Y85.467 E2.85021 D0 ; ->L11.909999999999997 ->E2.85021 ->D0.0 ;  perimeter
G1 X103.184 Y85.467 E2.85021 D0 ; ->L11.909999999999997 ->E2.85021 ->D0.0 ;  perimeter
G1 X103.184 Y73.677 E2.82149 D0 ; ->L11.789999999999992 ->E2.82149 ->D0.0 ;  perimeter
G1 X101.964 Y72.337 F18000 ; ->1.2902712893031445  ;  move to first perimeter point
G1 X116.314 Y72.337 E3.43413 D0 F900 ; ->L14.349999999999994 ->E3.43413 ->D0.0 ;  perimeter
G1 X116.314 Y86.687 E3.43413 D0 ; ->L14.349999999999994 ->E3.43413 ->D0.0 ;  perimeter
G1 X101.964 Y86.687 E3.43413 D0 ; ->L14.349999999999994 ->E3.43413 ->D0.0 ;  perimeter
G1 X101.964 Y72.457 E3.40541 D0 ; ->L14.230000000000004 ->E3.40541 ->D0.0 ;  perimeter
G1 X102.61 Y72.983 F18000 ; ->0.25044959572737246  ;  move to first fill point
G1 X102.784 Y72.947 E0.02582 D0 F900 ; ->L0.17768511473953688 ->E0.02582 ->D0.0 ;  fill
G1 X115.494 Y72.947 E1.8472 D0 ; ->L12.709999999999994 ->E1.8472 ->D0.0 ;  fill
G1 X115.668 Y72.983 E0.02582 D0 ; ->L0.17768511473953688 ->E0.02582 ->D0.0 ;  fill
G1 X115.704 Y73.157 E0.02582 D0 ; ->L0.1776851147395201 ->E0.02582 ->D0.0 ;  fill
G1 X115.704 Y85.867 E1.8472 D0 ; ->L12.710000000000008 ->E1.8472 ->D0.0 ;  fill
G1 X115.668 Y86.041 E0.02582 D0 ; ->L0.1776851147395201 ->E0.02582 ->D0.0 ;  fill
G1 X115.494 Y86.077 E0.02582 D0 ; ->L0.17768511473953688 ->E0.02582 ->D0.0 ;  fill
G1 X102.784 Y86.077 E1.8472 D0 ; ->L12.709999999999994 ->E1.8472 ->D0.0 ;  fill
G1 X102.61 Y86.041 E0.02582 D0 ; ->L0.17768511473953688 ->E0.02582 ->D0.0 ;  fill
G1 X102.574 Y85.867 E0.02582 D0 ; ->L0.17768511473952298 ->E0.02582 ->D0.0 ;  fill
G1 X102.586 Y73.101 E1.85541 D0 ; ->L12.76600563997996 ->E1.85541 ->D0.0 ;  fill
G1 Z5 F18000 ;  move to next layer (16)
G1 X103.184 Y73.557 F18000 ; ->0.7520239357892816  ;  move to first perimeter point
G1 X115.094 Y73.557 E2.85021 D0 F900 ; ->L11.909999999999997 ->E2.85021 ->D0.0 ;  perimeter
G1 X115.094 Y85.467 E2.85021 D0 ; ->L11.909999999999997 ->E2.85021 ->D0.0 ;  perimeter
G1 X103.184 Y85.467 E2.85021 D0 ; ->L11.909999999999997 ->E2.85021 ->D0.0 ;  perimeter
G1 X103.184 Y73.677 E2.82149 D0 ; ->L11.789999999999992 ->E2.82149 ->D0.0 ;  perimeter
G1 X101.964 Y72.337 F18000 ; ->1.2902712893031445  ;  move to first perimeter point
G1 X116.314 Y72.337 E3.43413 D0 F900 ; ->L14.349999999999994 ->E3.43413 ->D0.0 ;  perimeter
G1 X116.314 Y86.687 E3.43413 D0 ; ->L14.349999999999994 ->E3.43413 ->D0.0 ;  perimeter
G1 X101.964 Y86.687 E3.43413 D0 ; ->L14.349999999999994 ->E3.43413 ->D0.0 ;  perimeter
G1 X101.964 Y72.457 E3.40541 D0 ; ->L14.230000000000004 ->E3.40541 ->D0.0 ;  perimeter
G1 X102.61 Y72.983 F18000 ; ->0.25044959572737246  ;  move to first fill point
G1 X102.784 Y72.947 E0.02582 D0 F900 ; ->L0.17768511473953688 ->E0.02582 ->D0.0 ;  fill
G1 X115.494 Y72.947 E1.8472 D0 ; ->L12.709999999999994 ->E1.8472 ->D0.0 ;  fill
G1 X115.668 Y72.983 E0.02582 D0 ; ->L0.17768511473953688 ->E0.02582 ->D0.0 ;  fill
G1 X115.704 Y73.157 E0.02582 D0 ; ->L0.1776851147395201 ->E0.02582 ->D0.0 ;  fill
G1 X115.704 Y85.867 E1.8472 D0 ; ->L12.710000000000008 ->E1.8472 ->D0.0 ;  fill
G1 X115.668 Y86.041 E0.02582 D0 ; ->L0.1776851147395201 ->E0.02582 ->D0.0 ;  fill
G1 X115.494 Y86.077 E0.02582 D0 ; ->L0.17768511473953688 ->E0.02582 ->D0.0 ;  fill
G1 X102.784 Y86.077 E1.8472 D0 ; ->L12.709999999999994 ->E1.8472 ->D0.0 ;  fill
G1 X102.61 Y86.041 E0.02582 D0 ; ->L0.17768511473953688 ->E0.02582 ->D0.0 ;  fill
G1 X102.574 Y85.867 E0.02582 D0 ; ->L0.17768511473952298 ->E0.02582 ->D0.0 ;  fill
G1 X102.586 Y73.101 E1.85541 D0 ; ->L12.76600563997996 ->E1.85541 ->D0.0 ;  fill
G1 Z5.3 F18000 ;  move to next layer (17)
G1 X103.184 Y73.557 F18000 ; ->0.7520239357892816  ;  move to first perimeter point
G1 X115.094 Y73.557 E2.85021 D0 F900 ; ->L11.909999999999997 ->E2.85021 ->D0.0 ;  perimeter
G1 X115.094 Y85.467 E2.85021 D0 ; ->L11.909999999999997 ->E2.85021 ->D0.0 ;  perimeter
G1 X103.184 Y85.467 E2.85021 D0 ; ->L11.909999999999997 ->E2.85021 ->D0.0 ;  perimeter
G1 X103.184 Y73.677 E2.82149 D0 ; ->L11.789999999999992 ->E2.82149 ->D0.0 ;  perimeter
G1 X101.964 Y72.337 F18000 ; ->1.2902712893031445  ;  move to first perimeter point
G1 X116.314 Y72.337 E3.43413 D0 F900 ; ->L14.349999999999994 ->E3.43413 ->D0.0 ;  perimeter
G1 X116.314 Y86.687 E3.43413 D0 ; ->L14.349999999999994 ->E3.43413 ->D0.0 ;  perimeter
G1 X101.964 Y86.687 E3.43413 D0 ; ->L14.349999999999994 ->E3.43413 ->D0.0 ;  perimeter
G1 X101.964 Y72.457 E3.40541 D0 ; ->L14.230000000000004 ->E3.40541 ->D0.0 ;  perimeter
G1 X102.61 Y72.983 F18000 ; ->0.25044959572737246  ;  move to first fill point
G1 X102.784 Y72.947 E0.02582 D0 F900 ; ->L0.17768511473953688 ->E0.02582 ->D0.0 ;  fill
G1 X115.494 Y72.947 E1.8472 D0 ; ->L12.709999999999994 ->E1.8472 ->D0.0 ;  fill
G1 X115.668 Y72.983 E0.02582 D0 ; ->L0.17768511473953688 ->E0.02582 ->D0.0 ;  fill
G1 X115.704 Y73.157 E0.02582 D0 ; ->L0.1776851147395201 ->E0.02582 ->D0.0 ;  fill
G1 X115.704 Y85.867 E1.8472 D0 ; ->L12.710000000000008 ->E1.8472 ->D0.0 ;  fill
G1 X115.668 Y86.041 E0.02582 D0 ; ->L0.1776851147395201 ->E0.02582 ->D0.0 ;  fill
G1 X115.494 Y86.077 E0.02582 D0 ; ->L0.17768511473953688 ->E0.02582 ->D0.0 ;  fill
G1 X102.784 Y86.077 E1.8472 D0 ; ->L12.709999999999994 ->E1.8472 ->D0.0 ;  fill
G1 X102.61 Y86.041 E0.02582 D0 ; ->L0.17768511473953688 ->E0.02582 ->D0.0 ;  fill
G1 X102.574 Y85.867 E0.02582 D0 ; ->L0.17768511473952298 ->E0.02582 ->D0.0 ;  fill
G1 X102.586 Y73.101 E1.85541 D0 ; ->L12.76600563997996 ->E1.85541 ->D0.0 ;  fill
G1 Z5.6 F18000 ;  move to next layer (18)
G1 X103.184 Y73.557 F18000 ; ->0.7520239357892816  ;  move to first perimeter point
G1 X115.094 Y73.557 E2.85021 D0 F900 ; ->L11.909999999999997 ->E2.85021 ->D0.0 ;  perimeter
G1 X115.094 Y85.467 E2.85021 D0 ; ->L11.909999999999997 ->E2.85021 ->D0.0 ;  perimeter
G1 X103.184 Y85.467 E2.85021 D0 ; ->L11.909999999999997 ->E2.85021 ->D0.0 ;  perimeter
G1 X103.184 Y73.677 E2.82149 D0 ; ->L11.789999999999992 ->E2.82149 ->D0.0 ;  perimeter
G1 X101.964 Y72.337 F18000 ; ->1.2902712893031445  ;  move to first perimeter point
G1 X116.314 Y72.337 E3.43413 D0 F900 ; ->L14.349999999999994 ->E3.43413 ->D0.0 ;  perimeter
G1 X116.314 Y86.687 E3.43413 D0 ; ->L14.349999999999994 ->E3.43413 ->D0.0 ;  perimeter
G1 X101.964 Y86.687 E3.43413 D0 ; ->L14.349999999999994 ->E3.43413 ->D0.0 ;  perimeter
G1 X101.964 Y72.457 E3.40541 D0 ; ->L14.230000000000004 ->E3.40541 ->D0.0 ;  perimeter
G1 X102.61 Y72.983 F18000 ; ->0.25044959572737246  ;  move to first fill point
G1 X102.784 Y72.947 E0.02582 D0 F900 ; ->L0.17768511473953688 ->E0.02582 ->D0.0 ;  fill
G1 X115.494 Y72.947 E1.8472 D0 ; ->L12.709999999999994 ->E1.8472 ->D0.0 ;  fill
G1 X115.668 Y72.983 E0.02582 D0 ; ->L0.17768511473953688 ->E0.02582 ->D0.0 ;  fill
G1 X115.704 Y73.157 E0.02582 D0 ; ->L0.1776851147395201 ->E0.02582 ->D0.0 ;  fill
G1 X115.704 Y85.867 E1.8472 D0 ; ->L12.710000000000008 ->E1.8472 ->D0.0 ;  fill
G1 X115.668 Y86.041 E0.02582 D0 ; ->L0.1776851147395201 ->E0.02582 ->D0.0 ;  fill
G1 X115.494 Y86.077 E0.02582 D0 ; ->L0.17768511473953688 ->E0.02582 ->D0.0 ;  fill
G1 X102.784 Y86.077 E1.8472 D0 ; ->L12.709999999999994 ->E1.8472 ->D0.0 ;  fill
G1 X102.61 Y86.041 E0.02582 D0 ; ->L0.17768511473953688 ->E0.02582 ->D0.0 ;  fill
G1 X102.574 Y85.867 E0.02582 D0 ; ->L0.17768511473952298 ->E0.02582 ->D0.0 ;  fill
G1 X102.586 Y73.101 E1.85541 D0 ; ->L12.76600563997996 ->E1.85541 ->D0.0 ;  fill
G1 Z5.9 F18000 ;  move to next layer (19)
G1 X103.184 Y73.557 F18000 ; ->0.7520239357892816  ;  move to first perimeter point
G1 X115.094 Y73.557 E2.85021 D0 F900 ; ->L11.909999999999997 ->E2.85021 ->D0.0 ;  perimeter
G1 X115.094 Y85.467 E2.85021 D0 ; ->L11.909999999999997 ->E2.85021 ->D0.0 ;  perimeter
G1 X103.184 Y85.467 E2.85021 D0 ; ->L11.909999999999997 ->E2.85021 ->D0.0 ;  perimeter
G1 X103.184 Y73.677 E2.82149 D0 ; ->L11.789999999999992 ->E2.82149 ->D0.0 ;  perimeter
G1 X101.964 Y72.337 F18000 ; ->1.2902712893031445  ;  move to first perimeter point
G1 X116.314 Y72.337 E3.43413 D0 F900 ; ->L14.349999999999994 ->E3.43413 ->D0.0 ;  perimeter
G1 X116.314 Y86.687 E3.43413 D0 ; ->L14.349999999999994 ->E3.43413 ->D0.0 ;  perimeter
G1 X101.964 Y86.687 E3.43413 D0 ; ->L14.349999999999994 ->E3.43413 ->D0.0 ;  perimeter
G1 X101.964 Y72.457 E3.40541 D0 ; ->L14.230000000000004 ->E3.40541 ->D0.0 ;  perimeter
G1 X102.61 Y72.983 F18000 ; ->0.25044959572737246  ;  move to first fill point
G1 X102.784 Y72.947 E0.02582 D0 F900 ; ->L0.17768511473953688 ->E0.02582 ->D0.0 ;  fill
G1 X115.494 Y72.947 E1.8472 D0 ; ->L12.709999999999994 ->E1.8472 ->D0.0 ;  fill
G1 X115.668 Y72.983 E0.02582 D0 ; ->L0.17768511473953688 ->E0.02582 ->D0.0 ;  fill
G1 X115.704 Y73.157 E0.02582 D0 ; ->L0.1776851147395201 ->E0.02582 ->D0.0 ;  fill
G1 X115.704 Y85.867 E1.8472 D0 ; ->L12.710000000000008 ->E1.8472 ->D0.0 ;  fill
G1 X115.668 Y86.041 E0.02582 D0 ; ->L0.1776851147395201 ->E0.02582 ->D0.0 ;  fill
G1 X115.494 Y86.077 E0.02582 D0 ; ->L0.17768511473953688 ->E0.02582 ->D0.0 ;  fill
G1 X102.784 Y86.077 E1.8472 D0 ; ->L12.709999999999994 ->E1.8472 ->D0.0 ;  fill
G1 X102.61 Y86.041 E0.02582 D0 ; ->L0.17768511473953688 ->E0.02582 ->D0.0 ;  fill
G1 X102.574 Y85.867 E0.02582 D0 ; ->L0.17768511473952298 ->E0.02582 ->D0.0 ;  fill
G1 X102.586 Y73.101 E1.85541 D0 ; ->L12.76600563997996 ->E1.85541 ->D0.0 ;  fill
G1 Z6.2 F18000 ;  move to next layer (20)
G1 X103.184 Y73.557 F18000 ; ->0.7520239357892816  ;  move to first perimeter point
G1 X115.094 Y73.557 E2.85021 D0 F900 ; ->L11.909999999999997 ->E2.85021 ->D0.0 ;  perimeter
G1 X115.094 Y85.467 E2.85021 D0 ; ->L11.909999999999997 ->E2.85021 ->D0.0 ;  perimeter
G1 X103.184 Y85.467 E2.85021 D0 ; ->L11.909999999999997 ->E2.85021 ->D0.0 ;  perimeter
G1 X103.184 Y73.677 E2.82149 D0 ; ->L11.789999999999992 ->E2.82149 ->D0.0 ;  perimeter
G1 X101.964 Y72.337 F18000 ; ->1.2902712893031445  ;  move to first perimeter point
G1 X116.314 Y72.337 E3.43413 D0 F900 ; ->L14.349999999999994 ->E3.43413 ->D0.0 ;  perimeter
G1 X116.314 Y86.687 E3.43413 D0 ; ->L14.349999999999994 ->E3.43413 ->D0.0 ;  perimeter
G1 X101.964 Y86.687 E3.43413 D0 ; ->L14.349999999999994 ->E3.43413 ->D0.0 ;  perimeter
G1 X101.964 Y72.457 E3.40541 D0 ; ->L14.230000000000004 ->E3.40541 ->D0.0 ;  perimeter
G1 X102.61 Y72.983 F18000 ; ->0.25044959572737246  ;  move to first fill point
G1 X102.784 Y72.947 E0.02582 D0 F900 ; ->L0.17768511473953688 ->E0.02582 ->D0.0 ;  fill
G1 X115.494 Y72.947 E1.8472 D0 ; ->L12.709999999999994 ->E1.8472 ->D0.0 ;  fill
G1 X115.668 Y72.983 E0.02582 D0 ; ->L0.17768511473953688 ->E0.02582 ->D0.0 ;  fill
G1 X115.704 Y73.157 E0.02582 D0 ; ->L0.1776851147395201 ->E0.02582 ->D0.0 ;  fill
G1 X115.704 Y85.867 E1.8472 D0 ; ->L12.710000000000008 ->E1.8472 ->D0.0 ;  fill
G1 X115.668 Y86.041 E0.02582 D0 ; ->L0.1776851147395201 ->E0.02582 ->D0.0 ;  fill
G1 X115.494 Y86.077 E0.02582 D0 ; ->L0.17768511473953688 ->E0.02582 ->D0.0 ;  fill
G1 X102.784 Y86.077 E1.8472 D0 ; ->L12.709999999999994 ->E1.8472 ->D0.0 ;  fill
G1 X102.61 Y86.041 E0.02582 D0 ; ->L0.17768511473953688 ->E0.02582 ->D0.0 ;  fill
G1 X102.574 Y85.867 E0.02582 D0 ; ->L0.17768511473952298 ->E0.02582 ->D0.0 ;  fill
G1 X102.586 Y73.101 E1.85541 D0 ; ->L12.76600563997996 ->E1.85541 ->D0.0 ;  fill
G1 Z6.5 F18000 ;  move to next layer (21)
G1 X103.184 Y73.557 F18000 ; ->0.7520239357892816  ;  move to first perimeter point
G1 X115.094 Y73.557 E2.85021 D0 F900 ; ->L11.909999999999997 ->E2.85021 ->D0.0 ;  perimeter
G1 X115.094 Y85.467 E2.85021 D0 ; ->L11.909999999999997 ->E2.85021 ->D0.0 ;  perimeter
G1 X103.184 Y85.467 E2.85021 D0 ; ->L11.909999999999997 ->E2.85021 ->D0.0 ;  perimeter
G1 X103.184 Y73.677 E2.82149 D0 ; ->L11.789999999999992 ->E2.82149 ->D0.0 ;  perimeter
G1 X101.964 Y72.337 F18000 ; ->1.2902712893031445  ;  move to first perimeter point
G1 X116.314 Y72.337 E3.43413 D0 F900 ; ->L14.349999999999994 ->E3.43413 ->D0.0 ;  perimeter
G1 X116.314 Y86.687 E3.43413 D0 ; ->L14.349999999999994 ->E3.43413 ->D0.0 ;  perimeter
G1 X101.964 Y86.687 E3.43413 D0 ; ->L14.349999999999994 ->E3.43413 ->D0.0 ;  perimeter
G1 X101.964 Y72.457 E3.40541 D0 ; ->L14.230000000000004 ->E3.40541 ->D0.0 ;  perimeter
G1 X102.61 Y72.983 F18000 ; ->0.25044959572737246  ;  move to first fill point
G1 X102.784 Y72.947 E0.02582 D0 F900 ; ->L0.17768511473953688 ->E0.02582 ->D0.0 ;  fill
G1 X115.494 Y72.947 E1.8472 D0 ; ->L12.709999999999994 ->E1.8472 ->D0.0 ;  fill
G1 X115.668 Y72.983 E0.02582 D0 ; ->L0.17768511473953688 ->E0.02582 ->D0.0 ;  fill
G1 X115.704 Y73.157 E0.02582 D0 ; ->L0.1776851147395201 ->E0.02582 ->D0.0 ;  fill
G1 X115.704 Y85.867 E1.8472 D0 ; ->L12.710000000000008 ->E1.8472 ->D0.0 ;  fill
G1 X115.668 Y86.041 E0.02582 D0 ; ->L0.1776851147395201 ->E0.02582 ->D0.0 ;  fill
G1 X115.494 Y86.077 E0.02582 D0 ; ->L0.17768511473953688 ->E0.02582 ->D0.0 ;  fill
G1 X102.784 Y86.077 E1.8472 D0 ; ->L12.709999999999994 ->E1.8472 ->D0.0 ;  fill
G1 X102.61 Y86.041 E0.02582 D0 ; ->L0.17768511473953688 ->E0.02582 ->D0.0 ;  fill
G1 X102.574 Y85.867 E0.02582 D0 ; ->L0.17768511473952298 ->E0.02582 ->D0.0 ;  fill
G1 X102.586 Y73.101 E1.85541 D0 ; ->L12.76600563997996 ->E1.85541 ->D0.0 ;  fill
G1 Z6.8 F18000 ;  move to next layer (22)
G1 X103.184 Y73.557 F18000 ; ->0.7520239357892816  ;  move to first perimeter point
G1 X115.094 Y73.557 E2.85021 D0 F900 ; ->L11.909999999999997 ->E2.85021 ->D0.0 ;  perimeter
G1 X115.094 Y85.467 E2.85021 D0 ; ->L11.909999999999997 ->E2.85021 ->D0.0 ;  perimeter
G1 X103.184 Y85.467 E2.85021 D0 ; ->L11.909999999999997 ->E2.85021 ->D0.0 ;  perimeter
G1 X103.184 Y73.677 E2.82149 D0 ; ->L11.789999999999992 ->E2.82149 ->D0.0 ;  perimeter
G1 X101.964 Y72.337 F18000 ; ->1.2902712893031445  ;  move to first perimeter point
G1 X116.314 Y72.337 E3.43413 D0 F900 ; ->L14.349999999999994 ->E3.43413 ->D0.0 ;  perimeter
G1 X116.314 Y86.687 E3.43413 D0 ; ->L14.349999999999994 ->E3.43413 ->D0.0 ;  perimeter
G1 X101.964 Y86.687 E3.43413 D0 ; ->L14.349999999999994 ->E3.43413 ->D0.0 ;  perimeter
G1 X101.964 Y72.457 E3.40541 D0 ; ->L14.230000000000004 ->E3.40541 ->D0.0 ;  perimeter
G1 X102.61 Y72.983 F18000 ; ->0.25044959572737246  ;  move to first fill point
G1 X102.784 Y72.947 E0.02582 D0 F900 ; ->L0.17768511473953688 ->E0.02582 ->D0.0 ;  fill
G1 X115.494 Y72.947 E1.8472 D0 ; ->L12.709999999999994 ->E1.8472 ->D0.0 ;  fill
G1 X115.668 Y72.983 E0.02582 D0 ; ->L0.17768511473953688 ->E0.02582 ->D0.0 ;  fill
G1 X115.704 Y73.157 E0.02582 D0 ; ->L0.1776851147395201 ->E0.02582 ->D0.0 ;  fill
G1 X115.704 Y85.867 E1.8472 D0 ; ->L12.710000000000008 ->E1.8472 ->D0.0 ;  fill
G1 X115.668 Y86.041 E0.02582 D0 ; ->L0.1776851147395201 ->E0.02582 ->D0.0 ;  fill
G1 X115.494 Y86.077 E0.02582 D0 ; ->L0.17768511473953688 ->E0.02582 ->D0.0 ;  fill
G1 X102.784 Y86.077 E1.8472 D0 ; ->L12.709999999999994 ->E1.8472 ->D0.0 ;  fill
G1 X102.61 Y86.041 E0.02582 D0 ; ->L0.17768511473953688 ->E0.02582 ->D0.0 ;  fill
G1 X102.574 Y85.867 E0.02582 D0 ; ->L0.17768511473952298 ->E0.02582 ->D0.0 ;  fill
G1 X102.586 Y73.101 E1.85541 D0 ; ->L12.76600563997996 ->E1.85541 ->D0.0 ;  fill
G1 Z7.1 F18000 ;  move to next layer (23)
G1 X103.184 Y73.557 F18000 ; ->0.7520239357892816  ;  move to first perimeter point
G1 X115.094 Y73.557 E2.85021 D0 F900 ; ->L11.909999999999997 ->E2.85021 ->D0.0 ;  perimeter
G1 X115.094 Y85.467 E2.85021 D0 ; ->L11.909999999999997 ->E2.85021 ->D0.0 ;  perimeter
G1 X103.184 Y85.467 E2.85021 D0 ; ->L11.909999999999997 ->E2.85021 ->D0.0 ;  perimeter
G1 X103.184 Y73.677 E2.82149 D0 ; ->L11.789999999999992 ->E2.82149 ->D0.0 ;  perimeter
G1 X101.964 Y72.337 F18000 ; ->1.2902712893031445  ;  move to first perimeter point
G1 X116.314 Y72.337 E3.43413 D0 F900 ; ->L14.349999999999994 ->E3.43413 ->D0.0 ;  perimeter
G1 X116.314 Y86.687 E3.43413 D0 ; ->L14.349999999999994 ->E3.43413 ->D0.0 ;  perimeter
G1 X101.964 Y86.687 E3.43413 D0 ; ->L14.349999999999994 ->E3.43413 ->D0.0 ;  perimeter
G1 X101.964 Y72.457 E3.40541 D0 ; ->L14.230000000000004 ->E3.40541 ->D0.0 ;  perimeter
G1 X102.61 Y72.983 F18000 ; ->0.25044959572737246  ;  move to first fill point
G1 X102.784 Y72.947 E0.02582 D0 F900 ; ->L0.17768511473953688 ->E0.02582 ->D0.0 ;  fill
G1 X115.494 Y72.947 E1.8472 D0 ; ->L12.709999999999994 ->E1.8472 ->D0.0 ;  fill
G1 X115.668 Y72.983 E0.02582 D0 ; ->L0.17768511473953688 ->E0.02582 ->D0.0 ;  fill
G1 X115.704 Y73.157 E0.02582 D0 ; ->L0.1776851147395201 ->E0.02582 ->D0.0 ;  fill
G1 X115.704 Y85.867 E1.8472 D0 ; ->L12.710000000000008 ->E1.8472 ->D0.0 ;  fill
G1 X115.668 Y86.041 E0.02582 D0 ; ->L0.1776851147395201 ->E0.02582 ->D0.0 ;  fill
G1 X115.494 Y86.077 E0.02582 D0 ; ->L0.17768511473953688 ->E0.02582 ->D0.0 ;  fill
G1 X102.784 Y86.077 E1.8472 D0 ; ->L12.709999999999994 ->E1.8472 ->D0.0 ;  fill
G1 X102.61 Y86.041 E0.02582 D0 ; ->L0.17768511473953688 ->E0.02582 ->D0.0 ;  fill
G1 X102.574 Y85.867 E0.02582 D0 ; ->L0.17768511473952298 ->E0.02582 ->D0.0 ;  fill
G1 X102.586 Y73.101 E1.85541 D0 ; ->L12.76600563997996 ->E1.85541 ->D0.0 ;  fill
G1 Z7.4 F18000 ;  move to next layer (24)
G1 X103.184 Y73.557 F18000 ; ->0.7520239357892816  ;  move to first perimeter point
G1 X115.094 Y73.557 E2.85021 D0 F900 ; ->L11.909999999999997 ->E2.85021 ->D0.0 ;  perimeter
G1 X115.094 Y85.467 E2.85021 D0 ; ->L11.909999999999997 ->E2.85021 ->D0.0 ;  perimeter
G1 X103.184 Y85.467 E2.85021 D0 ; ->L11.909999999999997 ->E2.85021 ->D0.0 ;  perimeter
G1 X103.184 Y73.677 E2.82149 D0 ; ->L11.789999999999992 ->E2.82149 ->D0.0 ;  perimeter
G1 X101.964 Y72.337 F18000 ; ->1.2902712893031445  ;  move to first perimeter point
G1 X116.314 Y72.337 E3.43413 D0 F900 ; ->L14.349999999999994 ->E3.43413 ->D0.0 ;  perimeter
G1 X116.314 Y86.687 E3.43413 D0 ; ->L14.349999999999994 ->E3.43413 ->D0.0 ;  perimeter
G1 X101.964 Y86.687 E3.43413 D0 ; ->L14.349999999999994 ->E3.43413 ->D0.0 ;  perimeter
G1 X101.964 Y72.457 E3.40541 D0 ; ->L14.230000000000004 ->E3.40541 ->D0.0 ;  perimeter
G1 X102.61 Y72.983 F18000 ; ->0.25044959572737246  ;  move to first fill point
G1 X102.784 Y72.947 E0.02582 D0 F900 ; ->L0.17768511473953688 ->E0.02582 ->D0.0 ;  fill
G1 X115.494 Y72.947 E1.8472 D0 ; ->L12.709999999999994 ->E1.8472 ->D0.0 ;  fill
G1 X115.668 Y72.983 E0.02582 D0 ; ->L0.17768511473953688 ->E0.02582 ->D0.0 ;  fill
G1 X115.704 Y73.157 E0.02582 D0 ; ->L0.1776851147395201 ->E0.02582 ->D0.0 ;  fill
G1 X115.704 Y85.867 E1.8472 D0 ; ->L12.710000000000008 ->E1.8472 ->D0.0 ;  fill
G1 X115.668 Y86.041 E0.02582 D0 ; ->L0.1776851147395201 ->E0.02582 ->D0.0 ;  fill
G1 X115.494 Y86.077 E0.02582 D0 ; ->L0.17768511473953688 ->E0.02582 ->D0.0 ;  fill
G1 X102.784 Y86.077 E1.8472 D0 ; ->L12.709999999999994 ->E1.8472 ->D0.0 ;  fill
G1 X102.61 Y86.041 E0.02582 D0 ; ->L0.17768511473953688 ->E0.02582 ->D0.0 ;  fill
G1 X102.574 Y85.867 E0.02582 D0 ; ->L0.17768511473952298 ->E0.02582 ->D0.0 ;  fill
G1 X102.586 Y73.101 E1.85541 D0 ; ->L12.76600563997996 ->E1.85541 ->D0.0 ;  fill
G1 Z7.7 F18000 ;  move to next layer (25)
G1 X103.184 Y73.557 F18000 ; ->0.7520239357892816  ;  move to first perimeter point
G1 X115.094 Y73.557 E2.85021 D0 F900 ; ->L11.909999999999997 ->E2.85021 ->D0.0 ;  perimeter
G1 X115.094 Y85.467 E2.85021 D0 ; ->L11.909999999999997 ->E2.85021 ->D0.0 ;  perimeter
G1 X103.184 Y85.467 E2.85021 D0 ; ->L11.909999999999997 ->E2.85021 ->D0.0 ;  perimeter
G1 X103.184 Y73.677 E2.82149 D0 ; ->L11.789999999999992 ->E2.82149 ->D0.0 ;  perimeter
G1 X101.964 Y72.337 F18000 ; ->1.2902712893031445  ;  move to first perimeter point
G1 X116.314 Y72.337 E3.43413 D0 F900 ; ->L14.349999999999994 ->E3.43413 ->D0.0 ;  perimeter
G1 X116.314 Y86.687 E3.43413 D0 ; ->L14.349999999999994 ->E3.43413 ->D0.0 ;  perimeter
G1 X101.964 Y86.687 E3.43413 D0 ; ->L14.349999999999994 ->E3.43413 ->D0.0 ;  perimeter
G1 X101.964 Y72.457 E3.40541 D0 ; ->L14.230000000000004 ->E3.40541 ->D0.0 ;  perimeter
G1 X102.61 Y72.983 F18000 ; ->0.25044959572737246  ;  move to first fill point
G1 X102.784 Y72.947 E0.02582 D0 F900 ; ->L0.17768511473953688 ->E0.02582 ->D0.0 ;  fill
G1 X115.494 Y72.947 E1.8472 D0 ; ->L12.709999999999994 ->E1.8472 ->D0.0 ;  fill
G1 X115.668 Y72.983 E0.02582 D0 ; ->L0.17768511473953688 ->E0.02582 ->D0.0 ;  fill
G1 X115.704 Y73.157 E0.02582 D0 ; ->L0.1776851147395201 ->E0.02582 ->D0.0 ;  fill
G1 X115.704 Y85.867 E1.8472 D0 ; ->L12.710000000000008 ->E1.8472 ->D0.0 ;  fill
G1 X115.668 Y86.041 E0.02582 D0 ; ->L0.1776851147395201 ->E0.02582 ->D0.0 ;  fill
G1 X115.494 Y86.077 E0.02582 D0 ; ->L0.17768511473953688 ->E0.02582 ->D0.0 ;  fill
G1 X102.784 Y86.077 E1.8472 D0 ; ->L12.709999999999994 ->E1.8472 ->D0.0 ;  fill
G1 X102.61 Y86.041 E0.02582 D0 ; ->L0.17768511473953688 ->E0.02582 ->D0.0 ;  fill
G1 X102.574 Y85.867 E0.02582 D0 ; ->L0.17768511473952298 ->E0.02582 ->D0.0 ;  fill
G1 X102.586 Y73.101 E1.85541 D0 ; ->L12.76600563997996 ->E1.85541 ->D0.0 ;  fill
G1 Z8 F18000 ;  move to next layer (26)
G1 X103.184 Y73.557 F18000 ; ->0.7520239357892816  ;  move to first perimeter point
G1 X115.094 Y73.557 E2.85021 D0 F900 ; ->L11.909999999999997 ->E2.85021 ->D0.0 ;  perimeter
G1 X115.094 Y85.467 E2.85021 D0 ; ->L11.909999999999997 ->E2.85021 ->D0.0 ;  perimeter
G1 X103.184 Y85.467 E2.85021 D0 ; ->L11.909999999999997 ->E2.85021 ->D0.0 ;  perimeter
G1 X103.184 Y73.677 E2.82149 D0 ; ->L11.789999999999992 ->E2.82149 ->D0.0 ;  perimeter
G1 X101.964 Y72.337 F18000 ; ->1.2902712893031445  ;  move to first perimeter point
G1 X116.314 Y72.337 E3.43413 D0 F900 ; ->L14.349999999999994 ->E3.43413 ->D0.0 ;  perimeter
G1 X116.314 Y86.687 E3.43413 D0 ; ->L14.349999999999994 ->E3.43413 ->D0.0 ;  perimeter
G1 X101.964 Y86.687 E3.43413 D0 ; ->L14.349999999999994 ->E3.43413 ->D0.0 ;  perimeter
G1 X101.964 Y72.457 E3.40541 D0 ; ->L14.230000000000004 ->E3.40541 ->D0.0 ;  perimeter
G1 X102.61 Y72.983 F18000 ; ->0.25044959572737246  ;  move to first fill point
G1 X102.784 Y72.947 E0.02582 D0 F900 ; ->L0.17768511473953688 ->E0.02582 ->D0.0 ;  fill
G1 X115.494 Y72.947 E1.8472 D0 ; ->L12.709999999999994 ->E1.8472 ->D0.0 ;  fill
G1 X115.668 Y72.983 E0.02582 D0 ; ->L0.17768511473953688 ->E0.02582 ->D0.0 ;  fill
G1 X115.704 Y73.157 E0.02582 D0 ; ->L0.1776851147395201 ->E0.02582 ->D0.0 ;  fill
G1 X115.704 Y85.867 E1.8472 D0 ; ->L12.710000000000008 ->E1.8472 ->D0.0 ;  fill
G1 X115.668 Y86.041 E0.02582 D0 ; ->L0.1776851147395201 ->E0.02582 ->D0.0 ;  fill
G1 X115.494 Y86.077 E0.02582 D0 ; ->L0.17768511473953688 ->E0.02582 ->D0.0 ;  fill
G1 X102.784 Y86.077 E1.8472 D0 ; ->L12.709999999999994 ->E1.8472 ->D0.0 ;  fill
G1 X102.61 Y86.041 E0.02582 D0 ; ->L0.17768511473953688 ->E0.02582 ->D0.0 ;  fill
G1 X102.574 Y85.867 E0.02582 D0 ; ->L0.17768511473952298 ->E0.02582 ->D0.0 ;  fill
G1 X102.586 Y73.101 E1.85541 D0 ; ->L12.76600563997996 ->E1.85541 ->D0.0 ;  fill
G1 Z8.3 F18000 ;  move to next layer (27)
G1 X103.184 Y73.557 F18000 ; ->0.7520239357892816  ;  move to first perimeter point
G1 X115.094 Y73.557 E2.85021 D0 F900 ; ->L11.909999999999997 ->E2.85021 ->D0.0 ;  perimeter
G1 X115.094 Y85.467 E2.85021 D0 ; ->L11.909999999999997 ->E2.85021 ->D0.0 ;  perimeter
G1 X103.184 Y85.467 E2.85021 D0 ; ->L11.909999999999997 ->E2.85021 ->D0.0 ;  perimeter
G1 X103.184 Y73.677 E2.82149 D0 ; ->L11.789999999999992 ->E2.82149 ->D0.0 ;  perimeter
G1 X101.964 Y72.337 F18000 ; ->1.2902712893031445  ;  move to first perimeter point
G1 X116.314 Y72.337 E3.43413 D0 F900 ; ->L14.349999999999994 ->E3.43413 ->D0.0 ;  perimeter
G1 X116.314 Y86.687 E3.43413 D0 ; ->L14.349999999999994 ->E3.43413 ->D0.0 ;  perimeter
G1 X101.964 Y86.687 E3.43413 D0 ; ->L14.349999999999994 ->E3.43413 ->D0.0 ;  perimeter
G1 X101.964 Y72.457 E3.40541 D0 ; ->L14.230000000000004 ->E3.40541 ->D0.0 ;  perimeter
G1 X102.61 Y72.983 F18000 ; ->0.25044959572737246  ;  move to first fill point
G1 X102.784 Y72.947 E0.02582 D0 F900 ; ->L0.17768511473953688 ->E0.02582 ->D0.0 ;  fill
G1 X115.494 Y72.947 E1.8472 D0 ; ->L12.709999999999994 ->E1.8472 ->D0.0 ;  fill
G1 X115.668 Y72.983 E0.02582 D0 ; ->L0.17768511473953688 ->E0.02582 ->D0.0 ;  fill
G1 X115.704 Y73.157 E0.02582 D0 ; ->L0.1776851147395201 ->E0.02582 ->D0.0 ;  fill
G1 X115.704 Y85.867 E1.8472 D0 ; ->L12.710000000000008 ->E1.8472 ->D0.0 ;  fill
G1 X115.668 Y86.041 E0.02582 D0 ; ->L0.1776851147395201 ->E0.02582 ->D0.0 ;  fill
G1 X115.494 Y86.077 E0.02582 D0 ; ->L0.17768511473953688 ->E0.02582 ->D0.0 ;  fill
G1 X102.784 Y86.077 E1.8472 D0 ; ->L12.709999999999994 ->E1.8472 ->D0.0 ;  fill
G1 X102.61 Y86.041 E0.02582 D0 ; ->L0.17768511473953688 ->E0.02582 ->D0.0 ;  fill
G1 X102.574 Y85.867 E0.02582 D0 ; ->L0.17768511473952298 ->E0.02582 ->D0.0 ;  fill
G1 X102.586 Y73.101 E1.85541 D0 ; ->L12.76600563997996 ->E1.85541 ->D0.0 ;  fill
G1 Z8.6 F18000 ;  move to next layer (28)
G1 X103.184 Y73.557 F18000 ; ->0.7520239357892816  ;  move to first perimeter point
G1 X115.094 Y73.557 E2.85021 D0 F900 ; ->L11.909999999999997 ->E2.85021 ->D0.0 ;  perimeter
G1 X115.094 Y85.467 E2.85021 D0 ; ->L11.909999999999997 ->E2.85021 ->D0.0 ;  perimeter
G1 X103.184 Y85.467 E2.85021 D0 ; ->L11.909999999999997 ->E2.85021 ->D0.0 ;  perimeter
G1 X103.184 Y73.677 E2.82149 D0 ; ->L11.789999999999992 ->E2.82149 ->D0.0 ;  perimeter
G1 X101.964 Y72.337 F18000 ; ->1.2902712893031445  ;  move to first perimeter point
G1 X116.314 Y72.337 E3.43413 D0 F900 ; ->L14.349999999999994 ->E3.43413 ->D0.0 ;  perimeter
G1 X116.314 Y86.687 E3.43413 D0 ; ->L14.349999999999994 ->E3.43413 ->D0.0 ;  perimeter
G1 X101.964 Y86.687 E3.43413 D0 ; ->L14.349999999999994 ->E3.43413 ->D0.0 ;  perimeter
G1 X101.964 Y72.457 E3.40541 D0 ; ->L14.230000000000004 ->E3.40541 ->D0.0 ;  perimeter
G1 X102.61 Y72.983 F18000 ; ->0.25044959572737246  ;  move to first fill point
G1 X102.784 Y72.947 E0.02582 D0 F900 ; ->L0.17768511473953688 ->E0.02582 ->D0.0 ;  fill
G1 X115.494 Y72.947 E1.8472 D0 ; ->L12.709999999999994 ->E1.8472 ->D0.0 ;  fill
G1 X115.668 Y72.983 E0.02582 D0 ; ->L0.17768511473953688 ->E0.02582 ->D0.0 ;  fill
G1 X115.704 Y73.157 E0.02582 D0 ; ->L0.1776851147395201 ->E0.02582 ->D0.0 ;  fill
G1 X115.704 Y85.867 E1.8472 D0 ; ->L12.710000000000008 ->E1.8472 ->D0.0 ;  fill
G1 X115.668 Y86.041 E0.02582 D0 ; ->L0.1776851147395201 ->E0.02582 ->D0.0 ;  fill
G1 X115.494 Y86.077 E0.02582 D0 ; ->L0.17768511473953688 ->E0.02582 ->D0.0 ;  fill
G1 X102.784 Y86.077 E1.8472 D0 ; ->L12.709999999999994 ->E1.8472 ->D0.0 ;  fill
G1 X102.61 Y86.041 E0.02582 D0 ; ->L0.17768511473953688 ->E0.02582 ->D0.0 ;  fill
G1 X102.574 Y85.867 E0.02582 D0 ; ->L0.17768511473952298 ->E0.02582 ->D0.0 ;  fill
G1 X102.586 Y73.101 E1.85541 D0 ; ->L12.76600563997996 ->E1.85541 ->D0.0 ;  fill
G1 Z8.9 F18000 ;  move to next layer (29)
G1 X103.184 Y73.557 F18000 ; ->0.7520239357892816  ;  move to first perimeter point
G1 X115.094 Y73.557 E2.85021 D0 F900 ; ->L11.909999999999997 ->E2.85021 ->D0.0 ;  perimeter
G1 X115.094 Y85.467 E2.85021 D0 ; ->L11.909999999999997 ->E2.85021 ->D0.0 ;  perimeter
G1 X103.184 Y85.467 E2.85021 D0 ; ->L11.909999999999997 ->E2.85021 ->D0.0 ;  perimeter
G1 X103.184 Y73.677 E2.82149 D0 ; ->L11.789999999999992 ->E2.82149 ->D0.0 ;  perimeter
G1 X101.964 Y72.337 F18000 ; ->1.2902712893031445  ;  move to first perimeter point
G1 X116.314 Y72.337 E3.43413 D0 F900 ; ->L14.349999999999994 ->E3.43413 ->D0.0 ;  perimeter
G1 X116.314 Y86.687 E3.43413 D0 ; ->L14.349999999999994 ->E3.43413 ->D0.0 ;  perimeter
G1 X101.964 Y86.687 E3.43413 D0 ; ->L14.349999999999994 ->E3.43413 ->D0.0 ;  perimeter
G1 X101.964 Y72.457 E3.40541 D0 ; ->L14.230000000000004 ->E3.40541 ->D0.0 ;  perimeter
G1 X102.61 Y72.983 F18000 ; ->0.25044959572737246  ;  move to first fill point
G1 X102.784 Y72.947 E0.02582 D0 F900 ; ->L0.17768511473953688 ->E0.02582 ->D0.0 ;  fill
G1 X115.494 Y72.947 E1.8472 D0 ; ->L12.709999999999994 ->E1.8472 ->D0.0 ;  fill
G1 X115.668 Y72.983 E0.02582 D0 ; ->L0.17768511473953688 ->E0.02582 ->D0.0 ;  fill
G1 X115.704 Y73.157 E0.02582 D0 ; ->L0.1776851147395201 ->E0.02582 ->D0.0 ;  fill
G1 X115.704 Y85.867 E1.8472 D0 ; ->L12.710000000000008 ->E1.8472 ->D0.0 ;  fill
G1 X115.668 Y86.041 E0.02582 D0 ; ->L0.1776851147395201 ->E0.02582 ->D0.0 ;  fill
G1 X115.494 Y86.077 E0.02582 D0 ; ->L0.17768511473953688 ->E0.02582 ->D0.0 ;  fill
G1 X102.784 Y86.077 E1.8472 D0 ; ->L12.709999999999994 ->E1.8472 ->D0.0 ;  fill
G1 X102.61 Y86.041 E0.02582 D0 ; ->L0.17768511473953688 ->E0.02582 ->D0.0 ;  fill
G1 X102.574 Y85.867 E0.02582 D0 ; ->L0.17768511473952298 ->E0.02582 ->D0.0 ;  fill
G1 X102.586 Y73.101 E1.85541 D0 ; ->L12.76600563997996 ->E1.85541 ->D0.0 ;  fill
G1 Z9.2 F18000 ;  move to next layer (30)
G1 X103.184 Y73.557 F18000 ; ->0.7520239357892816  ;  move to first perimeter point
G1 X115.094 Y73.557 E2.85021 D0 F900 ; ->L11.909999999999997 ->E2.85021 ->D0.0 ;  perimeter
G1 X115.094 Y85.467 E2.85021 D0 ; ->L11.909999999999997 ->E2.85021 ->D0.0 ;  perimeter
G1 X103.184 Y85.467 E2.85021 D0 ; ->L11.909999999999997 ->E2.85021 ->D0.0 ;  perimeter
G1 X103.184 Y73.677 E2.82149 D0 ; ->L11.789999999999992 ->E2.82149 ->D0.0 ;  perimeter
G1 X101.964 Y72.337 F18000 ; ->1.2902712893031445  ;  move to first perimeter point
G1 X116.314 Y72.337 E3.43413 D0 F900 ; ->L14.349999999999994 ->E3.43413 ->D0.0 ;  perimeter
G1 X116.314 Y86.687 E3.43413 D0 ; ->L14.349999999999994 ->E3.43413 ->D0.0 ;  perimeter
G1 X101.964 Y86.687 E3.43413 D0 ; ->L14.349999999999994 ->E3.43413 ->D0.0 ;  perimeter
G1 X101.964 Y72.457 E3.40541 D0 ; ->L14.230000000000004 ->E3.40541 ->D0.0 ;  perimeter
G1 X102.61 Y72.983 F18000 ; ->0.25044959572737246  ;  move to first fill point
G1 X102.784 Y72.947 E0.02582 D0 F900 ; ->L0.17768511473953688 ->E0.02582 ->D0.0 ;  fill
G1 X115.494 Y72.947 E1.8472 D0 ; ->L12.709999999999994 ->E1.8472 ->D0.0 ;  fill
G1 X115.668 Y72.983 E0.02582 D0 ; ->L0.17768511473953688 ->E0.02582 ->D0.0 ;  fill
G1 X115.704 Y73.157 E0.02582 D0 ; ->L0.1776851147395201 ->E0.02582 ->D0.0 ;  fill
G1 X115.704 Y85.867 E1.8472 D0 ; ->L12.710000000000008 ->E1.8472 ->D0.0 ;  fill
G1 X115.668 Y86.041 E0.02582 D0 ; ->L0.1776851147395201 ->E0.02582 ->D0.0 ;  fill
G1 X115.494 Y86.077 E0.02582 D0 ; ->L0.17768511473953688 ->E0.02582 ->D0.0 ;  fill
G1 X102.784 Y86.077 E1.8472 D0 ; ->L12.709999999999994 ->E1.8472 ->D0.0 ;  fill
G1 X102.61 Y86.041 E0.02582 D0 ; ->L0.17768511473953688 ->E0.02582 ->D0.0 ;  fill
G1 X102.574 Y85.867 E0.02582 D0 ; ->L0.17768511473952298 ->E0.02582 ->D0.0 ;  fill
G1 X102.586 Y73.101 E1.85541 D0 ; ->L12.76600563997996 ->E1.85541 ->D0.0 ;  fill
G1 Z9.5 F18000 ;  move to next layer (31)
G1 X103.184 Y73.557 F18000 ; ->0.7520239357892816  ;  move to first perimeter point
G1 X115.094 Y73.557 E2.85021 D0 F900 ; ->L11.909999999999997 ->E2.85021 ->D0.0 ;  perimeter
G1 X115.094 Y85.467 E2.85021 D0 ; ->L11.909999999999997 ->E2.85021 ->D0.0 ;  perimeter
G1 X103.184 Y85.467 E2.85021 D0 ; ->L11.909999999999997 ->E2.85021 ->D0.0 ;  perimeter
G1 X103.184 Y73.677 E2.82149 D0 ; ->L11.789999999999992 ->E2.82149 ->D0.0 ;  perimeter
G1 X101.964 Y72.337 F18000 ; ->1.2902712893031445  ;  move to first perimeter point
G1 X116.314 Y72.337 E3.43413 D0 F900 ; ->L14.349999999999994 ->E3.43413 ->D0.0 ;  perimeter
G1 X116.314 Y86.687 E3.43413 D0 ; ->L14.349999999999994 ->E3.43413 ->D0.0 ;  perimeter
G1 X101.964 Y86.687 E3.43413 D0 ; ->L14.349999999999994 ->E3.43413 ->D0.0 ;  perimeter
G1 X101.964 Y72.457 E3.40541 D0 ; ->L14.230000000000004 ->E3.40541 ->D0.0 ;  perimeter
G1 X102.61 Y72.983 F18000 ; ->0.25044959572737246  ;  move to first fill point
G1 X102.784 Y72.947 E0.02582 D0 F900 ; ->L0.17768511473953688 ->E0.02582 ->D0.0 ;  fill
G1 X115.494 Y72.947 E1.8472 D0 ; ->L12.709999999999994 ->E1.8472 ->D0.0 ;  fill
G1 X115.668 Y72.983 E0.02582 D0 ; ->L0.17768511473953688 ->E0.02582 ->D0.0 ;  fill
G1 X115.704 Y73.157 E0.02582 D0 ; ->L0.1776851147395201 ->E0.02582 ->D0.0 ;  fill
G1 X115.704 Y85.867 E1.8472 D0 ; ->L12.710000000000008 ->E1.8472 ->D0.0 ;  fill
G1 X115.668 Y86.041 E0.02582 D0 ; ->L0.1776851147395201 ->E0.02582 ->D0.0 ;  fill
G1 X115.494 Y86.077 E0.02582 D0 ; ->L0.17768511473953688 ->E0.02582 ->D0.0 ;  fill
G1 X102.784 Y86.077 E1.8472 D0 ; ->L12.709999999999994 ->E1.8472 ->D0.0 ;  fill
G1 X102.61 Y86.041 E0.02582 D0 ; ->L0.17768511473953688 ->E0.02582 ->D0.0 ;  fill
G1 X102.574 Y85.867 E0.02582 D0 ; ->L0.17768511473952298 ->E0.02582 ->D0.0 ;  fill
G1 X102.586 Y73.101 E1.85541 D0 ; ->L12.76600563997996 ->E1.85541 ->D0.0 ;  fill
G1 Z9.8 F18000 ;  move to next layer (32)
G1 X103.184 Y73.557 F18000 ; ->0.7520239357892816  ;  move to first perimeter point
G1 X115.094 Y73.557 E2.85021 D0 F900 ; ->L11.909999999999997 ->E2.85021 ->D0.0 ;  perimeter
G1 X115.094 Y85.467 E2.85021 D0 ; ->L11.909999999999997 ->E2.85021 ->D0.0 ;  perimeter
G1 X103.184 Y85.467 E2.85021 D0 ; ->L11.909999999999997 ->E2.85021 ->D0.0 ;  perimeter
G1 X103.184 Y73.677 E2.82149 D0 ; ->L11.789999999999992 ->E2.82149 ->D0.0 ;  perimeter
G1 X101.964 Y72.337 F18000 ; ->1.2902712893031445  ;  move to first perimeter point
G1 X116.314 Y72.337 E3.43413 D0 F900 ; ->L14.349999999999994 ->E3.43413 ->D0.0 ;  perimeter
G1 X116.314 Y86.687 E3.43413 D0 ; ->L14.349999999999994 ->E3.43413 ->D0.0 ;  perimeter
G1 X101.964 Y86.687 E3.43413 D0 ; ->L14.349999999999994 ->E3.43413 ->D0.0 ;  perimeter
G1 X101.964 Y72.457 E3.40541 D0 ; ->L14.230000000000004 ->E3.40541 ->D0.0 ;  perimeter
G1 X102.61 Y72.983 F18000 ; ->0.25044959572737246  ;  move to first fill point
G1 X102.784 Y72.947 E0.02582 D0 F900 ; ->L0.17768511473953688 ->E0.02582 ->D0.0 ;  fill
G1 X115.494 Y72.947 E1.8472 D0 ; ->L12.709999999999994 ->E1.8472 ->D0.0 ;  fill
G1 X115.668 Y72.983 E0.02582 D0 ; ->L0.17768511473953688 ->E0.02582 ->D0.0 ;  fill
G1 X115.704 Y73.157 E0.02582 D0 ; ->L0.1776851147395201 ->E0.02582 ->D0.0 ;  fill
G1 X115.704 Y85.867 E1.8472 D0 ; ->L12.710000000000008 ->E1.8472 ->D0.0 ;  fill
G1 X115.668 Y86.041 E0.02582 D0 ; ->L0.1776851147395201 ->E0.02582 ->D0.0 ;  fill
G1 X115.494 Y86.077 E0.02582 D0 ; ->L0.17768511473953688 ->E0.02582 ->D0.0 ;  fill
G1 X102.784 Y86.077 E1.8472 D0 ; ->L12.709999999999994 ->E1.8472 ->D0.0 ;  fill
G1 X102.61 Y86.041 E0.02582 D0 ; ->L0.17768511473953688 ->E0.02582 ->D0.0 ;  fill
G1 X102.574 Y85.867 E0.02582 D0 ; ->L0.17768511473952298 ->E0.02582 ->D0.0 ;  fill
G1 X102.586 Y73.101 E1.85541 D0 ; ->L12.76600563997996 ->E1.85541 ->D0.0 ;  fill
G1 Z10.1 F18000 ;  move to next layer (33)
G1 X103.184 Y73.557 F18000 ; ->0.7520239357892816  ;  move to first perimeter point
G1 X115.094 Y73.557 E2.85021 D0 F900 ; ->L11.909999999999997 ->E2.85021 ->D0.0 ;  perimeter
G1 X115.094 Y85.467 E2.85021 D0 ; ->L11.909999999999997 ->E2.85021 ->D0.0 ;  perimeter
G1 X103.184 Y85.467 E2.85021 D0 ; ->L11.909999999999997 ->E2.85021 ->D0.0 ;  perimeter
G1 X103.184 Y73.677 E2.82149 D0 ; ->L11.789999999999992 ->E2.82149 ->D0.0 ;  perimeter
G1 X103.184 Y85.467 B0 F1500 ; ->L0.0  ; ->E0.9999999999999999  ; Wipe - reverse end Normal close
G1 X101.964 Y72.337 F18000 ; ->1.2902712893031445  ;  move to first perimeter point
G1 B1.0 E1 F400 ; Open and replenish from extrusion
G1 X116.314 Y72.337 E3.43413 D0 F900 ; ->L14.349999999999994 ->E3.43413 ->D0.0 ;  perimeter
G1 X116.314 Y86.687 E3.43413 D0 ; ->L14.349999999999994 ->E3.43413 ->D0.0 ;  perimeter
G1 X101.964 Y86.687 E3.43413 D0 ; ->L14.349999999999994 ->E3.43413 ->D0.0 ;  perimeter
G1 X101.964 Y72.457 E3.40541 D0 ; ->L14.230000000000004 ->E3.40541 ->D0.0 ;  perimeter
G1 X102.61 Y72.983 F18000 ; ->0.25044959572737246  ;  move to first fill point
G1 X102.784 Y72.947 E0.02582 D0 F900 ; ->L0.17768511473953688 ->E0.02582 ->D0.0 ;  fill
G1 X115.494 Y72.947 E1.8472 D0 ; ->L12.709999999999994 ->E1.8472 ->D0.0 ;  fill
G1 X115.668 Y72.983 E0.02582 D0 ; ->L0.17768511473953688 ->E0.02582 ->D0.0 ;  fill
G1 X115.704 Y73.157 E0.02582 D0 ; ->L0.1776851147395201 ->E0.02582 ->D0.0 ;  fill
G1 X115.704 Y85.867 E1.8472 D0 ; ->L12.710000000000008 ->E1.8472 ->D0.0 ;  fill
G1 X115.668 Y86.041 E0.02582 D0 ; ->L0.1776851147395201 ->E0.02582 ->D0.0 ;  fill
G1 X115.494 Y86.077 E0.02582 D0 ; ->L0.17768511473953688 ->E0.02582 ->D0.0 ;  fill
G1 X102.784 Y86.077 E1.8472 D0 ; ->L12.709999999999994 ->E1.8472 ->D0.0 ;  fill
G1 X102.61 Y86.041 E0.02582 D0 ; ->L0.17768511473953688 ->E0.02582 ->D0.0 ;  fill
G1 X102.574 Y85.867 E0.02582 D0 ; ->L0.17768511473952298 ->E0.02582 ->D0.0 ;  fill
G1 X102.577 Y82.734 E0.45541 D0 ; ->L3.133413397799921 ->E0.4554099940395355 ->D0.0 ; retract trigger
G1 X102.583 Y75.853 B0 ; ->L6.880423000835375  ; ->E1.0  ; retract trigger Normal close
G1 X102.586 Y73.101 ; ->2.752169241344666  ; Wipe
;
; Post print gcode
M104 S0  		;nozzle heater off

;Finish/Abort Print
M106			;Fan on full
G90 			;Absolute positioning
T0				;Select Nozzle 0 (T0)
G0 B0			;Close Nozzle
G91				;Relative positioning
G0 Z5			;Move up 5mm
G90 			;Absolute positioning
G0 X15 Y0		;Move to back corner

;Open Door
G37 S				;Unlock door (S: don't wait for safe temp)

;Every thing off
M170 S0			;Ambient control off
M103 S0			;Nozzle heater off
M140 S0			;Bed heater off
M107			;Fan off
M128			;Head Light off

M84				;Motors off
; End of Post print gcode
; EOF
