; File post-processed by the CEL Tech Roboxiser on Sat 25 Oct 2014 15:06:42
; Robox® AutoMaker™ - 1.00.15
;
; Pre print gcode
M139			;Set & heat first layer Bed temp.
M190			;Wait for Bed to get to temp.

M103			;Set & heat first layer nozzle temp.

G90 			;Absolute positioning
G0 B0			;Close Nozzle
G91				;Use X, Y relative Mode
G0 Z5			;Move up 5mm
G90 			;Absolute positioning
M190			;Wait for Bed to get to temp.

G28 X Y			;Home X, then Y

M109			;Wait for Nozzle to get to temp.

T0				;Select Nozzle 0 (T0)
G0 X30 Y75		;Level Gantry Position 1
G28 Z			;Home Z
G0 Z5 			;Move up 5mm
G0 X190 Y75		;Level Gantry Position 2
G28 Z			;Home Z
G0 Z5 			;Move up 5mm
G38 			;Level gantry
G0 X113 Y20		;Bed levelling Y Position 1
G28 Z			;Home Z
G0 Z5 			;Move up 5mm
G0 X113 Y130	;Bed levelling Y Position 2
G28 Z			;Home Z
G0 Z5 			;Move up 5mm
G39 			;level bed

G0 Y0 X21 Z10
M106

G36 E500 F1000
;Short Purge
G0 Z3
T0
G0 B2
G1 E25 X44 F150
G0 B0
T0
G0 Z5
G0 Y10

G36 E500 F1000
G0 Y0 Z8
T1
G0 Y0
G0 Z3
T1
G0 B2
G1 E35 X21 F200
G0 B0
T1
G0 Z5
G0 Y10
G0 X110 Y75

G1 E3 F1000
M129			;Head LED on
; End of Pre print gcode
M139 ; take 1st layer bed temperature from reel
M190 ; wait for bed temperature to be reached
M103 ; take 1st layer nozzle temperature from loaded reel
M109 ; wait for nozzle temperature to be reached
M170 ; take ambient temperature from loaded reel
 ;  generated by Slic3r 1.1.5 on 2014-10-25 at 15:06:41
 ;  perimeters extrusion width = 0.30mm
 ;  infill extrusion width = 0.80mm
 ;  solid infill extrusion width = 0.80mm
 ;  top infill extrusion width = 0.60mm
 ;  support material extrusion width = 0.80mm
G21 ;  set units to millimeters
G90 ;  use absolute coordinates
M83 ;  use relative distances for extrusion
M106 S255 ;  enable fan
T1 ;  - force to nozzle 1 on first layer
G1 Z0.2 F18000 ;  move to next layer (0)
G1 X98.2 Y43.928 F18000 ; ->107.57745667192546  ;  move to first perimeter point
G1 B1.0 ; Open and replenish from extrusion
G1 X100.046 Y43.928 E0.29449 D0 F900 ; ->L1.8460000000000036 ->E0.29449 ->D0.0 ;  perimeter
G1 X103.477 Y55.893 E1.98582 D0 ; ->L12.447207960020595 ->E1.98582 ->D0.0 ;  perimeter
G1 X102.897 Y56.088 E0.09764 D0 ; ->L0.6119027700541959 ->E0.09764 ->D0.0 ;  perimeter
G1 X98.244 Y44.04 E2.0605 D0 ; ->L12.915289892216903 ->E2.0605 ->D0.0 ;  perimeter
G1 X97.884 Y45.328 F18000 ; ->1.3373645725829622  ;  move to first perimeter point
G1 X96.852 Y45.328 E0.16453 D0 F900 ; ->L1.0319999999999965 ->E0.16453 ->D0.0 ;  perimeter
G1 X96.862 Y43.128 E0.35099 D0 ; ->L2.2000227271553383 ->E0.35099 ->D0.0 ;  perimeter
G1 X100.649 Y43.128 E0.60424 D0 ; ->L3.787000000000006 ->E0.60424 ->D0.0 ;  perimeter
G1 X105.947 Y61.605 E3.06668 D0 ; ->L19.22155906788 ->E3.06668 ->D0.0 ;  perimeter
G1 X104.24 Y61.785 E0.27394 D0 ; ->L1.7164640980807104 ->E0.27394 ->D0.0 ;  perimeter
G1 X97.927 Y45.44 E2.79542 D0 ; ->L17.521786267387235 ->E2.79542 ->D0.0 ;  perimeter
G1 X99.589 Y44.488 F18000 ; ->1.8035867043200307  ;  move to first fill point
G1 X99.638 Y44.537 B0.289 F900 ; ->L0.06929646455628595  ; ->E0.01109  ; Shortened wipe volume Normal close
G1 X99.387 Y45.445 B0.139 ; ->L0.942053607816458  ; ->E0.15035  ;  fill Normal close
G1 X100.001 Y46.059 B0 ; ->L0.8685922688474481  ; ->E0.13856001192092898  ; retract trigger Normal close
G1 X100.105 Y46.163 ; ->0.14681306893643425  ; Wipe
G1 X100.117 Y47.335 ; ->1.17206143183709  ; Wipe
G1 X100.167 Y47.386 ; ->0.07142128534267578  ; Wipe
G1 X95.272 Y45.461 F18000 ; ->5.2599096950423  ;  move to first support material point
G1 B1.0 E0.52181 F400 ; Open and replenish from extrusion
G1 X94.075 Y47.848 E0.42596 D0 F900 ; ->L2.670314213720926 ->E0.42596 ->D0.0 ;  support material
G1 X92.286 Y47.848 E0.28553 D0 ; ->L1.7890000000000015 ->E0.28553 ->D0.0 ;  support material
G1 X96.584 Y39.273 E1.5303 D0 ; ->L9.591841793941347 ->E1.5303 ->D0.0 ;  support material
G1 X95.127 Y38.608 E0.25544 D0 ; ->L1.6015848400881019 ->E0.25544 ->D0.0 ;  support material
G1 X90.496 Y47.848 E1.64896 D0 ; ->L10.335558088463344 ->E1.64896 ->D0.0 ;  support material
G1 X88.706 Y47.848 E0.28553 D0 ; ->L1.789999999999992 ->E0.28553 ->D0.0 ;  support material
G1 X93.267 Y38.749 E1.62386 D0 ; ->L10.178139417398441 ->E1.62386 ->D0.0 ;  support material
G1 X91.078 Y39.545 E0.37162 D0 ; ->L2.3292352822331983 ->E0.37162 ->D0.0 ;  support material
G1 X87.489 Y46.705 E1.27778 D0 ; ->L8.009152327181694 ->E1.27778 ->D0.0 ;  support material
G1 X91.078 Y39.545 B0.628 F1500 ; ->L0.0  ; ->E0.37162  ; Wipe - reverse start Normal close
G1 X93.267 Y38.749 B0 F1500 ; ->L0.0  ; ->E0.6283799999999999  ; Wipe - reverse end Normal close
M104 ; take post layer 1 nozzle temperature from loaded reel - don't wait
M140 ; take post layer 1 bed temperature from loaded reel - don't wait
G1 Z0.4 F18000 ;  move to next layer (1)
G1 X98.271 Y44.764 F18000 ; ->10.955318571360666  ;  move to first perimeter point
T0 ; return to required nozzle
G1 B1.0 E1 F400 ; Open and replenish from extrusion
G1 X97.419 Y44.764 E0.06916 D0 F900 ; ->L0.8520000000000039 ->E0.06916 ->D0.0 ;  perimeter
G1 X97.424 Y43.693 E0.08698 D0 ; ->L1.0710116712716118 ->E0.08698 ->D0.0 ;  perimeter
G1 X100.224 Y43.693 E0.22741 D0 ; ->L2.799999999999997 ->E0.22741 ->D0.0 ;  perimeter
G1 X105.219 Y61.114 E1.47212 D0 ; ->L18.122948601152075 ->E1.47212 ->D0.0 ;  perimeter
G1 X104.611 Y61.178 E0.0497 D0 ; ->L0.6113591415853595 ->E0.0497 ->D0.0 ;  perimeter
G1 X98.314 Y44.875 E1.41955 D0 ; ->L17.47684233492996 ->E1.41955 ->D0.0 ;  perimeter
G1 X97.991 Y45.171 F18000 ; ->0.43811528163258046  ;  move to first perimeter point
G1 X97.01 Y45.171 E0.0797 D0 F900 ; ->L0.9809999999999945 ->E0.0797 ->D0.0 ;  perimeter
G1 X97.018 Y43.285 E0.15315 D0 ; ->L1.8860169670498754 ->E0.15315 ->D0.0 ;  perimeter
G1 X100.531 Y43.285 E0.28528 D0 ; ->L3.5130000000000052 ->E0.28528 ->D0.0 ;  perimeter
G1 X105.745 Y61.469 E1.53647 D0 ; ->L18.91675585294688 ->E1.53647 ->D0.0 ;  perimeter
G1 X104.343 Y61.616 E0.11446 D0 ; ->L1.4096854259018223 ->E0.11446 ->D0.0 ;  perimeter
G1 X98.035 Y45.283 E1.4222 D0 ; ->L17.508790734942263 ->E1.4222 ->D0.0 ;  perimeter
G1 X97.712 Y45.578 F18000 ; ->0.43744028163853027  ;  move to first perimeter point
G1 X96.601 Y45.578 E0.09024 D0 F900 ; ->L1.1110000000000042 ->E0.09024 ->D0.0 ;  perimeter
G1 X96.613 Y42.878 E0.21931 D0 ; ->L2.7000266665349835 ->E0.21931 ->D0.0 ;  perimeter
G1 X100.838 Y42.878 E0.34315 D0 ; ->L4.224999999999994 ->E0.34315 ->D0.0 ;  perimeter
G1 X106.27 Y61.823 E1.60083 D0 ; ->L19.708364949939405 ->E1.60083 ->D0.0 ;  perimeter
G1 X104.076 Y62.053 E0.17922 D0 ; ->L2.206022665341408 ->E0.17922 ->D0.0 ;  perimeter
G1 X97.755 Y45.69 E1.42484 D0 ; ->L17.541459745414574 ->E1.42484 ->D0.0 ;  perimeter
G1 X98.035 Y45.283 F1500 ; ->0.0  ; Move to start of wipe
G1 X101.682 Y54.725 B0 F1500 ; ->L0.0  ; ->E0.6000000238418579  ; Wipe - inwards end Normal close
G1 X97.786 Y44.096 F18000 ; ->0.7091741676062392  ;  move to first fill point
T1 ; Selecting nozzle 1
G1 B1.0 E0.6 F400 ; Open and replenish from extrusion
G1 X97.826 Y44.056 E0.00904 D0 F900 ; ->L0.05656854249491757 ->E0.00904 ->D0.0 ;  fill
G1 X99.029 Y44.056 E0.192 D0 ; ->L1.203000000000003 ->E0.192 ->D0.0 ;  fill
G1 X98.566 Y44.519 E0.10449 D0 ; ->L0.6547808793787393 ->E0.10449 ->D0.0 ;  fill
G1 X98.902 Y45.388 E0.14848 D0 ; ->L0.9316957657948214 ->E0.14848 ->D0.0 ;  fill
G1 X100.013 Y44.276 E0.25071 D0 ; ->L1.571898533621047 ->E0.25071 ->D0.0 ;  fill
G1 X100.281 Y45.212 E0.15523 D0 ; ->L0.9736118323027921 ->E0.15523 ->D0.0 ;  fill
G1 X99.237 Y46.256 E0.23556 D0 ; ->L1.4764389591175169 ->E0.23556 ->D0.0 ;  fill
G1 X99.572 Y47.124 E0.14848 D0 ; ->L0.9304026010281834 ->E0.14848 ->D0.0 ;  fill
G1 X100.549 Y46.147 E0.22042 D0 ; ->L1.3816866504385192 ->E0.22042 ->D0.0 ;  fill
G1 X100.817 Y47.082 E0.15523 D0 ; ->L0.9726505024930574 ->E0.15523 ->D0.0 ;  fill
G1 X99.908 Y47.992 E0.20527 D0 ; ->L1.2862274293452067 ->E0.20527 ->D0.0 ;  fill
G1 X100.243 Y48.86 E0.14848 D0 ; ->L0.9304026010281783 ->E0.14848 ->D0.0 ;  fill
G1 X101.086 Y48.018 E0.19013 D0 ; ->L1.1914751361232865 ->E0.19013 ->D0.0 ;  fill
G1 X101.354 Y48.953 E0.15523 D0 ; ->L0.9726505024930613 ->E0.15523 ->D0.0 ;  fill
G1 X100.578 Y49.728 E0.17498 D0 ; ->L1.0967228455722038 ->E0.17498 ->D0.0 ;  fill
G1 X100.913 Y50.597 E0.14848 D0 ; ->L0.9313356000926817 ->E0.14848 ->D0.0 ;  fill
G1 X101.622 Y49.888 E0.15983 D0 ; ->L1.0026774157225289 ->E0.15983 ->D0.0 ;  fill
G1 X101.89 Y50.823 E0.15523 D0 ; ->L0.9726505024930613 ->E0.15523 ->D0.0 ;  fill
G1 X101.436 Y51.278 E0.10253 D0 ; ->L0.6428715489212157 ->E0.10252999403953567 ->D0.0 ; Closing last used nozzle
G1 X101.249 Y51.465 B0.958 ; ->L0.26434672690881333  ; ->E0.04216000596046435  ; Closing last used nozzle Normal close
G1 X102.158 Y51.759 B0.805 ; ->L0.9553622349664075  ; ->E0.15249  ;  fill Normal close
G1 X101.584 Y52.333 B0.676 ; ->L0.8117585848021538  ; ->E0.12954  ;  fill Normal close
G1 X102.426 Y52.694 B0.53 ; ->L0.916124991472234  ; ->E0.14622  ;  fill Normal close
G1 X101.919 Y53.201 B0.415 ; ->L0.7170062761231613  ; ->E0.1144  ;  fill Normal close
G1 X102.695 Y53.629 B0.274 ; ->L0.8862053937998752  ; ->E0.1413  ;  fill Normal close
G1 X102.255 Y54.069 B0.175 ; ->L0.6222539674441636  ; ->E0.09925  ;  fill Normal close
G1 X102.963 Y54.565 B0.037 ; ->L0.8644535846417625  ; ->E0.13787  ;  fill Normal close
G1 X102.8 Y54.728 B0 ; ->L0.2302966351964861  ; ->E0.036769994039535514  ; Closing last used nozzle Normal close
G1 X102.59 Y54.937 ; ->0.29649839135558065  ; Wipe
G1 X103.231 Y55.5 ; ->0.8531412544239032  ; Wipe
G1 X102.925 Y55.805 ; ->0.43204282195171145  ; Wipe
G1 X103.451 Y56.483 ; ->0.858114211512659  ; Wipe
G1 X103.499 Y56.435 ; ->0.06788225099390612  ; Wipe
G1 Z0.6 F18000 ;  move to next layer (2)
G1 X98.271 Y44.764 F18000 ; ->12.788441069966266  ;  move to first perimeter point
T0 ; Selecting nozzle 0
G1 B1.0 E1.4 F400 ; Open and replenish from extrusion
G1 X97.419 Y44.764 E0.06916 D0 F900 ; ->L0.8520000000000039 ->E0.06916 ->D0.0 ;  perimeter
G1 X97.424 Y43.693 E0.08698 D0 ; ->L1.0710116712716118 ->E0.08698 ->D0.0 ;  perimeter
G1 X100.224 Y43.693 E0.22741 D0 ; ->L2.799999999999997 ->E0.22741 ->D0.0 ;  perimeter
G1 X105.219 Y61.114 E1.47212 D0 ; ->L18.122948601152075 ->E1.47212 ->D0.0 ;  perimeter
G1 X104.611 Y61.178 E0.0497 D0 ; ->L0.6113591415853595 ->E0.0497 ->D0.0 ;  perimeter
G1 X98.314 Y44.875 E1.41955 D0 ; ->L17.47684233492996 ->E1.41955 ->D0.0 ;  perimeter
G1 X97.991 Y45.171 F18000 ; ->0.43811528163258046  ;  move to first perimeter point
G1 X97.01 Y45.171 E0.0797 D0 F900 ; ->L0.9809999999999945 ->E0.0797 ->D0.0 ;  perimeter
G1 X97.018 Y43.285 E0.15315 D0 ; ->L1.8860169670498754 ->E0.15315 ->D0.0 ;  perimeter
G1 X100.531 Y43.285 E0.28528 D0 ; ->L3.5130000000000052 ->E0.28528 ->D0.0 ;  perimeter
G1 X105.745 Y61.469 E1.53647 D0 ; ->L18.91675585294688 ->E1.53647 ->D0.0 ;  perimeter
G1 X104.343 Y61.616 E0.11446 D0 ; ->L1.4096854259018223 ->E0.11446 ->D0.0 ;  perimeter
G1 X98.035 Y45.283 E1.4222 D0 ; ->L17.508790734942263 ->E1.4222 ->D0.0 ;  perimeter
G1 X97.712 Y45.578 F18000 ; ->0.43744028163853027  ;  move to first perimeter point
G1 X96.601 Y45.578 E0.09024 D0 F900 ; ->L1.1110000000000042 ->E0.09024 ->D0.0 ;  perimeter
G1 X96.613 Y42.878 E0.21931 D0 ; ->L2.7000266665349835 ->E0.21931 ->D0.0 ;  perimeter
G1 X100.838 Y42.878 E0.34315 D0 ; ->L4.224999999999994 ->E0.34315 ->D0.0 ;  perimeter
G1 X106.27 Y61.823 E1.60083 D0 ; ->L19.708364949939405 ->E1.60083 ->D0.0 ;  perimeter
G1 X104.076 Y62.053 E0.17922 D0 ; ->L2.206022665341408 ->E0.17922 ->D0.0 ;  perimeter
G1 X97.755 Y45.69 E1.42484 D0 ; ->L17.541459745414574 ->E1.42484 ->D0.0 ;  perimeter
G1 X98.035 Y45.283 F1500 ; ->0.0  ; Move to start of wipe
G1 X101.682 Y54.725 B0 F1500 ; ->L0.0  ; ->E0.6000000238418579  ; Wipe - inwards end Normal close
G1 X97.967 Y44.4 F18000 ; ->0.5215985045990799  ;  move to first fill point
T1 ; Selecting nozzle 1
G1 B1.0 E0.6 F400 ; Open and replenish from extrusion
G1 X97.785 Y44.218 E0.04093 D0 F900 ; ->L0.25738686835190133 ->E0.04093 ->D0.0 ;  fill
G1 X99.915 Y44.056 F18000 ; ->2.1361516800077758  ;  move to first fill point
G1 X99.964 Y44.106 E0.01109 D0 F900 ; ->L0.07000714249274627 ->E0.01109 ->D0.0 ;  fill
G1 X98.769 Y44.056 E0.19079 D0 ; ->L1.1960455676938 ->E0.19079 ->D0.0 ;  fill
G1 X100.424 Y45.712 E0.37351 D0 ; ->L2.341230659290114 ->E0.37351 ->D0.0 ;  fill
G1 X98.868 Y45.301 E0.25673 D0 ; ->L1.6093654028840179 ->E0.25673 ->D0.0 ;  fill
G1 X100.885 Y47.318 E0.455 D0 ; ->L2.852468755306537 ->E0.455 ->D0.0 ;  fill
G1 X99.589 Y47.168 E0.20808 D0 ; ->L1.3046516776519381 ->E0.20808 ->D0.0 ;  fill
G1 X101.346 Y48.924 E0.39625 D0 ; ->L2.4840662229497865 ->E0.39625 ->D0.0 ;  fill
G1 X100.31 Y49.035 E0.1661 D0 ; ->L1.0419294601843265 ->E0.1661 ->D0.0 ;  fill
G1 X101.456 Y50.181 E0.25849 D0 ; ->L1.6203787933079798 ->E0.25848999403953554 ->D0.0 ; Closing last used nozzle
G1 X101.806 Y50.531 B0.921 ; ->L0.4952846960021686  ; ->E0.07901000596046448  ; Closing last used nozzle Normal close
G1 X101.031 Y50.902 B0.784 ; ->L0.8592240685641833  ; ->E0.13705  ;  fill Normal close
G1 X102.267 Y52.137 B0.505 ; ->L1.7472609993930426  ; ->E0.27875  ;  fill Normal close
G1 X101.752 Y52.768 B0.375 ; ->L0.8144851134305654  ; ->E0.12992  ;  fill Normal close
G1 X102.727 Y53.743 B0.155 ; ->L1.3788582233137747  ; ->E0.22  ;  fill Normal close
G1 X102.473 Y54.635 B0.007 ; ->L0.9274588939678109  ; ->E0.14791  ;  fill Normal close
G1 X102.506 Y54.668 B0 ; ->L0.046152877045785266  ; ->E0.007359994039535523  ; Closing last used nozzle Normal close
G1 X103.188 Y55.35 ; ->0.9650098200509825  ; Wipe
G1 X103.194 Y56.502 ; ->1.1520156248940385  ; Wipe
G1 X103.245 Y56.552 ; ->0.07142128534267578  ; Wipe
G1 X104.571 Y60.113 F18000 ; ->3.79986802402399  ;  move to first fill point
G1 X104.852 Y60.948 F900 ; ->0.8810141883080004  ; Wipe
G1 Z0.8 F18000 ;  move to next layer (3)
G1 X98.271 Y44.764 F18000 ; ->17.47087338973069  ;  move to first perimeter point
T0 ; Selecting nozzle 0
G1 B1.0 E1.4 F400 ; Open and replenish from extrusion
G1 X97.419 Y44.764 E0.06916 D0 F900 ; ->L0.8520000000000039 ->E0.06916 ->D0.0 ;  perimeter
G1 X97.424 Y43.693 E0.08698 D0 ; ->L1.0710116712716118 ->E0.08698 ->D0.0 ;  perimeter
G1 X100.224 Y43.693 E0.22741 D0 ; ->L2.799999999999997 ->E0.22741 ->D0.0 ;  perimeter
G1 X105.219 Y61.114 E1.47212 D0 ; ->L18.122948601152075 ->E1.47212 ->D0.0 ;  perimeter
G1 X104.611 Y61.178 E0.0497 D0 ; ->L0.6113591415853595 ->E0.0497 ->D0.0 ;  perimeter
G1 X98.314 Y44.875 E1.41955 D0 ; ->L17.47684233492996 ->E1.41955 ->D0.0 ;  perimeter
G1 X97.991 Y45.171 F18000 ; ->0.43811528163258046  ;  move to first perimeter point
G1 X97.01 Y45.171 E0.0797 D0 F900 ; ->L0.9809999999999945 ->E0.0797 ->D0.0 ;  perimeter
G1 X97.018 Y43.285 E0.15315 D0 ; ->L1.8860169670498754 ->E0.15315 ->D0.0 ;  perimeter
G1 X100.531 Y43.285 E0.28528 D0 ; ->L3.5130000000000052 ->E0.28528 ->D0.0 ;  perimeter
G1 X105.745 Y61.469 E1.53647 D0 ; ->L18.91675585294688 ->E1.53647 ->D0.0 ;  perimeter
G1 X104.343 Y61.616 E0.11446 D0 ; ->L1.4096854259018223 ->E0.11446 ->D0.0 ;  perimeter
G1 X98.035 Y45.283 E1.4222 D0 ; ->L17.508790734942263 ->E1.4222 ->D0.0 ;  perimeter
G1 X97.712 Y45.578 F18000 ; ->0.43744028163853027  ;  move to first perimeter point
G1 X96.601 Y45.578 E0.09024 D0 F900 ; ->L1.1110000000000042 ->E0.09024 ->D0.0 ;  perimeter
G1 X96.613 Y42.878 E0.21931 D0 ; ->L2.7000266665349835 ->E0.21931 ->D0.0 ;  perimeter
G1 X100.838 Y42.878 E0.34315 D0 ; ->L4.224999999999994 ->E0.34315 ->D0.0 ;  perimeter
G1 X106.27 Y61.823 E1.60083 D0 ; ->L19.708364949939405 ->E1.60083 ->D0.0 ;  perimeter
G1 X104.076 Y62.053 E0.17922 D0 ; ->L2.206022665341408 ->E0.17922 ->D0.0 ;  perimeter
G1 X97.755 Y45.69 E1.42484 D0 ; ->L17.541459745414574 ->E1.42484 ->D0.0 ;  perimeter
G1 X98.035 Y45.283 F1500 ; ->0.0  ; Move to start of wipe
G1 X101.682 Y54.725 B0 F1500 ; ->L0.0  ; ->E0.6000000238418579  ; Wipe - inwards end Normal close
G1 X97.786 Y44.096 F18000 ; ->0.7091741676062392  ;  move to first fill point
T1 ; Selecting nozzle 1
G1 B1.0 E0.6 F400 ; Open and replenish from extrusion
G1 X97.826 Y44.056 E0.00904 D0 F900 ; ->L0.05656854249491757 ->E0.00904 ->D0.0 ;  fill
G1 X99.009 Y44.056 E0.18878 D0 ; ->L1.183000000000007 ->E0.18878 ->D0.0 ;  fill
G1 X98.561 Y44.505 E0.1012 D0 ; ->L0.6342751768751467 ->E0.1012 ->D0.0 ;  fill
G1 X98.89 Y45.359 E0.14599 D0 ; ->L0.9151814027830736 ->E0.14599 ->D0.0 ;  fill
G1 X100.004 Y44.245 E0.25121 D0 ; ->L1.575433908483634 ->E0.25121 ->D0.0 ;  fill
G1 X100.267 Y45.165 E0.15263 D0 ; ->L0.956853698325924 ->E0.15263 ->D0.0 ;  fill
G1 X99.22 Y46.212 E0.23632 D0 ; ->L1.4806815998046314 ->E0.23632 ->D0.0 ;  fill
G1 X99.55 Y47.066 E0.14599 D0 ; ->L0.9155413699008895 ->E0.14599 ->D0.0 ;  fill
G1 X100.531 Y46.084 E0.22143 D0 ; ->L1.3880507915778932 ->E0.22143 ->D0.0 ;  fill
G1 X100.795 Y47.004 E0.15263 D0 ; ->L0.9571290404119958 ->E0.15263 ->D0.0 ;  fill
G1 X99.879 Y47.919 E0.20654 D0 ; ->L1.2947127094456101 ->E0.20654 ->D0.0 ;  fill
G1 X100.209 Y48.773 E0.14599 D0 ; ->L0.9155413699008962 ->E0.14599 ->D0.0 ;  fill
G1 X101.059 Y47.924 E0.19164 D0 ; ->L1.2013746293309164 ->E0.19164 ->D0.0 ;  fill
G1 X101.322 Y48.843 E0.15263 D0 ; ->L0.9558922533423996 ->E0.15263 ->D0.0 ;  fill
G1 X100.539 Y49.627 E0.17675 D0 ; ->L1.108036551743669 ->E0.17675 ->D0.0 ;  fill
G1 X100.869 Y50.48 E0.14599 D0 ; ->L0.9146086594822889 ->E0.14599 ->D0.0 ;  fill
G1 X101.586 Y49.763 E0.16186 D0 ; ->L1.0139911242215074 ->E0.16186 ->D0.0 ;  fill
G1 X101.85 Y50.682 E0.15263 D0 ; ->L0.9561678722902194 ->E0.15263 ->D0.0 ;  fill
G1 X101.198 Y51.334 E0.14697 D0 ; ->L0.9220672426672594 ->E0.14697 ->D0.0 ;  fill
G1 X102.113 Y51.602 E0.15214 D0 ; ->L0.95344061167962 ->E0.15214 ->D0.0 ;  fill
G1 X101.528 Y52.187 E0.13208 D0 ; ->L0.8273149339882567 ->E0.13208 ->D0.0 ;  fill
G1 X101.584 Y52.209 E0.00968 D0 ; ->L0.06068797593567191 ->E0.009679994039535568 ->D0.0 ; retract trigger
G1 X102.377 Y52.522 B0.864 ; ->L0.8520146043170537  ; ->E0.13590000596046442  ; retract trigger Normal close
G1 X101.858 Y53.041 B0.747 ; ->L0.733976838871629  ; ->E0.11719  ;  fill Normal close
G1 X102.641 Y53.441 B0.607 ; ->L0.8792547981103126  ; ->E0.1403  ;  fill Normal close
G1 X102.187 Y53.895 B0.504 ; ->L0.6420529573173911  ; ->E0.1023  ;  fill Normal close
G1 X102.904 Y54.361 B0.368 ; ->L0.8551286452926207  ; ->E0.13646  ;  fill Normal close
G1 X102.517 Y54.748 B0.28 ; ->L0.5473006486383885  ; ->E0.0874  ;  fill Normal close
G1 X103.12 Y55.328 B0.147 ; ->L0.8366654050455394  ; ->E0.13352  ;  fill Normal close
G1 X103.168 Y55.28 B0.136 ; ->L0.06788225099391114  ; ->E0.01081  ;  fill Normal close
G1 X103.096 Y55.72 F18000 ; ->0.4458519933789669  ;  move to first fill point
G1 X103.51 Y56.952 B0 F900 ; ->L1.2999377327796675  ; ->E0.13611999403953556  ; retract trigger Normal close
G1 X104.571 Y60.113 F900 ; ->3.33407499918385  ; Wipe
G1 X104.571 Y60.113 F18000 ; ->0.0  ;  move to first fill point
G1 X104.852 Y60.948 F900 ; ->0.8810141883080004  ; Wipe
G1 X96.564 Y41.528 F18000 ; ->21.114623936977903  ;  move to first support material point
G1 B1.0 E1.4 F400 ; Open and replenish from extrusion
G1 X96.564 Y38.628 E1.38801 D0 F900 ; ->L2.8999999999999986 ->E1.38801 ->D0.0 ;  support material
G1 X94.573 Y38.628 E0.95258 D0 ; ->L1.9909999999999997 ->E0.95258 ->D0.0 ;  support material
G1 X93.682 Y38.687 E0.42738 D0 ; ->L0.8929512864652718 ->E0.42738 ->D0.0 ;  support material
G1 X92.771 Y38.868 E0.44466 D0 ; ->L0.9288067613879671 ->E0.44466 ->D0.0 ;  support material
G1 X91.891 Y39.166 E0.44466 D0 ; ->L0.9290877245986995 ->E0.44466 ->D0.0 ;  support material
G1 X91.058 Y39.577 E0.44465 D0 ; ->L0.9288756644460002 ->E0.44465 ->D0.0 ;  support material
G1 X90.286 Y40.093 E0.44465 D0 ; ->L0.9285687912050534 ->E0.44465 ->D0.0 ;  support material
G1 X89.587 Y40.706 E0.44466 D0 ; ->L0.9297150100971785 ->E0.44466 ->D0.0 ;  support material
G1 X88.975 Y41.404 E0.44466 D0 ; ->L0.9283038295730615 ->E0.44466 ->D0.0 ;  support material
G1 X88.458 Y42.177 E0.44465 D0 ; ->L0.9299559129335055 ->E0.44465 ->D0.0 ;  support material
G1 X88.048 Y43.01 E0.44466 D0 ; ->L0.9284336271376616 ->E0.44466 ->D0.0 ;  support material
G1 X87.749 Y43.89 E0.44467 D0 ; ->L0.9294089519689427 ->E0.44467 ->D0.0 ;  support material
G1 X87.568 Y44.801 E0.44464 D0 ; ->L0.9288067613879657 ->E0.44464 ->D0.0 ;  support material
G1 X87.509 Y45.692 E0.42739 D0 ; ->L0.8929512864652789 ->E0.42739 ->D0.0 ;  support material
G1 X87.509 Y47.828 E1.02235 D0 ; ->L2.136000000000003 ->E1.02235 ->D0.0 ;  support material
G1 X95.709 Y47.828 E3.92472 D0 ; ->L8.200000000000003 ->E3.92472 ->D0.0 ;  support material
G1 X95.709 Y46.928 E0.43076 D0 ; ->L0.9000000000000057 ->E0.43076 ->D0.0 ;  support material
G1 X95.245 Y46.928 E0.22205 D0 ; ->L0.46399999999999864 ->E0.22205 ->D0.0 ;  support material
G1 X95.269 Y41.528 E2.58459 D0 ; ->L5.40005333306996 ->E2.58459 ->D0.0 ;  support material
G1 X96.564 Y41.528 E0.61973 D0 ; ->L1.2949999999999875 ->E0.61973 ->D0.0 ;  support material
G1 X89.236 Y42.417 F18000 ; ->7.3817277787791555  ;  move to first support material point
G1 X94.485 Y42.417 E2.51226 D0 F900 ; ->L5.248999999999995 ->E2.51226 ->D0.0 ;  support material
G1 X94.471 Y45.717 E1.57947 D0 ; ->L3.3000296968360727 ->E1.57947 ->D0.0 ;  support material
G1 X88.309 Y45.717 E2.94895 D0 ; ->L6.162000000000006 ->E2.94895 ->D0.0 ;  support material
G1 X94.471 Y45.717 B0 F1500 ; ->L0.0  ; ->E0.9999999999999999  ; Wipe - reverse end Normal close
G1 Z1 F18000 ;  move to next layer (4)
G1 X98.271 Y44.764 F18000 ; ->10.007479852590265  ;  move to first perimeter point
G1 X98.271 Y44.764 F18000 ; ->10.007479852590265  ;  move to first perimeter point
T0 ; Selecting nozzle 0
G1 B1.0 E1 F400 ; Open and replenish from extrusion
G1 X97.419 Y44.764 E0.06916 D0 F900 ; ->L0.8520000000000039 ->E0.06916 ->D0.0 ;  perimeter
G1 X97.424 Y43.693 E0.08698 D0 ; ->L1.0710116712716118 ->E0.08698 ->D0.0 ;  perimeter
G1 X100.224 Y43.693 E0.22741 D0 ; ->L2.799999999999997 ->E0.22741 ->D0.0 ;  perimeter
G1 X105.219 Y61.114 E1.47212 D0 ; ->L18.122948601152075 ->E1.47212 ->D0.0 ;  perimeter
G1 X104.611 Y61.178 E0.0497 D0 ; ->L0.6113591415853595 ->E0.0497 ->D0.0 ;  perimeter
G1 X98.314 Y44.875 E1.41955 D0 ; ->L17.47684233492996 ->E1.41955 ->D0.0 ;  perimeter
G1 X97.991 Y45.171 F18000 ; ->0.43811528163258046  ;  move to first perimeter point
G1 X97.01 Y45.171 E0.0797 D0 F900 ; ->L0.9809999999999945 ->E0.0797 ->D0.0 ;  perimeter
G1 X97.018 Y43.285 E0.15315 D0 ; ->L1.8860169670498754 ->E0.15315 ->D0.0 ;  perimeter
G1 X100.531 Y43.285 E0.28528 D0 ; ->L3.5130000000000052 ->E0.28528 ->D0.0 ;  perimeter
G1 X105.745 Y61.469 E1.53647 D0 ; ->L18.91675585294688 ->E1.53647 ->D0.0 ;  perimeter
G1 X104.343 Y61.616 E0.11446 D0 ; ->L1.4096854259018223 ->E0.11446 ->D0.0 ;  perimeter
G1 X98.035 Y45.283 E1.4222 D0 ; ->L17.508790734942263 ->E1.4222 ->D0.0 ;  perimeter
G1 X97.712 Y45.578 F18000 ; ->0.43744028163853027  ;  move to first perimeter point
G1 X96.601 Y45.578 E0.09024 D0 F900 ; ->L1.1110000000000042 ->E0.09024 ->D0.0 ;  perimeter
G1 X96.613 Y42.878 E0.21931 D0 ; ->L2.7000266665349835 ->E0.21931 ->D0.0 ;  perimeter
G1 X100.838 Y42.878 E0.34315 D0 ; ->L4.224999999999994 ->E0.34315 ->D0.0 ;  perimeter
G1 X106.27 Y61.823 E1.60083 D0 ; ->L19.708364949939405 ->E1.60083 ->D0.0 ;  perimeter
G1 X104.076 Y62.053 E0.17922 D0 ; ->L2.206022665341408 ->E0.17922 ->D0.0 ;  perimeter
G1 X97.755 Y45.69 E1.42484 D0 ; ->L17.541459745414574 ->E1.42484 ->D0.0 ;  perimeter
G1 X98.035 Y45.283 F1500 ; ->0.0  ; Move to start of wipe
G1 X101.682 Y54.725 B0 F1500 ; ->L0.0  ; ->E0.6000000238418579  ; Wipe - inwards end Normal close
G1 X97.967 Y44.4 F18000 ; ->0.5215985045990799  ;  move to first fill point
T1 ; Selecting nozzle 1
G1 B1.0 E0.6 F400 ; Open and replenish from extrusion
G1 X97.785 Y44.218 E0.04093 D0 F900 ; ->L0.25738686835190133 ->E0.04093 ->D0.0 ;  fill
G1 X99.915 Y44.056 F18000 ; ->2.1361516800077758  ;  move to first fill point
G1 X99.964 Y44.106 E0.01109 D0 F900 ; ->L0.07000714249274627 ->E0.01109 ->D0.0 ;  fill
G1 X98.769 Y44.056 E0.19079 D0 ; ->L1.1960455676938 ->E0.19079 ->D0.0 ;  fill
G1 X100.424 Y45.712 E0.37351 D0 ; ->L2.341230659290114 ->E0.37351 ->D0.0 ;  fill
G1 X98.868 Y45.302 E0.25673 D0 ; ->L1.6091103131855315 ->E0.25673 ->D0.0 ;  fill
G1 X100.885 Y47.318 E0.45499 D0 ; ->L2.8517617361904612 ->E0.45499 ->D0.0 ;  fill
G1 X99.589 Y47.168 E0.20808 D0 ; ->L1.3046516776519381 ->E0.20808 ->D0.0 ;  fill
G1 X101.346 Y48.924 E0.39624 D0 ; ->L2.4840662229497865 ->E0.39624 ->D0.0 ;  fill
G1 X100.31 Y49.035 E0.1661 D0 ; ->L1.0419294601843265 ->E0.1661 ->D0.0 ;  fill
G1 X101.806 Y50.531 E0.33749 D0 ; ->L2.1156634893101485 ->E0.33749 ->D0.0 ;  fill
G1 X101.031 Y50.902 E0.13705 D0 ; ->L0.8592240685641833 ->E0.13705 ->D0.0 ;  fill
G1 X101.535 Y51.406 E0.11366 D0 ; ->L0.7124692357628116 ->E0.11365999403953553 ->D0.0 ; Closing last used nozzle
G1 X102.267 Y52.137 B0.835 ; ->L1.0347917636302308  ; ->E0.16508000596046446  ; Closing last used nozzle Normal close
G1 X101.752 Y52.768 B0.705 ; ->L0.8144851134305654  ; ->E0.12992  ;  fill Normal close
G1 X102.727 Y53.743 B0.485 ; ->L1.3788582233137747  ; ->E0.21999  ;  fill Normal close
G1 X102.473 Y54.635 B0.337 ; ->L0.9274588939678109  ; ->E0.14791  ;  fill Normal close
G1 X103.188 Y55.35 B0.176 ; ->L1.0111626970967678  ; ->E0.16125  ;  fill Normal close
G1 X103.194 Y56.452 B0 ; ->L1.1021868377098392  ; ->E0.1758499940395355  ; Closing last used nozzle Normal close
G1 X103.194 Y56.502 ; ->0.04982878718419931  ; Wipe
G1 X103.245 Y56.552 ; ->0.07142128534267578  ; Wipe
G1 X103.569 Y57.128 F18000 ; ->0.660872151024689  ;  move to first fill point
G1 X104.571 Y60.113 F900 ; ->3.1486868691567262  ; Wipe
G1 X104.571 Y60.113 F18000 ; ->0.0  ;  move to first fill point
G1 X104.852 Y60.948 F900 ; ->0.8810141883080004  ; Wipe
G1 Z1.2 F18000 ;  move to next layer (5)
G1 X98.271 Y44.764 F18000 ; ->17.47087338973069  ;  move to first perimeter point
T0 ; Selecting nozzle 0
G1 B1.0 E1.4 F400 ; Open and replenish from extrusion
G1 X97.419 Y44.764 E0.06916 D0 F900 ; ->L0.8520000000000039 ->E0.06916 ->D0.0 ;  perimeter
G1 X97.424 Y43.693 E0.08698 D0 ; ->L1.0710116712716118 ->E0.08698 ->D0.0 ;  perimeter
G1 X100.224 Y43.693 E0.22741 D0 ; ->L2.799999999999997 ->E0.22741 ->D0.0 ;  perimeter
G1 X105.219 Y61.114 E1.47212 D0 ; ->L18.122948601152075 ->E1.47212 ->D0.0 ;  perimeter
G1 X104.611 Y61.178 E0.0497 D0 ; ->L0.6113591415853595 ->E0.0497 ->D0.0 ;  perimeter
G1 X98.314 Y44.875 E1.41955 D0 ; ->L17.47684233492996 ->E1.41955 ->D0.0 ;  perimeter
G1 X97.991 Y45.171 F18000 ; ->0.43811528163258046  ;  move to first perimeter point
G1 X97.01 Y45.171 E0.0797 D0 F900 ; ->L0.9809999999999945 ->E0.0797 ->D0.0 ;  perimeter
G1 X97.018 Y43.285 E0.15315 D0 ; ->L1.8860169670498754 ->E0.15315 ->D0.0 ;  perimeter
G1 X100.531 Y43.285 E0.28528 D0 ; ->L3.5130000000000052 ->E0.28528 ->D0.0 ;  perimeter
G1 X105.745 Y61.469 E1.53647 D0 ; ->L18.91675585294688 ->E1.53647 ->D0.0 ;  perimeter
G1 X104.343 Y61.616 E0.11446 D0 ; ->L1.4096854259018223 ->E0.11446 ->D0.0 ;  perimeter
G1 X98.035 Y45.283 E1.4222 D0 ; ->L17.508790734942263 ->E1.4222 ->D0.0 ;  perimeter
G1 X97.712 Y45.578 F18000 ; ->0.43744028163853027  ;  move to first perimeter point
G1 X96.601 Y45.578 E0.09024 D0 F900 ; ->L1.1110000000000042 ->E0.09024 ->D0.0 ;  perimeter
G1 X96.613 Y42.878 E0.21931 D0 ; ->L2.7000266665349835 ->E0.21931 ->D0.0 ;  perimeter
G1 X100.838 Y42.878 E0.34315 D0 ; ->L4.224999999999994 ->E0.34315 ->D0.0 ;  perimeter
G1 X106.27 Y61.823 E1.60083 D0 ; ->L19.708364949939405 ->E1.60083 ->D0.0 ;  perimeter
G1 X104.076 Y62.053 E0.17922 D0 ; ->L2.206022665341408 ->E0.17922 ->D0.0 ;  perimeter
G1 X97.755 Y45.69 E1.42484 D0 ; ->L17.541459745414574 ->E1.42484 ->D0.0 ;  perimeter
G1 X98.035 Y45.283 F1500 ; ->0.0  ; Move to start of wipe
G1 X101.682 Y54.725 B0 F1500 ; ->L0.0  ; ->E0.6000000238418579  ; Wipe - inwards end Normal close
G1 X97.786 Y44.096 F18000 ; ->0.7091741676062392  ;  move to first fill point
T1 ; Selecting nozzle 1
G1 B1.0 E0.6 F400 ; Open and replenish from extrusion
G1 X97.826 Y44.056 E0.00904 D0 F900 ; ->L0.05656854249491757 ->E0.00904 ->D0.0 ;  fill
G1 X99.009 Y44.056 E0.18878 D0 ; ->L1.183000000000007 ->E0.18878 ->D0.0 ;  fill
G1 X98.561 Y44.505 E0.1012 D0 ; ->L0.6342751768751467 ->E0.1012 ->D0.0 ;  fill
G1 X98.89 Y45.359 E0.14599 D0 ; ->L0.9151814027830736 ->E0.14599 ->D0.0 ;  fill
G1 X100.004 Y44.245 E0.25121 D0 ; ->L1.575433908483634 ->E0.25121 ->D0.0 ;  fill
G1 X100.267 Y45.165 E0.15263 D0 ; ->L0.956853698325924 ->E0.15263 ->D0.0 ;  fill
G1 X99.22 Y46.212 E0.23632 D0 ; ->L1.4806815998046314 ->E0.23632 ->D0.0 ;  fill
G1 X99.55 Y47.066 E0.14599 D0 ; ->L0.9155413699008895 ->E0.14599 ->D0.0 ;  fill
G1 X100.531 Y46.084 E0.22143 D0 ; ->L1.3880507915778932 ->E0.22143 ->D0.0 ;  fill
G1 X100.795 Y47.004 E0.15263 D0 ; ->L0.9571290404119958 ->E0.15263 ->D0.0 ;  fill
G1 X99.879 Y47.919 E0.20654 D0 ; ->L1.2947127094456101 ->E0.20654 ->D0.0 ;  fill
G1 X100.209 Y48.773 E0.14599 D0 ; ->L0.9155413699008962 ->E0.14599 ->D0.0 ;  fill
G1 X101.059 Y47.924 E0.19164 D0 ; ->L1.2013746293309164 ->E0.19164 ->D0.0 ;  fill
G1 X101.322 Y48.843 E0.15263 D0 ; ->L0.9558922533423996 ->E0.15263 ->D0.0 ;  fill
G1 X100.539 Y49.627 E0.17675 D0 ; ->L1.108036551743669 ->E0.17675 ->D0.0 ;  fill
G1 X100.869 Y50.48 E0.14599 D0 ; ->L0.9146086594822889 ->E0.14599 ->D0.0 ;  fill
G1 X101.586 Y49.763 E0.16186 D0 ; ->L1.0139911242215074 ->E0.16186 ->D0.0 ;  fill
G1 X101.85 Y50.682 E0.15263 D0 ; ->L0.9561678722902194 ->E0.15263 ->D0.0 ;  fill
G1 X101.198 Y51.334 E0.14697 D0 ; ->L0.9220672426672594 ->E0.14697 ->D0.0 ;  fill
G1 X101.456 Y51.409 E0.04282 D0 ; ->L0.26834705737591974 ->E0.04281999403953552 ->D0.0 ; Closing last used nozzle
G1 X102.113 Y51.602 B0.891 ; ->L0.6850935543037003  ; ->E0.10932000596046448  ; Closing last used nozzle Normal close
G1 X101.528 Y52.187 B0.759 ; ->L0.8273149339882567  ; ->E0.13208  ;  fill Normal close
G1 X102.377 Y52.522 B0.613 ; ->L0.9127025802527255  ; ->E0.14558  ;  fill Normal close
G1 X101.858 Y53.041 B0.496 ; ->L0.733976838871629  ; ->E0.11719  ;  fill Normal close
G1 X102.641 Y53.441 B0.356 ; ->L0.8792547981103126  ; ->E0.1403  ;  fill Normal close
G1 X102.187 Y53.895 B0.253 ; ->L0.6420529573173911  ; ->E0.1023  ;  fill Normal close
G1 X102.904 Y54.361 B0.117 ; ->L0.8551286452926207  ; ->E0.13646  ;  fill Normal close
G1 X102.517 Y54.748 B0.029 ; ->L0.5473006486383885  ; ->E0.0874  ;  fill Normal close
G1 X102.65 Y54.876 B0 ; ->L0.1840387804019854  ; ->E0.029369994039535552  ; Closing last used nozzle Normal close
G1 X103.12 Y55.328 ; ->0.652626624643554  ; Wipe
G1 X103.168 Y55.28 ; ->0.06788225099391114  ; Wipe
G1 X103.096 Y55.72 F18000 ; ->0.4458519933789669  ;  move to first fill point
G1 X103.808 Y57.84 F900 ; ->2.2363684848432346  ; Wipe
G1 X104.571 Y60.113 F18000 ; ->2.3976442605190558  ;  move to first fill point
G1 X104.852 Y60.948 F900 ; ->0.8810141883080004  ; Wipe
G1 Z1.4 F18000 ;  move to next layer (6)
G1 X98.271 Y44.764 F18000 ; ->17.47087338973069  ;  move to first perimeter point
T0 ; Selecting nozzle 0
G1 B1.0 E1.4 F400 ; Open and replenish from extrusion
G1 X97.419 Y44.764 E0.06916 D0 F900 ; ->L0.8520000000000039 ->E0.06916 ->D0.0 ;  perimeter
G1 X97.424 Y43.693 E0.08698 D0 ; ->L1.0710116712716118 ->E0.08698 ->D0.0 ;  perimeter
G1 X100.224 Y43.693 E0.22741 D0 ; ->L2.799999999999997 ->E0.22741 ->D0.0 ;  perimeter
G1 X105.219 Y61.114 E1.47212 D0 ; ->L18.122948601152075 ->E1.47212 ->D0.0 ;  perimeter
G1 X104.611 Y61.178 E0.0497 D0 ; ->L0.6113591415853595 ->E0.0497 ->D0.0 ;  perimeter
G1 X98.314 Y44.875 E1.41955 D0 ; ->L17.47684233492996 ->E1.41955 ->D0.0 ;  perimeter
G1 X97.991 Y45.171 F18000 ; ->0.43811528163258046  ;  move to first perimeter point
G1 X97.01 Y45.171 E0.0797 D0 F900 ; ->L0.9809999999999945 ->E0.0797 ->D0.0 ;  perimeter
G1 X97.018 Y43.285 E0.15315 D0 ; ->L1.8860169670498754 ->E0.15315 ->D0.0 ;  perimeter
G1 X100.531 Y43.285 E0.28528 D0 ; ->L3.5130000000000052 ->E0.28528 ->D0.0 ;  perimeter
G1 X105.745 Y61.469 E1.53647 D0 ; ->L18.91675585294688 ->E1.53647 ->D0.0 ;  perimeter
G1 X104.343 Y61.616 E0.11446 D0 ; ->L1.4096854259018223 ->E0.11446 ->D0.0 ;  perimeter
G1 X98.035 Y45.283 E1.4222 D0 ; ->L17.508790734942263 ->E1.4222 ->D0.0 ;  perimeter
G1 X97.712 Y45.578 F18000 ; ->0.43744028163853027  ;  move to first perimeter point
G1 X96.601 Y45.578 E0.09024 D0 F900 ; ->L1.1110000000000042 ->E0.09024 ->D0.0 ;  perimeter
G1 X96.613 Y42.878 E0.21931 D0 ; ->L2.7000266665349835 ->E0.21931 ->D0.0 ;  perimeter
G1 X100.838 Y42.878 E0.34315 D0 ; ->L4.224999999999994 ->E0.34315 ->D0.0 ;  perimeter
G1 X106.27 Y61.823 E1.60083 D0 ; ->L19.708364949939405 ->E1.60083 ->D0.0 ;  perimeter
G1 X104.076 Y62.053 E0.17922 D0 ; ->L2.206022665341408 ->E0.17922 ->D0.0 ;  perimeter
G1 X97.755 Y45.69 E1.42484 D0 ; ->L17.541459745414574 ->E1.42484 ->D0.0 ;  perimeter
G1 X98.035 Y45.283 F1500 ; ->0.0  ; Move to start of wipe
G1 X101.682 Y54.725 B0 F1500 ; ->L0.0  ; ->E0.6000000238418579  ; Wipe - inwards end Normal close
G1 X97.967 Y44.4 F18000 ; ->0.5215985045990799  ;  move to first fill point
T1 ; Selecting nozzle 1
G1 B1.0 E0.6 F400 ; Open and replenish from extrusion
G1 X97.785 Y44.218 E0.04093 D0 F900 ; ->L0.25738686835190133 ->E0.04093 ->D0.0 ;  fill
G1 X99.915 Y44.056 F18000 ; ->2.1361516800077758  ;  move to first fill point
G1 X99.964 Y44.106 E0.01109 D0 F900 ; ->L0.07000714249274627 ->E0.01109 ->D0.0 ;  fill
G1 X98.769 Y44.056 E0.19079 D0 ; ->L1.1960455676938 ->E0.19079 ->D0.0 ;  fill
G1 X100.424 Y45.712 E0.37351 D0 ; ->L2.341230659290114 ->E0.37351 ->D0.0 ;  fill
G1 X98.868 Y45.302 E0.25673 D0 ; ->L1.6091103131855315 ->E0.25673 ->D0.0 ;  fill
G1 X100.885 Y47.318 E0.45499 D0 ; ->L2.8517617361904612 ->E0.45499 ->D0.0 ;  fill
G1 X99.589 Y47.168 E0.20808 D0 ; ->L1.3046516776519381 ->E0.20808 ->D0.0 ;  fill
G1 X101.346 Y48.924 E0.39624 D0 ; ->L2.4840662229497865 ->E0.39624 ->D0.0 ;  fill
G1 X100.31 Y49.035 E0.1661 D0 ; ->L1.0419294601843265 ->E0.1661 ->D0.0 ;  fill
G1 X101.456 Y50.181 E0.25847 D0 ; ->L1.6203014295880092 ->E0.25846999403953563 ->D0.0 ; retract trigger
G1 X101.806 Y50.531 B0.921 ; ->L0.49536205972213937  ; ->E0.07902000596046438  ; retract trigger Normal close
G1 X101.031 Y50.902 B0.784 ; ->L0.8592240685641833  ; ->E0.13705  ;  fill Normal close
G1 X102.267 Y52.137 B0.505 ; ->L1.7472609993930426  ; ->E0.27874  ;  fill Normal close
G1 X101.752 Y52.768 B0.375 ; ->L0.8144851134305654  ; ->E0.12992  ;  fill Normal close
G1 X102.727 Y53.743 B0.155 ; ->L1.3788582233137747  ; ->E0.21999  ;  fill Normal close
G1 X102.473 Y54.635 B0.007 ; ->L0.9274588939678109  ; ->E0.14791  ;  fill Normal close
G1 X102.506 Y54.668 B0 ; ->L0.046215584809946364  ; ->E0.007369994039535532  ; retract trigger Normal close
G1 X103.188 Y55.35 ; ->0.9649471122868214  ; Wipe
G1 X103.194 Y56.502 ; ->1.1520156248940385  ; Wipe
G1 X103.245 Y56.552 ; ->0.07142128534267578  ; Wipe
G1 X104.571 Y60.113 F18000 ; ->3.79986802402399  ;  move to first fill point
G1 X104.852 Y60.948 F900 ; ->0.8810141883080004  ; Wipe
G1 X96.564 Y41.528 F18000 ; ->21.114623936977903  ;  move to first support material point
G1 B1.0 E1.4 F400 ; Open and replenish from extrusion
G1 X96.564 Y38.628 E1.38801 D0 F900 ; ->L2.8999999999999986 ->E1.38801 ->D0.0 ;  support material
G1 X94.573 Y38.628 E0.95258 D0 ; ->L1.9909999999999997 ->E0.95258 ->D0.0 ;  support material
G1 X93.682 Y38.687 E0.42738 D0 ; ->L0.8929512864652718 ->E0.42738 ->D0.0 ;  support material
G1 X92.771 Y38.868 E0.44466 D0 ; ->L0.9288067613879671 ->E0.44466 ->D0.0 ;  support material
G1 X91.891 Y39.166 E0.44466 D0 ; ->L0.9290877245986995 ->E0.44466 ->D0.0 ;  support material
G1 X91.058 Y39.577 E0.44465 D0 ; ->L0.9288756644460002 ->E0.44465 ->D0.0 ;  support material
G1 X90.286 Y40.093 E0.44465 D0 ; ->L0.9285687912050534 ->E0.44465 ->D0.0 ;  support material
G1 X89.587 Y40.706 E0.44466 D0 ; ->L0.9297150100971785 ->E0.44466 ->D0.0 ;  support material
G1 X88.975 Y41.404 E0.44466 D0 ; ->L0.9283038295730615 ->E0.44466 ->D0.0 ;  support material
G1 X88.458 Y42.177 E0.44465 D0 ; ->L0.9299559129335055 ->E0.44465 ->D0.0 ;  support material
G1 X88.048 Y43.01 E0.44466 D0 ; ->L0.9284336271376616 ->E0.44466 ->D0.0 ;  support material
G1 X87.749 Y43.89 E0.44467 D0 ; ->L0.9294089519689427 ->E0.44467 ->D0.0 ;  support material
G1 X87.568 Y44.801 E0.44464 D0 ; ->L0.9288067613879657 ->E0.44464 ->D0.0 ;  support material
G1 X87.509 Y45.692 E0.42739 D0 ; ->L0.8929512864652789 ->E0.42739 ->D0.0 ;  support material
G1 X87.509 Y47.828 E1.02235 D0 ; ->L2.136000000000003 ->E1.02235 ->D0.0 ;  support material
G1 X95.709 Y47.828 E3.92472 D0 ; ->L8.200000000000003 ->E3.92472 ->D0.0 ;  support material
G1 X95.709 Y46.928 E0.43076 D0 ; ->L0.9000000000000057 ->E0.43076 ->D0.0 ;  support material
G1 X95.245 Y46.928 E0.22205 D0 ; ->L0.46399999999999864 ->E0.22205 ->D0.0 ;  support material
G1 X95.269 Y41.528 E2.58459 D0 ; ->L5.40005333306996 ->E2.58459 ->D0.0 ;  support material
G1 X96.564 Y41.528 E0.61973 D0 ; ->L1.2949999999999875 ->E0.61973 ->D0.0 ;  support material
G1 X89.236 Y42.417 F18000 ; ->7.3817277787791555  ;  move to first support material point
G1 X94.485 Y42.417 E2.51226 D0 F900 ; ->L5.248999999999995 ->E2.51226 ->D0.0 ;  support material
G1 X94.471 Y45.717 E1.57947 D0 ; ->L3.3000296968360727 ->E1.57947 ->D0.0 ;  support material
G1 X88.309 Y45.717 E2.94895 D0 ; ->L6.162000000000006 ->E2.94895 ->D0.0 ;  support material
G1 X94.471 Y45.717 B0 F1500 ; ->L0.0  ; ->E0.9999999999999999  ; Wipe - reverse end Normal close
G1 Z1.6 F18000 ;  move to next layer (7)
G1 X98.271 Y44.764 F18000 ; ->10.007479852590265  ;  move to first perimeter point
G1 X98.271 Y44.764 F18000 ; ->10.007479852590265  ;  move to first perimeter point
T0 ; Selecting nozzle 0
G1 B1.0 E1 F400 ; Open and replenish from extrusion
G1 X97.419 Y44.764 E0.06916 D0 F900 ; ->L0.8520000000000039 ->E0.06916 ->D0.0 ;  perimeter
G1 X97.424 Y43.693 E0.08698 D0 ; ->L1.0710116712716118 ->E0.08698 ->D0.0 ;  perimeter
G1 X100.224 Y43.693 E0.22741 D0 ; ->L2.799999999999997 ->E0.22741 ->D0.0 ;  perimeter
G1 X105.219 Y61.114 E1.47212 D0 ; ->L18.122948601152075 ->E1.47212 ->D0.0 ;  perimeter
G1 X104.611 Y61.178 E0.0497 D0 ; ->L0.6113591415853595 ->E0.0497 ->D0.0 ;  perimeter
G1 X98.314 Y44.875 E1.41955 D0 ; ->L17.47684233492996 ->E1.41955 ->D0.0 ;  perimeter
G1 X97.991 Y45.171 F18000 ; ->0.43811528163258046  ;  move to first perimeter point
G1 X97.01 Y45.171 E0.0797 D0 F900 ; ->L0.9809999999999945 ->E0.0797 ->D0.0 ;  perimeter
G1 X97.018 Y43.285 E0.15315 D0 ; ->L1.8860169670498754 ->E0.15315 ->D0.0 ;  perimeter
G1 X100.531 Y43.285 E0.28528 D0 ; ->L3.5130000000000052 ->E0.28528 ->D0.0 ;  perimeter
G1 X105.745 Y61.469 E1.53647 D0 ; ->L18.91675585294688 ->E1.53647 ->D0.0 ;  perimeter
G1 X104.343 Y61.616 E0.11446 D0 ; ->L1.4096854259018223 ->E0.11446 ->D0.0 ;  perimeter
G1 X98.035 Y45.283 E1.4222 D0 ; ->L17.508790734942263 ->E1.4222 ->D0.0 ;  perimeter
G1 X97.712 Y45.578 F18000 ; ->0.43744028163853027  ;  move to first perimeter point
G1 X96.601 Y45.578 E0.09024 D0 F900 ; ->L1.1110000000000042 ->E0.09024 ->D0.0 ;  perimeter
G1 X96.613 Y42.878 E0.21931 D0 ; ->L2.7000266665349835 ->E0.21931 ->D0.0 ;  perimeter
G1 X100.838 Y42.878 E0.34315 D0 ; ->L4.224999999999994 ->E0.34315 ->D0.0 ;  perimeter
G1 X106.27 Y61.823 E1.60083 D0 ; ->L19.708364949939405 ->E1.60083 ->D0.0 ;  perimeter
G1 X104.076 Y62.053 E0.17922 D0 ; ->L2.206022665341408 ->E0.17922 ->D0.0 ;  perimeter
G1 X97.755 Y45.69 E1.42484 D0 ; ->L17.541459745414574 ->E1.42484 ->D0.0 ;  perimeter
G1 X98.035 Y45.283 F1500 ; ->0.0  ; Move to start of wipe
G1 X101.682 Y54.725 B0 F1500 ; ->L0.0  ; ->E0.6000000238418579  ; Wipe - inwards end Normal close
G1 X97.786 Y44.096 F18000 ; ->0.7091741676062392  ;  move to first fill point
T1 ; Selecting nozzle 1
G1 B1.0 E0.6 F400 ; Open and replenish from extrusion
G1 X97.826 Y44.056 E0.00904 D0 F900 ; ->L0.05656854249491757 ->E0.00904 ->D0.0 ;  fill
G1 X99.029 Y44.056 E0.192 D0 ; ->L1.203000000000003 ->E0.192 ->D0.0 ;  fill
G1 X98.566 Y44.519 E0.10449 D0 ; ->L0.6547808793787393 ->E0.10449 ->D0.0 ;  fill
G1 X98.902 Y45.388 E0.14848 D0 ; ->L0.9316957657948214 ->E0.14848 ->D0.0 ;  fill
G1 X100.013 Y44.276 E0.2507 D0 ; ->L1.571898533621047 ->E0.2507 ->D0.0 ;  fill
G1 X100.281 Y45.212 E0.15523 D0 ; ->L0.9736118323027921 ->E0.15523 ->D0.0 ;  fill
G1 X99.237 Y46.256 E0.23556 D0 ; ->L1.4764389591175169 ->E0.23556 ->D0.0 ;  fill
G1 X99.572 Y47.124 E0.14848 D0 ; ->L0.9304026010281834 ->E0.14848 ->D0.0 ;  fill
G1 X100.549 Y46.147 E0.22041 D0 ; ->L1.3816866504385192 ->E0.22041 ->D0.0 ;  fill
G1 X100.817 Y47.082 E0.15523 D0 ; ->L0.9726505024930574 ->E0.15523 ->D0.0 ;  fill
G1 X99.908 Y47.992 E0.20527 D0 ; ->L1.2862274293452067 ->E0.20527 ->D0.0 ;  fill
G1 X100.243 Y48.86 E0.14848 D0 ; ->L0.9304026010281783 ->E0.14848 ->D0.0 ;  fill
G1 X101.086 Y48.018 E0.19012 D0 ; ->L1.1914751361232865 ->E0.19012 ->D0.0 ;  fill
G1 X101.354 Y48.953 E0.15523 D0 ; ->L0.9726505024930613 ->E0.15523 ->D0.0 ;  fill
G1 X100.578 Y49.728 E0.17498 D0 ; ->L1.0967228455722038 ->E0.17498 ->D0.0 ;  fill
G1 X100.914 Y50.597 E0.14848 D0 ; ->L0.9316957657948214 ->E0.14848 ->D0.0 ;  fill
G1 X101.622 Y49.888 E0.15983 D0 ; ->L1.0019705584496992 ->E0.15983 ->D0.0 ;  fill
G1 X101.89 Y50.823 E0.15523 D0 ; ->L0.9726505024930613 ->E0.15523 ->D0.0 ;  fill
G1 X101.249 Y51.465 E0.14469 D0 ; ->L0.907218275830029 ->E0.14469 ->D0.0 ;  fill
G1 X101.301 Y51.482 E0.00869 D0 ; ->L0.05444351844354 ->E0.00868999403953552 ->D0.0 ; Closing last used nozzle
G1 X102.158 Y51.759 B0.856 ; ->L0.9009187165228675  ; ->E0.14380000596046447  ; Closing last used nozzle Normal close
G1 X101.584 Y52.333 B0.727 ; ->L0.8117585848021538  ; ->E0.12954  ;  fill Normal close
G1 X102.426 Y52.694 B0.58 ; ->L0.916124991472234  ; ->E0.14622  ;  fill Normal close
G1 X101.919 Y53.201 B0.466 ; ->L0.7170062761231613  ; ->E0.11439  ;  fill Normal close
G1 X102.695 Y53.629 B0.325 ; ->L0.8862053937998752  ; ->E0.14129  ;  fill Normal close
G1 X102.255 Y54.069 B0.226 ; ->L0.6222539674441636  ; ->E0.09925  ;  fill Normal close
G1 X102.963 Y54.565 B0.088 ; ->L0.8644535846417625  ; ->E0.13787  ;  fill Normal close
G1 X102.59 Y54.937 B0.004 ; ->L0.5267950265520668  ; ->E0.0841  ;  fill Normal close
G1 X102.607 Y54.952 B0 ; ->L0.0221985663766445  ; ->E0.0035399940395355323  ; Closing last used nozzle Normal close
G1 X103.231 Y55.5 ; ->0.8309426880472587  ; Wipe
G1 X102.925 Y55.805 ; ->0.43204282195171145  ; Wipe
G1 X103.451 Y56.483 ; ->0.858114211512659  ; Wipe
G1 X103.499 Y56.435 ; ->0.06788225099390612  ; Wipe
G1 X104.571 Y60.113 F18000 ; ->3.8310400676578658  ;  move to first fill point
G1 X104.852 Y60.948 F900 ; ->0.8810141883080004  ; Wipe
G1 Z1.8 F18000 ;  move to next layer (8)
G1 X98.271 Y44.764 F18000 ; ->17.47087338973069  ;  move to first perimeter point
T0 ; Selecting nozzle 0
G1 B1.0 E1.4 F400 ; Open and replenish from extrusion
G1 X97.419 Y44.764 E0.06916 D0 F900 ; ->L0.8520000000000039 ->E0.06916 ->D0.0 ;  perimeter
G1 X97.424 Y43.693 E0.08698 D0 ; ->L1.0710116712716118 ->E0.08698 ->D0.0 ;  perimeter
G1 X100.224 Y43.693 E0.22741 D0 ; ->L2.799999999999997 ->E0.22741 ->D0.0 ;  perimeter
G1 X105.219 Y61.114 E1.47212 D0 ; ->L18.122948601152075 ->E1.47212 ->D0.0 ;  perimeter
G1 X104.611 Y61.178 E0.0497 D0 ; ->L0.6113591415853595 ->E0.0497 ->D0.0 ;  perimeter
G1 X98.314 Y44.875 E1.41955 D0 ; ->L17.47684233492996 ->E1.41955 ->D0.0 ;  perimeter
G1 X97.991 Y45.171 F18000 ; ->0.43811528163258046  ;  move to first perimeter point
G1 X97.01 Y45.171 E0.0797 D0 F900 ; ->L0.9809999999999945 ->E0.0797 ->D0.0 ;  perimeter
G1 X97.018 Y43.285 E0.15315 D0 ; ->L1.8860169670498754 ->E0.15315 ->D0.0 ;  perimeter
G1 X100.531 Y43.285 E0.28528 D0 ; ->L3.5130000000000052 ->E0.28528 ->D0.0 ;  perimeter
G1 X105.745 Y61.469 E1.53647 D0 ; ->L18.91675585294688 ->E1.53647 ->D0.0 ;  perimeter
G1 X104.343 Y61.616 E0.11446 D0 ; ->L1.4096854259018223 ->E0.11446 ->D0.0 ;  perimeter
G1 X98.035 Y45.283 E1.4222 D0 ; ->L17.508790734942263 ->E1.4222 ->D0.0 ;  perimeter
G1 X97.712 Y45.578 F18000 ; ->0.43744028163853027  ;  move to first perimeter point
G1 X96.601 Y45.578 E0.09024 D0 F900 ; ->L1.1110000000000042 ->E0.09024 ->D0.0 ;  perimeter
G1 X96.613 Y42.878 E0.21931 D0 ; ->L2.7000266665349835 ->E0.21931 ->D0.0 ;  perimeter
G1 X100.838 Y42.878 E0.34315 D0 ; ->L4.224999999999994 ->E0.34315 ->D0.0 ;  perimeter
G1 X106.27 Y61.823 E1.60083 D0 ; ->L19.708364949939405 ->E1.60083 ->D0.0 ;  perimeter
G1 X104.076 Y62.053 E0.17922 D0 ; ->L2.206022665341408 ->E0.17922 ->D0.0 ;  perimeter
G1 X97.755 Y45.69 E1.42484 D0 ; ->L17.541459745414574 ->E1.42484 ->D0.0 ;  perimeter
G1 X98.035 Y45.283 F1500 ; ->0.0  ; Move to start of wipe
G1 X101.682 Y54.725 B0 F1500 ; ->L0.0  ; ->E0.6000000238418579  ; Wipe - inwards end Normal close
G1 X97.967 Y44.4 F18000 ; ->0.5215985045990799  ;  move to first fill point
T1 ; Selecting nozzle 1
G1 B1.0 E0.6 F400 ; Open and replenish from extrusion
G1 X97.785 Y44.218 E0.04093 D0 F900 ; ->L0.25738686835190133 ->E0.04093 ->D0.0 ;  fill
G1 X99.915 Y44.056 F18000 ; ->2.1361516800077758  ;  move to first fill point
G1 X99.964 Y44.106 E0.01109 D0 F900 ; ->L0.07000714249274627 ->E0.01109 ->D0.0 ;  fill
G1 X98.769 Y44.056 E0.19079 D0 ; ->L1.1960455676938 ->E0.19079 ->D0.0 ;  fill
G1 X100.424 Y45.712 E0.37351 D0 ; ->L2.341230659290114 ->E0.37351 ->D0.0 ;  fill
G1 X98.868 Y45.302 E0.25673 D0 ; ->L1.6091103131855315 ->E0.25673 ->D0.0 ;  fill
G1 X100.885 Y47.318 E0.45499 D0 ; ->L2.8517617361904612 ->E0.45499 ->D0.0 ;  fill
G1 X99.589 Y47.168 E0.20808 D0 ; ->L1.3046516776519381 ->E0.20808 ->D0.0 ;  fill
G1 X101.346 Y48.924 E0.39624 D0 ; ->L2.4840662229497865 ->E0.39624 ->D0.0 ;  fill
G1 X100.31 Y49.035 E0.1661 D0 ; ->L1.0419294601843265 ->E0.1661 ->D0.0 ;  fill
G1 X101.456 Y50.181 E0.25847 D0 ; ->L1.6203014295880092 ->E0.25846999403953563 ->D0.0 ; Closing last used nozzle
G1 X101.806 Y50.531 B0.921 ; ->L0.49536205972213937  ; ->E0.07902000596046438  ; Closing last used nozzle Normal close
G1 X101.031 Y50.902 B0.784 ; ->L0.8592240685641833  ; ->E0.13705  ;  fill Normal close
G1 X102.267 Y52.137 B0.505 ; ->L1.7472609993930426  ; ->E0.27874  ;  fill Normal close
G1 X101.752 Y52.768 B0.375 ; ->L0.8144851134305654  ; ->E0.12992  ;  fill Normal close
G1 X102.727 Y53.743 B0.155 ; ->L1.3788582233137747  ; ->E0.21999  ;  fill Normal close
G1 X102.473 Y54.635 B0.007 ; ->L0.9274588939678109  ; ->E0.14791  ;  fill Normal close
G1 X102.506 Y54.668 B0 ; ->L0.046215584809946364  ; ->E0.007369994039535532  ; Closing last used nozzle Normal close
G1 X103.188 Y55.35 ; ->0.9649471122868214  ; Wipe
G1 X103.194 Y56.502 ; ->1.1520156248940385  ; Wipe
G1 X103.245 Y56.552 ; ->0.07142128534267578  ; Wipe
G1 X104.571 Y60.113 F18000 ; ->3.79986802402399  ;  move to first fill point
G1 X104.852 Y60.948 F900 ; ->0.8810141883080004  ; Wipe
G1 Z2 F18000 ;  move to next layer (9)
G1 X98.271 Y44.764 F18000 ; ->17.47087338973069  ;  move to first perimeter point
T0 ; Selecting nozzle 0
G1 B1.0 E1.4 F400 ; Open and replenish from extrusion
G1 X97.419 Y44.764 E0.06916 D0 F900 ; ->L0.8520000000000039 ->E0.06916 ->D0.0 ;  perimeter
G1 X97.424 Y43.693 E0.08698 D0 ; ->L1.0710116712716118 ->E0.08698 ->D0.0 ;  perimeter
G1 X100.224 Y43.693 E0.22741 D0 ; ->L2.799999999999997 ->E0.22741 ->D0.0 ;  perimeter
G1 X105.219 Y61.114 E1.47212 D0 ; ->L18.122948601152075 ->E1.47212 ->D0.0 ;  perimeter
G1 X104.611 Y61.178 E0.0497 D0 ; ->L0.6113591415853595 ->E0.0497 ->D0.0 ;  perimeter
G1 X98.314 Y44.875 E1.41955 D0 ; ->L17.47684233492996 ->E1.41955 ->D0.0 ;  perimeter
G1 X97.991 Y45.171 F18000 ; ->0.43811528163258046  ;  move to first perimeter point
G1 X97.01 Y45.171 E0.0797 D0 F900 ; ->L0.9809999999999945 ->E0.0797 ->D0.0 ;  perimeter
G1 X97.018 Y43.285 E0.15315 D0 ; ->L1.8860169670498754 ->E0.15315 ->D0.0 ;  perimeter
G1 X100.531 Y43.285 E0.28528 D0 ; ->L3.5130000000000052 ->E0.28528 ->D0.0 ;  perimeter
G1 X105.745 Y61.469 E1.53647 D0 ; ->L18.91675585294688 ->E1.53647 ->D0.0 ;  perimeter
G1 X104.343 Y61.616 E0.11446 D0 ; ->L1.4096854259018223 ->E0.11446 ->D0.0 ;  perimeter
G1 X98.035 Y45.283 E1.4222 D0 ; ->L17.508790734942263 ->E1.4222 ->D0.0 ;  perimeter
G1 X97.712 Y45.578 F18000 ; ->0.43744028163853027  ;  move to first perimeter point
G1 X96.601 Y45.578 E0.09024 D0 F900 ; ->L1.1110000000000042 ->E0.09024 ->D0.0 ;  perimeter
G1 X96.613 Y42.878 E0.21931 D0 ; ->L2.7000266665349835 ->E0.21931 ->D0.0 ;  perimeter
G1 X100.838 Y42.878 E0.34315 D0 ; ->L4.224999999999994 ->E0.34315 ->D0.0 ;  perimeter
G1 X106.27 Y61.823 E1.60083 D0 ; ->L19.708364949939405 ->E1.60083 ->D0.0 ;  perimeter
G1 X104.076 Y62.053 E0.17922 D0 ; ->L2.206022665341408 ->E0.17922 ->D0.0 ;  perimeter
G1 X97.755 Y45.69 E1.42484 D0 ; ->L17.541459745414574 ->E1.42484 ->D0.0 ;  perimeter
G1 X98.035 Y45.283 F1500 ; ->0.0  ; Move to start of wipe
G1 X101.682 Y54.725 B0 F1500 ; ->L0.0  ; ->E0.6000000238418579  ; Wipe - inwards end Normal close
G1 X97.786 Y44.096 F18000 ; ->0.7091741676062392  ;  move to first fill point
T1 ; Selecting nozzle 1
G1 B1.0 E0.6 F400 ; Open and replenish from extrusion
G1 X97.826 Y44.056 E0.00904 D0 F900 ; ->L0.05656854249491757 ->E0.00904 ->D0.0 ;  fill
G1 X99.029 Y44.056 E0.192 D0 ; ->L1.203000000000003 ->E0.192 ->D0.0 ;  fill
G1 X98.566 Y44.519 E0.10449 D0 ; ->L0.6547808793787393 ->E0.10449 ->D0.0 ;  fill
G1 X98.902 Y45.388 E0.14848 D0 ; ->L0.9316957657948214 ->E0.14848 ->D0.0 ;  fill
G1 X100.013 Y44.276 E0.2507 D0 ; ->L1.571898533621047 ->E0.2507 ->D0.0 ;  fill
G1 X100.281 Y45.212 E0.15523 D0 ; ->L0.9736118323027921 ->E0.15523 ->D0.0 ;  fill
G1 X99.237 Y46.256 E0.23556 D0 ; ->L1.4764389591175169 ->E0.23556 ->D0.0 ;  fill
G1 X99.572 Y47.124 E0.14848 D0 ; ->L0.9304026010281834 ->E0.14848 ->D0.0 ;  fill
G1 X100.549 Y46.147 E0.22041 D0 ; ->L1.3816866504385192 ->E0.22041 ->D0.0 ;  fill
G1 X100.817 Y47.082 E0.15523 D0 ; ->L0.9726505024930574 ->E0.15523 ->D0.0 ;  fill
G1 X99.908 Y47.992 E0.20527 D0 ; ->L1.2862274293452067 ->E0.20527 ->D0.0 ;  fill
G1 X100.243 Y48.86 E0.14848 D0 ; ->L0.9304026010281783 ->E0.14848 ->D0.0 ;  fill
G1 X101.086 Y48.018 E0.19012 D0 ; ->L1.1914751361232865 ->E0.19012 ->D0.0 ;  fill
G1 X101.354 Y48.953 E0.15523 D0 ; ->L0.9726505024930613 ->E0.15523 ->D0.0 ;  fill
G1 X100.578 Y49.728 E0.17498 D0 ; ->L1.0967228455722038 ->E0.17498 ->D0.0 ;  fill
G1 X100.914 Y50.597 E0.14848 D0 ; ->L0.9316957657948214 ->E0.14848 ->D0.0 ;  fill
G1 X101.622 Y49.888 E0.15983 D0 ; ->L1.0019705584496992 ->E0.15983 ->D0.0 ;  fill
G1 X101.89 Y50.823 E0.15523 D0 ; ->L0.9726505024930613 ->E0.15523 ->D0.0 ;  fill
G1 X101.249 Y51.465 E0.14469 D0 ; ->L0.907218275830029 ->E0.14469 ->D0.0 ;  fill
G1 X101.301 Y51.482 E0.00871 D0 ; ->L0.05456882006790523 ->E0.008709994039535651 ->D0.0 ; retract trigger
G1 X102.158 Y51.759 B0.856 ; ->L0.9007934148985023  ; ->E0.14378000596046434  ; retract trigger Normal close
G1 X101.584 Y52.333 B0.727 ; ->L0.8117585848021538  ; ->E0.12954  ;  fill Normal close
G1 X102.426 Y52.694 B0.58 ; ->L0.916124991472234  ; ->E0.14622  ;  fill Normal close
G1 X101.919 Y53.201 B0.466 ; ->L0.7170062761231613  ; ->E0.1144  ;  fill Normal close
G1 X102.695 Y53.629 B0.325 ; ->L0.8862053937998752  ; ->E0.1413  ;  fill Normal close
G1 X102.255 Y54.069 B0.226 ; ->L0.6222539674441636  ; ->E0.09925  ;  fill Normal close
G1 X102.963 Y54.565 B0.088 ; ->L0.8644535846417625  ; ->E0.13787  ;  fill Normal close
G1 X102.59 Y54.937 B0.004 ; ->L0.5267950265520668  ; ->E0.0841  ;  fill Normal close
G1 X102.607 Y54.952 B0 ; ->L0.0221985663766445  ; ->E0.0035399940395355323  ; retract trigger Normal close
G1 X103.231 Y55.5 ; ->0.8309426880472587  ; Wipe
G1 X102.925 Y55.805 ; ->0.43204282195171145  ; Wipe
G1 X103.451 Y56.483 ; ->0.858114211512659  ; Wipe
G1 X103.499 Y56.435 ; ->0.06788225099390612  ; Wipe
G1 X104.571 Y60.113 F18000 ; ->3.8310400676578658  ;  move to first fill point
G1 X104.852 Y60.948 F900 ; ->0.8810141883080004  ; Wipe
G1 X96.564 Y41.628 F18000 ; ->21.02268641254015  ;  move to first support material point
G1 B1.0 E1.4 F400 ; Open and replenish from extrusion
G1 X96.564 Y38.628 E1.43587 D0 F900 ; ->L3.0 ->E1.43587 ->D0.0 ;  support material
G1 X94.573 Y38.628 E0.95258 D0 ; ->L1.9909999999999997 ->E0.95258 ->D0.0 ;  support material
G1 X93.682 Y38.687 E0.42738 D0 ; ->L0.8929512864652718 ->E0.42738 ->D0.0 ;  support material
G1 X92.771 Y38.868 E0.44466 D0 ; ->L0.9288067613879671 ->E0.44466 ->D0.0 ;  support material
G1 X91.891 Y39.166 E0.44466 D0 ; ->L0.9290877245986995 ->E0.44466 ->D0.0 ;  support material
G1 X91.058 Y39.577 E0.44465 D0 ; ->L0.9288756644460002 ->E0.44465 ->D0.0 ;  support material
G1 X90.286 Y40.093 E0.44465 D0 ; ->L0.9285687912050534 ->E0.44465 ->D0.0 ;  support material
G1 X89.587 Y40.706 E0.44466 D0 ; ->L0.9297150100971785 ->E0.44466 ->D0.0 ;  support material
G1 X88.975 Y41.404 E0.44466 D0 ; ->L0.9283038295730615 ->E0.44466 ->D0.0 ;  support material
G1 X88.458 Y42.177 E0.44465 D0 ; ->L0.9299559129335055 ->E0.44465 ->D0.0 ;  support material
G1 X88.048 Y43.01 E0.44466 D0 ; ->L0.9284336271376616 ->E0.44466 ->D0.0 ;  support material
G1 X87.749 Y43.89 E0.44467 D0 ; ->L0.9294089519689427 ->E0.44467 ->D0.0 ;  support material
G1 X87.568 Y44.801 E0.44464 D0 ; ->L0.9288067613879657 ->E0.44464 ->D0.0 ;  support material
G1 X87.509 Y45.692 E0.42739 D0 ; ->L0.8929512864652789 ->E0.42739 ->D0.0 ;  support material
G1 X87.509 Y47.828 E1.02235 D0 ; ->L2.136000000000003 ->E1.02235 ->D0.0 ;  support material
G1 X95.709 Y47.828 E3.92472 D0 ; ->L8.200000000000003 ->E3.92472 ->D0.0 ;  support material
G1 X95.709 Y46.828 E0.47862 D0 ; ->L1.0 ->E0.47862 ->D0.0 ;  support material
G1 X97.396 Y46.828 E0.80722 D0 ; ->L1.6869999999999976 ->E0.80722 ->D0.0 ;  support material
G1 X97.396 Y46.703 E0.0597 D0 ; ->L0.125 ->E0.0597 ->D0.0 ;  support material
G1 X97.232 Y46.278 E0.2182 D0 ; ->L0.4555447288686415 ->E0.2182 ->D0.0 ;  support material
G1 X95.898 Y46.278 E0.63845 D0 ; ->L1.3340000000000032 ->E0.63845 ->D0.0 ;  support material
G1 X95.916 Y42.178 E1.96238 D0 ; ->L4.1000395120047335 ->E1.96238 ->D0.0 ;  support material
G1 X97.416 Y42.178 E0.71794 D0 ; ->L1.5 ->E0.71794 ->D0.0 ;  support material
G1 X97.418 Y41.628 E0.26325 D0 ; ->L0.5500036363516126 ->E0.26325 ->D0.0 ;  support material
G1 X96.564 Y41.628 E0.40911 D0 ; ->L0.8540000000000134 ->E0.40911 ->D0.0 ;  support material
G1 X89.236 Y42.417 F18000 ; ->7.370353112300648  ;  move to first support material point
G1 X95.135 Y42.417 E2.82337 D0 F900 ; ->L5.899000000000001 ->E2.82337 ->D0.0 ;  support material
G1 X95.121 Y45.717 E1.57947 D0 ; ->L3.3000296968360727 ->E1.57947 ->D0.0 ;  support material
G1 X88.309 Y45.717 E3.26006 D0 ; ->L6.811999999999998 ->E3.26006 ->D0.0 ;  support material
G1 X95.121 Y45.717 B0 F1500 ; ->L0.0  ; ->E0.9999999999999999  ; Wipe - reverse end Normal close
G1 Z2.2 F18000 ;  move to next layer (10)
G1 X98.271 Y44.764 F18000 ; ->10.007479852590265  ;  move to first perimeter point
G1 X98.271 Y44.764 F18000 ; ->10.007479852590265  ;  move to first perimeter point
T0 ; Selecting nozzle 0
G1 B1.0 E1 F400 ; Open and replenish from extrusion
G1 X97.419 Y44.764 E0.06916 D0 F900 ; ->L0.8520000000000039 ->E0.06916 ->D0.0 ;  perimeter
G1 X97.424 Y43.693 E0.08698 D0 ; ->L1.0710116712716118 ->E0.08698 ->D0.0 ;  perimeter
G1 X100.224 Y43.693 E0.22741 D0 ; ->L2.799999999999997 ->E0.22741 ->D0.0 ;  perimeter
G1 X105.219 Y61.114 E1.47212 D0 ; ->L18.122948601152075 ->E1.47212 ->D0.0 ;  perimeter
G1 X104.611 Y61.178 E0.0497 D0 ; ->L0.6113591415853595 ->E0.0497 ->D0.0 ;  perimeter
G1 X98.314 Y44.875 E1.41955 D0 ; ->L17.47684233492996 ->E1.41955 ->D0.0 ;  perimeter
G1 X97.991 Y45.171 F18000 ; ->0.43811528163258046  ;  move to first perimeter point
G1 X97.01 Y45.171 E0.0797 D0 F900 ; ->L0.9809999999999945 ->E0.0797 ->D0.0 ;  perimeter
G1 X97.018 Y43.285 E0.15315 D0 ; ->L1.8860169670498754 ->E0.15315 ->D0.0 ;  perimeter
G1 X100.531 Y43.285 E0.28528 D0 ; ->L3.5130000000000052 ->E0.28528 ->D0.0 ;  perimeter
G1 X105.745 Y61.469 E1.53647 D0 ; ->L18.91675585294688 ->E1.53647 ->D0.0 ;  perimeter
G1 X104.343 Y61.616 E0.11446 D0 ; ->L1.4096854259018223 ->E0.11446 ->D0.0 ;  perimeter
G1 X98.035 Y45.283 E1.4222 D0 ; ->L17.508790734942263 ->E1.4222 ->D0.0 ;  perimeter
G1 X97.712 Y45.578 F18000 ; ->0.43744028163853027  ;  move to first perimeter point
G1 X96.601 Y45.578 E0.09024 D0 F900 ; ->L1.1110000000000042 ->E0.09024 ->D0.0 ;  perimeter
G1 X96.613 Y42.878 E0.21931 D0 ; ->L2.7000266665349835 ->E0.21931 ->D0.0 ;  perimeter
G1 X100.838 Y42.878 E0.34315 D0 ; ->L4.224999999999994 ->E0.34315 ->D0.0 ;  perimeter
G1 X106.27 Y61.823 E1.60083 D0 ; ->L19.708364949939405 ->E1.60083 ->D0.0 ;  perimeter
G1 X104.076 Y62.053 E0.17922 D0 ; ->L2.206022665341408 ->E0.17922 ->D0.0 ;  perimeter
G1 X97.755 Y45.69 E1.42484 D0 ; ->L17.541459745414574 ->E1.42484 ->D0.0 ;  perimeter
G1 X98.035 Y45.283 F1500 ; ->0.0  ; Move to start of wipe
G1 X101.682 Y54.725 B0 F1500 ; ->L0.0  ; ->E0.6000000238418579  ; Wipe - inwards end Normal close
G1 X97.967 Y44.4 F18000 ; ->0.5215985045990799  ;  move to first fill point
T1 ; Selecting nozzle 1
G1 B1.0 E0.6 F400 ; Open and replenish from extrusion
G1 X97.785 Y44.218 E0.04093 D0 F900 ; ->L0.25738686835190133 ->E0.04093 ->D0.0 ;  fill
G1 X99.915 Y44.056 F18000 ; ->2.1361516800077758  ;  move to first fill point
G1 X99.964 Y44.106 E0.01109 D0 F900 ; ->L0.07000714249274627 ->E0.01109 ->D0.0 ;  fill
G1 X98.769 Y44.056 E0.19079 D0 ; ->L1.1960455676938 ->E0.19079 ->D0.0 ;  fill
G1 X100.424 Y45.712 E0.37351 D0 ; ->L2.341230659290114 ->E0.37351 ->D0.0 ;  fill
G1 X98.868 Y45.302 E0.25673 D0 ; ->L1.6091103131855315 ->E0.25673 ->D0.0 ;  fill
G1 X100.885 Y47.318 E0.45499 D0 ; ->L2.8517617361904612 ->E0.45499 ->D0.0 ;  fill
G1 X99.589 Y47.168 E0.20808 D0 ; ->L1.3046516776519381 ->E0.20808 ->D0.0 ;  fill
G1 X101.346 Y48.924 E0.39624 D0 ; ->L2.4840662229497865 ->E0.39624 ->D0.0 ;  fill
G1 X100.31 Y49.035 E0.1661 D0 ; ->L1.0419294601843265 ->E0.1661 ->D0.0 ;  fill
G1 X101.456 Y50.181 E0.25847 D0 ; ->L1.6203014295880092 ->E0.25846999403953563 ->D0.0 ; Closing last used nozzle
G1 X101.806 Y50.531 B0.921 ; ->L0.49536205972213937  ; ->E0.07902000596046438  ; Closing last used nozzle Normal close
G1 X101.031 Y50.902 B0.784 ; ->L0.8592240685641833  ; ->E0.13705  ;  fill Normal close
G1 X102.267 Y52.137 B0.505 ; ->L1.7472609993930426  ; ->E0.27874  ;  fill Normal close
G1 X101.752 Y52.768 B0.375 ; ->L0.8144851134305654  ; ->E0.12992  ;  fill Normal close
G1 X102.727 Y53.743 B0.155 ; ->L1.3788582233137747  ; ->E0.22  ;  fill Normal close
G1 X102.473 Y54.635 B0.007 ; ->L0.9274588939678109  ; ->E0.14791  ;  fill Normal close
G1 X102.506 Y54.668 B0 ; ->L0.046152877045785266  ; ->E0.007359994039535523  ; Closing last used nozzle Normal close
G1 X103.188 Y55.35 ; ->0.9650098200509825  ; Wipe
G1 X103.194 Y56.502 ; ->1.1520156248940385  ; Wipe
G1 X103.245 Y56.552 ; ->0.07142128534267578  ; Wipe
G1 X104.571 Y60.113 F18000 ; ->3.79986802402399  ;  move to first fill point
G1 X104.852 Y60.948 F900 ; ->0.8810141883080004  ; Wipe
G1 Z2.4 F18000 ;  move to next layer (11)
G1 X98.271 Y44.764 F18000 ; ->17.47087338973069  ;  move to first perimeter point
T0 ; Selecting nozzle 0
G1 B1.0 E1.4 F400 ; Open and replenish from extrusion
G1 X97.419 Y44.764 E0.06916 D0 F900 ; ->L0.8520000000000039 ->E0.06916 ->D0.0 ;  perimeter
G1 X97.424 Y43.693 E0.08698 D0 ; ->L1.0710116712716118 ->E0.08698 ->D0.0 ;  perimeter
G1 X100.224 Y43.693 E0.22741 D0 ; ->L2.799999999999997 ->E0.22741 ->D0.0 ;  perimeter
G1 X105.219 Y61.114 E1.47212 D0 ; ->L18.122948601152075 ->E1.47212 ->D0.0 ;  perimeter
G1 X104.611 Y61.178 E0.0497 D0 ; ->L0.6113591415853595 ->E0.0497 ->D0.0 ;  perimeter
G1 X98.314 Y44.875 E1.41955 D0 ; ->L17.47684233492996 ->E1.41955 ->D0.0 ;  perimeter
G1 X97.991 Y45.171 F18000 ; ->0.43811528163258046  ;  move to first perimeter point
G1 X97.01 Y45.171 E0.0797 D0 F900 ; ->L0.9809999999999945 ->E0.0797 ->D0.0 ;  perimeter
G1 X97.018 Y43.285 E0.15315 D0 ; ->L1.8860169670498754 ->E0.15315 ->D0.0 ;  perimeter
G1 X100.531 Y43.285 E0.28528 D0 ; ->L3.5130000000000052 ->E0.28528 ->D0.0 ;  perimeter
G1 X105.745 Y61.469 E1.53647 D0 ; ->L18.91675585294688 ->E1.53647 ->D0.0 ;  perimeter
G1 X104.343 Y61.616 E0.11446 D0 ; ->L1.4096854259018223 ->E0.11446 ->D0.0 ;  perimeter
G1 X98.035 Y45.283 E1.4222 D0 ; ->L17.508790734942263 ->E1.4222 ->D0.0 ;  perimeter
G1 X97.712 Y45.578 F18000 ; ->0.43744028163853027  ;  move to first perimeter point
G1 X96.601 Y45.578 E0.09024 D0 F900 ; ->L1.1110000000000042 ->E0.09024 ->D0.0 ;  perimeter
G1 X96.613 Y42.878 E0.21931 D0 ; ->L2.7000266665349835 ->E0.21931 ->D0.0 ;  perimeter
G1 X100.838 Y42.878 E0.34315 D0 ; ->L4.224999999999994 ->E0.34315 ->D0.0 ;  perimeter
G1 X106.27 Y61.823 E1.60083 D0 ; ->L19.708364949939405 ->E1.60083 ->D0.0 ;  perimeter
G1 X104.076 Y62.053 E0.17922 D0 ; ->L2.206022665341408 ->E0.17922 ->D0.0 ;  perimeter
G1 X97.755 Y45.69 E1.42484 D0 ; ->L17.541459745414574 ->E1.42484 ->D0.0 ;  perimeter
G1 X98.035 Y45.283 F1500 ; ->0.0  ; Move to start of wipe
G1 X101.682 Y54.725 B0 F1500 ; ->L0.0  ; ->E0.6000000238418579  ; Wipe - inwards end Normal close
G1 X97.786 Y44.096 F18000 ; ->0.7091741676062392  ;  move to first fill point
T1 ; Selecting nozzle 1
G1 B1.0 E0.6 F400 ; Open and replenish from extrusion
G1 X97.826 Y44.056 E0.00904 D0 F900 ; ->L0.05656854249491757 ->E0.00904 ->D0.0 ;  fill
G1 X99.029 Y44.056 E0.192 D0 ; ->L1.203000000000003 ->E0.192 ->D0.0 ;  fill
G1 X98.566 Y44.519 E0.10449 D0 ; ->L0.6547808793787393 ->E0.10449 ->D0.0 ;  fill
G1 X98.902 Y45.388 E0.14848 D0 ; ->L0.9316957657948214 ->E0.14848 ->D0.0 ;  fill
G1 X100.013 Y44.276 E0.2507 D0 ; ->L1.571898533621047 ->E0.2507 ->D0.0 ;  fill
G1 X100.281 Y45.212 E0.15523 D0 ; ->L0.9736118323027921 ->E0.15523 ->D0.0 ;  fill
G1 X99.237 Y46.256 E0.23556 D0 ; ->L1.4764389591175169 ->E0.23556 ->D0.0 ;  fill
G1 X99.572 Y47.124 E0.14848 D0 ; ->L0.9304026010281834 ->E0.14848 ->D0.0 ;  fill
G1 X100.549 Y46.147 E0.22041 D0 ; ->L1.3816866504385192 ->E0.22041 ->D0.0 ;  fill
G1 X100.817 Y47.082 E0.15523 D0 ; ->L0.9726505024930574 ->E0.15523 ->D0.0 ;  fill
G1 X99.908 Y47.992 E0.20527 D0 ; ->L1.2862274293452067 ->E0.20527 ->D0.0 ;  fill
G1 X100.243 Y48.86 E0.14848 D0 ; ->L0.9304026010281783 ->E0.14848 ->D0.0 ;  fill
G1 X101.086 Y48.018 E0.19012 D0 ; ->L1.1914751361232865 ->E0.19012 ->D0.0 ;  fill
G1 X101.354 Y48.953 E0.15523 D0 ; ->L0.9726505024930613 ->E0.15523 ->D0.0 ;  fill
G1 X100.578 Y49.728 E0.17498 D0 ; ->L1.0967228455722038 ->E0.17498 ->D0.0 ;  fill
G1 X100.914 Y50.597 E0.14848 D0 ; ->L0.9316957657948214 ->E0.14848 ->D0.0 ;  fill
G1 X101.622 Y49.888 E0.15983 D0 ; ->L1.0019705584496992 ->E0.15983 ->D0.0 ;  fill
G1 X101.89 Y50.823 E0.15523 D0 ; ->L0.9726505024930613 ->E0.15523 ->D0.0 ;  fill
G1 X101.249 Y51.465 E0.14469 D0 ; ->L0.907218275830029 ->E0.14469 ->D0.0 ;  fill
G1 X101.301 Y51.482 E0.00871 D0 ; ->L0.05456882006790523 ->E0.008709994039535651 ->D0.0 ; Closing last used nozzle
G1 X102.158 Y51.759 B0.856 ; ->L0.9007934148985023  ; ->E0.14378000596046434  ; Closing last used nozzle Normal close
G1 X101.584 Y52.333 B0.727 ; ->L0.8117585848021538  ; ->E0.12954  ;  fill Normal close
G1 X102.426 Y52.694 B0.58 ; ->L0.916124991472234  ; ->E0.14622  ;  fill Normal close
G1 X101.919 Y53.201 B0.466 ; ->L0.7170062761231613  ; ->E0.1144  ;  fill Normal close
G1 X102.695 Y53.629 B0.325 ; ->L0.8862053937998752  ; ->E0.1413  ;  fill Normal close
G1 X102.255 Y54.069 B0.226 ; ->L0.6222539674441636  ; ->E0.09925  ;  fill Normal close
G1 X102.963 Y54.565 B0.088 ; ->L0.8644535846417625  ; ->E0.13787  ;  fill Normal close
G1 X102.59 Y54.937 B0.004 ; ->L0.5267950265520668  ; ->E0.0841  ;  fill Normal close
G1 X102.607 Y54.952 B0 ; ->L0.0221985663766445  ; ->E0.0035399940395355323  ; Closing last used nozzle Normal close
G1 X103.231 Y55.5 ; ->0.8309426880472587  ; Wipe
G1 X102.925 Y55.805 ; ->0.43204282195171145  ; Wipe
G1 X103.451 Y56.483 ; ->0.858114211512659  ; Wipe
G1 X103.499 Y56.435 ; ->0.06788225099390612  ; Wipe
G1 X104.571 Y60.113 F18000 ; ->3.8310400676578658  ;  move to first fill point
G1 X104.852 Y60.948 F900 ; ->0.8810141883080004  ; Wipe
G1 Z2.6 F18000 ;  move to next layer (12)
G1 X98.271 Y44.764 F18000 ; ->17.47087338973069  ;  move to first perimeter point
T0 ; Selecting nozzle 0
G1 B1.0 E1.4 F400 ; Open and replenish from extrusion
G1 X97.419 Y44.764 E0.06916 D0 F900 ; ->L0.8520000000000039 ->E0.06916 ->D0.0 ;  perimeter
G1 X97.424 Y43.693 E0.08698 D0 ; ->L1.0710116712716118 ->E0.08698 ->D0.0 ;  perimeter
G1 X100.224 Y43.693 E0.22741 D0 ; ->L2.799999999999997 ->E0.22741 ->D0.0 ;  perimeter
G1 X105.219 Y61.114 E1.47212 D0 ; ->L18.122948601152075 ->E1.47212 ->D0.0 ;  perimeter
G1 X104.611 Y61.178 E0.0497 D0 ; ->L0.6113591415853595 ->E0.0497 ->D0.0 ;  perimeter
G1 X98.314 Y44.875 E1.41955 D0 ; ->L17.47684233492996 ->E1.41955 ->D0.0 ;  perimeter
G1 X97.991 Y45.171 F18000 ; ->0.43811528163258046  ;  move to first perimeter point
G1 X97.01 Y45.171 E0.0797 D0 F900 ; ->L0.9809999999999945 ->E0.0797 ->D0.0 ;  perimeter
G1 X97.018 Y43.285 E0.15315 D0 ; ->L1.8860169670498754 ->E0.15315 ->D0.0 ;  perimeter
G1 X100.531 Y43.285 E0.28528 D0 ; ->L3.5130000000000052 ->E0.28528 ->D0.0 ;  perimeter
G1 X105.745 Y61.469 E1.53647 D0 ; ->L18.91675585294688 ->E1.53647 ->D0.0 ;  perimeter
G1 X104.343 Y61.616 E0.11446 D0 ; ->L1.4096854259018223 ->E0.11446 ->D0.0 ;  perimeter
G1 X98.035 Y45.283 E1.4222 D0 ; ->L17.508790734942263 ->E1.4222 ->D0.0 ;  perimeter
G1 X97.712 Y45.578 F18000 ; ->0.43744028163853027  ;  move to first perimeter point
G1 X96.601 Y45.578 E0.09024 D0 F900 ; ->L1.1110000000000042 ->E0.09024 ->D0.0 ;  perimeter
G1 X96.613 Y42.878 E0.21931 D0 ; ->L2.7000266665349835 ->E0.21931 ->D0.0 ;  perimeter
G1 X100.838 Y42.878 E0.34315 D0 ; ->L4.224999999999994 ->E0.34315 ->D0.0 ;  perimeter
G1 X106.27 Y61.823 E1.60083 D0 ; ->L19.708364949939405 ->E1.60083 ->D0.0 ;  perimeter
G1 X104.076 Y62.053 E0.17922 D0 ; ->L2.206022665341408 ->E0.17922 ->D0.0 ;  perimeter
G1 X97.755 Y45.69 E1.42484 D0 ; ->L17.541459745414574 ->E1.42484 ->D0.0 ;  perimeter
G1 X98.035 Y45.283 F1500 ; ->0.0  ; Move to start of wipe
G1 X101.682 Y54.725 B0 F1500 ; ->L0.0  ; ->E0.6000000238418579  ; Wipe - inwards end Normal close
G1 X97.967 Y44.4 F18000 ; ->0.5215985045990799  ;  move to first fill point
T1 ; Selecting nozzle 1
G1 B1.0 E0.6 F400 ; Open and replenish from extrusion
G1 X97.785 Y44.218 E0.04093 D0 F900 ; ->L0.25738686835190133 ->E0.04093 ->D0.0 ;  fill
G1 X99.915 Y44.056 F18000 ; ->2.1361516800077758  ;  move to first fill point
G1 X99.964 Y44.106 E0.01109 D0 F900 ; ->L0.07000714249274627 ->E0.01109 ->D0.0 ;  fill
G1 X98.769 Y44.056 E0.19079 D0 ; ->L1.1960455676938 ->E0.19079 ->D0.0 ;  fill
G1 X100.424 Y45.712 E0.37351 D0 ; ->L2.341230659290114 ->E0.37351 ->D0.0 ;  fill
G1 X98.868 Y45.302 E0.25673 D0 ; ->L1.6091103131855315 ->E0.25673 ->D0.0 ;  fill
G1 X100.885 Y47.318 E0.45499 D0 ; ->L2.8517617361904612 ->E0.45499 ->D0.0 ;  fill
G1 X99.589 Y47.168 E0.20808 D0 ; ->L1.3046516776519381 ->E0.20808 ->D0.0 ;  fill
G1 X101.346 Y48.924 E0.39624 D0 ; ->L2.4840662229497865 ->E0.39624 ->D0.0 ;  fill
G1 X100.31 Y49.035 E0.1661 D0 ; ->L1.0419294601843265 ->E0.1661 ->D0.0 ;  fill
G1 X101.456 Y50.181 E0.25848 D0 ; ->L1.6203641177710464 ->E0.2584799940395357 ->D0.0 ; Closing last used nozzle
G1 X101.806 Y50.531 B0.921 ; ->L0.49529937153910214  ; ->E0.07901000596046431  ; Closing last used nozzle Normal close
G1 X101.031 Y50.902 B0.784 ; ->L0.8592240685641833  ; ->E0.13705  ;  fill Normal close
G1 X102.267 Y52.137 B0.505 ; ->L1.7472609993930426  ; ->E0.27874  ;  fill Normal close
G1 X101.752 Y52.768 B0.375 ; ->L0.8144851134305654  ; ->E0.12992  ;  fill Normal close
G1 X102.727 Y53.743 B0.155 ; ->L1.3788582233137747  ; ->E0.22  ;  fill Normal close
G1 X102.473 Y54.635 B0.007 ; ->L0.9274588939678109  ; ->E0.14791  ;  fill Normal close
G1 X102.506 Y54.668 B0 ; ->L0.046215584809946364  ; ->E0.007369994039535532  ; Closing last used nozzle Normal close
G1 X103.188 Y55.35 ; ->0.9649471122868214  ; Wipe
G1 X103.194 Y56.502 ; ->1.1520156248940385  ; Wipe
G1 X103.245 Y56.552 ; ->0.07142128534267578  ; Wipe
G1 X104.571 Y60.113 F18000 ; ->3.79986802402399  ;  move to first fill point
G1 X104.852 Y60.948 F900 ; ->0.8810141883080004  ; Wipe
G1 Z2.8 F18000 ;  move to next layer (13)
G1 X98.271 Y44.764 F18000 ; ->17.47087338973069  ;  move to first perimeter point
T0 ; Selecting nozzle 0
G1 B1.0 E1.4 F400 ; Open and replenish from extrusion
G1 X97.419 Y44.764 E0.06916 D0 F900 ; ->L0.8520000000000039 ->E0.06916 ->D0.0 ;  perimeter
G1 X97.424 Y43.693 E0.08698 D0 ; ->L1.0710116712716118 ->E0.08698 ->D0.0 ;  perimeter
G1 X100.224 Y43.693 E0.22741 D0 ; ->L2.799999999999997 ->E0.22741 ->D0.0 ;  perimeter
G1 X105.219 Y61.114 E1.47212 D0 ; ->L18.122948601152075 ->E1.47212 ->D0.0 ;  perimeter
G1 X104.611 Y61.178 E0.0497 D0 ; ->L0.6113591415853595 ->E0.0497 ->D0.0 ;  perimeter
G1 X98.314 Y44.875 E1.41955 D0 ; ->L17.47684233492996 ->E1.41955 ->D0.0 ;  perimeter
G1 X97.991 Y45.171 F18000 ; ->0.43811528163258046  ;  move to first perimeter point
G1 X97.01 Y45.171 E0.0797 D0 F900 ; ->L0.9809999999999945 ->E0.0797 ->D0.0 ;  perimeter
G1 X97.018 Y43.285 E0.15315 D0 ; ->L1.8860169670498754 ->E0.15315 ->D0.0 ;  perimeter
G1 X100.531 Y43.285 E0.28528 D0 ; ->L3.5130000000000052 ->E0.28528 ->D0.0 ;  perimeter
G1 X105.745 Y61.469 E1.53647 D0 ; ->L18.91675585294688 ->E1.53647 ->D0.0 ;  perimeter
G1 X104.343 Y61.616 E0.11446 D0 ; ->L1.4096854259018223 ->E0.11446 ->D0.0 ;  perimeter
G1 X98.035 Y45.283 E1.4222 D0 ; ->L17.508790734942263 ->E1.4222 ->D0.0 ;  perimeter
G1 X97.712 Y45.578 F18000 ; ->0.43744028163853027  ;  move to first perimeter point
G1 X96.601 Y45.578 E0.09024 D0 F900 ; ->L1.1110000000000042 ->E0.09024 ->D0.0 ;  perimeter
G1 X96.613 Y42.878 E0.21931 D0 ; ->L2.7000266665349835 ->E0.21931 ->D0.0 ;  perimeter
G1 X100.838 Y42.878 E0.34315 D0 ; ->L4.224999999999994 ->E0.34315 ->D0.0 ;  perimeter
G1 X106.27 Y61.823 E1.60083 D0 ; ->L19.708364949939405 ->E1.60083 ->D0.0 ;  perimeter
G1 X104.076 Y62.053 E0.17922 D0 ; ->L2.206022665341408 ->E0.17922 ->D0.0 ;  perimeter
G1 X97.755 Y45.69 E1.42484 D0 ; ->L17.541459745414574 ->E1.42484 ->D0.0 ;  perimeter
G1 X98.035 Y45.283 F1500 ; ->0.0  ; Move to start of wipe
G1 X101.682 Y54.725 B0 F1500 ; ->L0.0  ; ->E0.6000000238418579  ; Wipe - inwards end Normal close
G1 X97.786 Y44.096 F18000 ; ->0.7091741676062392  ;  move to first fill point
T1 ; Selecting nozzle 1
G1 B1.0 E0.6 F400 ; Open and replenish from extrusion
G1 X97.826 Y44.056 E0.00904 D0 F900 ; ->L0.05656854249491757 ->E0.00904 ->D0.0 ;  fill
G1 X99.029 Y44.056 E0.192 D0 ; ->L1.203000000000003 ->E0.192 ->D0.0 ;  fill
G1 X98.566 Y44.519 E0.10449 D0 ; ->L0.6547808793787393 ->E0.10449 ->D0.0 ;  fill
G1 X98.902 Y45.388 E0.14848 D0 ; ->L0.9316957657948214 ->E0.14848 ->D0.0 ;  fill
G1 X100.013 Y44.276 E0.2507 D0 ; ->L1.571898533621047 ->E0.2507 ->D0.0 ;  fill
G1 X100.281 Y45.212 E0.15523 D0 ; ->L0.9736118323027921 ->E0.15523 ->D0.0 ;  fill
G1 X99.237 Y46.256 E0.23556 D0 ; ->L1.4764389591175169 ->E0.23556 ->D0.0 ;  fill
G1 X99.572 Y47.124 E0.14848 D0 ; ->L0.9304026010281834 ->E0.14848 ->D0.0 ;  fill
G1 X100.549 Y46.147 E0.22041 D0 ; ->L1.3816866504385192 ->E0.22041 ->D0.0 ;  fill
G1 X100.817 Y47.082 E0.15523 D0 ; ->L0.9726505024930574 ->E0.15523 ->D0.0 ;  fill
G1 X99.908 Y47.992 E0.20527 D0 ; ->L1.2862274293452067 ->E0.20527 ->D0.0 ;  fill
G1 X100.243 Y48.86 E0.14848 D0 ; ->L0.9304026010281783 ->E0.14848 ->D0.0 ;  fill
G1 X101.086 Y48.018 E0.19012 D0 ; ->L1.1914751361232865 ->E0.19012 ->D0.0 ;  fill
G1 X101.354 Y48.953 E0.15523 D0 ; ->L0.9726505024930613 ->E0.15523 ->D0.0 ;  fill
G1 X100.578 Y49.728 E0.17498 D0 ; ->L1.0967228455722038 ->E0.17498 ->D0.0 ;  fill
G1 X100.914 Y50.597 E0.14848 D0 ; ->L0.9316957657948214 ->E0.14848 ->D0.0 ;  fill
G1 X101.622 Y49.888 E0.15983 D0 ; ->L1.0019705584496992 ->E0.15983 ->D0.0 ;  fill
G1 X101.89 Y50.823 E0.15523 D0 ; ->L0.9726505024930613 ->E0.15523 ->D0.0 ;  fill
G1 X101.249 Y51.465 E0.14469 D0 ; ->L0.907218275830029 ->E0.14469 ->D0.0 ;  fill
G1 X101.301 Y51.482 E0.0087 D0 ; ->L0.05450616925572261 ->E0.008699994039535586 ->D0.0 ; Closing last used nozzle
G1 X102.158 Y51.759 B0.856 ; ->L0.9008560657106849  ; ->E0.1437900059604644  ; Closing last used nozzle Normal close
G1 X101.584 Y52.333 B0.727 ; ->L0.8117585848021538  ; ->E0.12954  ;  fill Normal close
G1 X102.426 Y52.694 B0.58 ; ->L0.916124991472234  ; ->E0.14622  ;  fill Normal close
G1 X101.919 Y53.201 B0.466 ; ->L0.7170062761231613  ; ->E0.1144  ;  fill Normal close
G1 X102.695 Y53.629 B0.325 ; ->L0.8862053937998752  ; ->E0.14129  ;  fill Normal close
G1 X102.255 Y54.069 B0.226 ; ->L0.6222539674441636  ; ->E0.09925  ;  fill Normal close
G1 X102.963 Y54.565 B0.088 ; ->L0.8644535846417625  ; ->E0.13787  ;  fill Normal close
G1 X102.59 Y54.937 B0.004 ; ->L0.5267950265520668  ; ->E0.0841  ;  fill Normal close
G1 X102.607 Y54.952 B0 ; ->L0.0221985663766445  ; ->E0.0035399940395355323  ; Closing last used nozzle Normal close
G1 X103.231 Y55.5 ; ->0.8309426880472587  ; Wipe
G1 X102.925 Y55.805 ; ->0.43204282195171145  ; Wipe
G1 X103.451 Y56.483 ; ->0.858114211512659  ; Wipe
G1 X103.499 Y56.435 ; ->0.06788225099390612  ; Wipe
G1 X104.571 Y60.113 F18000 ; ->3.8310400676578658  ;  move to first fill point
G1 X104.852 Y60.948 F900 ; ->0.8810141883080004  ; Wipe
G1 Z3 F18000 ;  move to next layer (14)
G1 X98.271 Y44.764 F18000 ; ->17.47087338973069  ;  move to first perimeter point
T0 ; Selecting nozzle 0
G1 B1.0 E1.4 F400 ; Open and replenish from extrusion
G1 X97.419 Y44.764 E0.06916 D0 F900 ; ->L0.8520000000000039 ->E0.06916 ->D0.0 ;  perimeter
G1 X97.424 Y43.693 E0.08698 D0 ; ->L1.0710116712716118 ->E0.08698 ->D0.0 ;  perimeter
G1 X100.224 Y43.693 E0.22741 D0 ; ->L2.799999999999997 ->E0.22741 ->D0.0 ;  perimeter
G1 X105.219 Y61.114 E1.47212 D0 ; ->L18.122948601152075 ->E1.47212 ->D0.0 ;  perimeter
G1 X104.611 Y61.178 E0.0497 D0 ; ->L0.6113591415853595 ->E0.0497 ->D0.0 ;  perimeter
G1 X98.314 Y44.875 E1.41955 D0 ; ->L17.47684233492996 ->E1.41955 ->D0.0 ;  perimeter
G1 X97.991 Y45.171 F18000 ; ->0.43811528163258046  ;  move to first perimeter point
G1 X97.01 Y45.171 E0.0797 D0 F900 ; ->L0.9809999999999945 ->E0.0797 ->D0.0 ;  perimeter
G1 X97.018 Y43.285 E0.15315 D0 ; ->L1.8860169670498754 ->E0.15315 ->D0.0 ;  perimeter
G1 X100.531 Y43.285 E0.28528 D0 ; ->L3.5130000000000052 ->E0.28528 ->D0.0 ;  perimeter
G1 X105.745 Y61.469 E1.53647 D0 ; ->L18.91675585294688 ->E1.53647 ->D0.0 ;  perimeter
G1 X104.343 Y61.616 E0.11446 D0 ; ->L1.4096854259018223 ->E0.11446 ->D0.0 ;  perimeter
G1 X98.035 Y45.283 E1.4222 D0 ; ->L17.508790734942263 ->E1.4222 ->D0.0 ;  perimeter
G1 X97.712 Y45.578 F18000 ; ->0.43744028163853027  ;  move to first perimeter point
G1 X96.601 Y45.578 E0.09024 D0 F900 ; ->L1.1110000000000042 ->E0.09024 ->D0.0 ;  perimeter
G1 X96.613 Y42.878 E0.21931 D0 ; ->L2.7000266665349835 ->E0.21931 ->D0.0 ;  perimeter
G1 X100.838 Y42.878 E0.34315 D0 ; ->L4.224999999999994 ->E0.34315 ->D0.0 ;  perimeter
G1 X106.27 Y61.823 E1.60083 D0 ; ->L19.708364949939405 ->E1.60083 ->D0.0 ;  perimeter
G1 X104.076 Y62.053 E0.17922 D0 ; ->L2.206022665341408 ->E0.17922 ->D0.0 ;  perimeter
G1 X97.755 Y45.69 E1.42484 D0 ; ->L17.541459745414574 ->E1.42484 ->D0.0 ;  perimeter
G1 X98.035 Y45.283 F1500 ; ->0.0  ; Move to start of wipe
G1 X101.682 Y54.725 B0 F1500 ; ->L0.0  ; ->E0.6000000238418579  ; Wipe - inwards end Normal close
G1 X99.915 Y44.056 F18000 ; ->2.413417701103564  ;  move to first fill point
T1 ; Selecting nozzle 1
G1 B1.0 E0.6 F400 ; Open and replenish from extrusion
G1 X99.964 Y44.106 E0.01109 D0 F900 ; ->L0.07000714249274627 ->E0.01109 ->D0.0 ;  fill
G1 X98.665 Y44.056 E0.20729 D0 ; ->L1.2999619225192638 ->E0.20729 ->D0.0 ;  fill
G1 X100.466 Y45.857 E0.40624 D0 ; ->L2.546998625833937 ->E0.40624 ->D0.0 ;  fill
G1 X98.999 Y45.639 E0.23668 D0 ; ->L1.4831092340080667 ->E0.23668 ->D0.0 ;  fill
G1 X100.968 Y47.608 E0.44438 D0 ; ->L2.784586504312626 ->E0.44438 ->D0.0 ;  fill
G1 X99.785 Y47.674 E0.1891 D0 ; ->L1.1848396515984838 ->E0.1891 ->D0.0 ;  fill
G1 X101.47 Y49.36 E0.38032 D0 ; ->L2.3836570642607144 ->E0.38032 ->D0.0 ;  fill
G1 X100.571 Y49.709 E0.15397 D0 ; ->L0.964366113050435 ->E0.15397 ->D0.0 ;  fill
G1 X101.973 Y51.111 E0.31627 D0 ; ->L1.9827274144470757 ->E0.31627 ->D0.0 ;  fill
G1 X101.852 Y51.235 E0.02765 D0 ; ->L0.1732800001145165 ->E0.027649994039535608 ->D0.0 ; retract trigger
G1 X101.357 Y51.744 B0.887 ; ->L0.7099781727885158  ; ->E0.1132900059604644  ; retract trigger Normal close
G1 X102.475 Y52.862 B0.634 ; ->L1.581090762733118  ; ->E0.25221  ;  fill Normal close
G1 X102.143 Y53.78 B0.479 ; ->L0.9761905551684028  ; ->E0.15564  ;  fill Normal close
G1 X102.977 Y54.614 B0.291 ; ->L1.1794541110191608  ; ->E0.18816  ;  fill Normal close
G1 X102.929 Y55.815 B0.099 ; ->L1.2019588179301324  ; ->E0.19181  ;  fill Normal close
G1 X102.98 Y55.866 B0.087 ; ->L0.07212489168103059  ; ->E0.01144  ;  fill Normal close
G1 X103.244 Y56.161 F18000 ; ->0.3958800323330273  ;  move to first fill point
G1 X103.51 Y56.953 B0 F900 ; ->L0.8350667628410524  ; ->E0.08744999403953552  ; retract trigger Normal close
G1 X104.571 Y60.113 F900 ; ->3.3337739633081225  ; Wipe
G1 X104.571 Y60.113 F18000 ; ->0.0  ;  move to first fill point
G1 X104.852 Y60.948 F900 ; ->0.8810141883080004  ; Wipe
G1 Z3.2 F18000 ;  move to next layer (15)
G1 X94.499 Y43.693 F18000 ; ->20.12261498911114  ;  move to first perimeter point
M106 S255 ;  enable fan
G1 X94.499 Y43.693 F18000 ; ->20.12261498911114  ;  move to first perimeter point
M106 S255 ;  enable fan
T0 ; Selecting nozzle 0
G1 B1.0 E1.4 F400 ; Open and replenish from extrusion
G1 X96.059 Y43.693 E0.78211 D0 F1500 ; ->L1.5600000000000023 ->E0.78211 ->D0.0 ;  perimeter
M106 S255 ;  enable fan
G1 X100.224 Y43.693 E0.33825 D0 F1005.732 ; ->L4.165000000000006 ->E0.33825 ->D0.0 ;  perimeter
G1 X105.219 Y61.114 E1.47212 D0 ; ->L18.122948601152075 ->E1.47212 ->D0.0 ;  perimeter
G1 X104.611 Y61.178 E0.0497 D0 ; ->L0.6113591415853595 ->E0.0497 ->D0.0 ;  perimeter
G1 X98.271 Y44.764 E1.4293 D0 ; ->L17.595880085974667 ->E1.4293 ->D0.0 ;  perimeter
G1 X96.055 Y44.764 E0.18 D0 ; ->L2.215999999999994 ->E0.18 ->D0.0 ;  perimeter
M106 S255 ;  enable fan
G1 X93.645 Y44.764 E1.20795 D0 F1500 ; ->L2.410000000000011 ->E1.20795 ->D0.0 ;  perimeter
G1 X93.645 Y45.764 E0.50121 D0 ; ->L1.0 ->E0.50121 ->D0.0 ;  perimeter
G1 X89.574 Y45.764 E2.04047 D0 ; ->L4.070999999999998 ->E2.04047 ->D0.0 ;  perimeter
G1 X89.619 Y45.071 E0.34778 D0 ; ->L0.6944595020589804 ->E0.34778 ->D0.0 ;  perimeter
G1 X89.747 Y44.425 E0.32999 D0 ; ->L0.658559033041079 ->E0.32999 ->D0.0 ;  perimeter
G1 X89.959 Y43.802 E0.33 D0 ; ->L0.658082821535404 ->E0.33 ->D0.0 ;  perimeter
G1 X90.25 Y43.211 E0.32999 D0 ; ->L0.658757922153502 ->E0.32999 ->D0.0 ;  perimeter
G1 X90.616 Y42.664 E0.32999 D0 ; ->L0.6581527178398616 ->E0.32999 ->D0.0 ;  perimeter
G1 X91.05 Y42.169 E0.33 D0 ; ->L0.6583167930411636 ->E0.33 ->D0.0 ;  perimeter
G1 X91.545 Y41.735 E0.33 D0 ; ->L0.6583167930411636 ->E0.33 ->D0.0 ;  perimeter
G1 X92.093 Y41.369 E0.33 D0 ; ->L0.6589840665752107 ->E0.33 ->D0.0 ;  perimeter
G1 X92.683 Y41.078 E0.32999 D0 ; ->L0.6578609275523225 ->E0.32999 ->D0.0 ;  perimeter
G1 X93.307 Y40.866 E0.32999 D0 ; ->L0.6590295896240134 ->E0.32999 ->D0.0 ;  perimeter
G1 X93.952 Y40.738 E0.33 D0 ; ->L0.6575781322398083 ->E0.33 ->D0.0 ;  perimeter
G1 X94.499 Y40.702 E0.27456 D0 ; ->L0.5481833634834213 ->E0.27456 ->D0.0 ;  perimeter
G1 X94.499 Y43.573 E1.43883 D0 ; ->L2.871000000000002 ->E1.43883 ->D0.0 ;  perimeter
M106 S255 ;  enable fan
G1 X94.906 Y43.285 F18000 ; ->0.4985910147606061  ;  move to first perimeter point
M106 S255 ;  enable fan
G1 X96.061 Y43.285 E0.57884 D0 F1500 ; ->L1.1550000000000011 ->E0.57884 ->D0.0 ;  perimeter
M106 S255 ;  enable fan
G1 X100.531 Y43.285 E0.36304 D0 F1005.732 ; ->L4.469999999999999 ->E0.36304 ->D0.0 ;  perimeter
G1 X105.745 Y61.469 E1.53647 D0 ; ->L18.91675585294688 ->E1.53647 ->D0.0 ;  perimeter
G1 X104.343 Y61.616 E0.11446 D0 ; ->L1.4096854259018223 ->E0.11446 ->D0.0 ;  perimeter
G1 X97.991 Y45.171 E1.43195 D0 ; ->L17.629121617369368 ->E1.43195 ->D0.0 ;  perimeter
G1 X96.053 Y45.171 E0.15746 D0 ; ->L1.9380000000000024 ->E0.15746 ->D0.0 ;  perimeter
M106 S255 ;  enable fan
G1 X94.052 Y45.171 E1.00292 D0 F1500 ; ->L2.0009999999999906 ->E1.00292 ->D0.0 ;  perimeter
G1 X94.052 Y46.171 E0.50121 D0 ; ->L1.0 ->E0.50121 ->D0.0 ;  perimeter
G1 X89.167 Y46.171 E2.44863 D0 ; ->L4.885000000000005 ->E2.44863 ->D0.0 ;  perimeter
G1 X89.167 Y45.746 E0.21274 D0 ; ->L0.42499999999999716 ->E0.21274 ->D0.0 ;  perimeter
G1 X89.214 Y45.018 E0.36592 D0 ; ->L0.7295155927051881 ->E0.36592 ->D0.0 ;  perimeter
G1 X89.353 Y44.32 E0.35675 D0 ; ->L0.7117056976025972 ->E0.35675 ->D0.0 ;  perimeter
G1 X89.582 Y43.646 E0.35676 D0 ; ->L0.7118405720384298 ->E0.35676 ->D0.0 ;  perimeter
G1 X89.897 Y43.007 E0.35676 D0 ; ->L0.7124226273778868 ->E0.35676 ->D0.0 ;  perimeter
G1 X90.292 Y42.416 E0.35675 D0 ; ->L0.7108487884212775 ->E0.35675 ->D0.0 ;  perimeter
G1 X90.762 Y41.88 E0.35676 D0 ; ->L0.7128786713038852 ->E0.35676 ->D0.0 ;  perimeter
G1 X91.297 Y41.411 E0.35676 D0 ; ->L0.7114674975007624 ->E0.35676 ->D0.0 ;  perimeter
G1 X91.889 Y41.016 E0.35676 D0 ; ->L0.7116804058002447 ->E0.35676 ->D0.0 ;  perimeter
G1 X92.527 Y40.701 E0.35675 D0 ; ->L0.7115258252516244 ->E0.35675 ->D0.0 ;  perimeter
G1 X93.201 Y40.472 E0.35676 D0 ; ->L0.7118405720384231 ->E0.35676 ->D0.0 ;  perimeter
G1 X93.899 Y40.333 E0.35676 D0 ; ->L0.7117056976026054 ->E0.35676 ->D0.0 ;  perimeter
G1 X94.628 Y40.285 E0.36591 D0 ; ->L0.7305785378725541 ->E0.36591 ->D0.0 ;  perimeter
G1 X94.906 Y40.285 E0.13969 D0 ; ->L0.2780000000000058 ->E0.13969 ->D0.0 ;  perimeter
G1 X94.906 Y43.165 E1.4435 D0 ; ->L2.8800000000000026 ->E1.4435 ->D0.0 ;  perimeter
M106 S255 ;  enable fan
G1 X95.314 Y42.878 F18000 ; ->0.4988316349230358  ;  move to first perimeter point
M106 S255 ;  enable fan
G1 X96.063 Y42.878 E0.37558 D0 F1500 ; ->L0.7490000000000094 ->E0.37558 ->D0.0 ;  perimeter
M106 S255 ;  enable fan
G1 X100.838 Y42.878 E0.38783 D0 F1005.732 ; ->L4.7749999999999915 ->E0.38783 ->D0.0 ;  perimeter
G1 X106.27 Y61.823 E1.60083 D0 ; ->L19.708364949939405 ->E1.60083 ->D0.0 ;  perimeter
G1 X104.076 Y62.053 E0.17922 D0 ; ->L2.206022665341408 ->E0.17922 ->D0.0 ;  perimeter
G1 X97.712 Y45.578 E1.43459 D0 ; ->L17.66143032146603 ->E1.43459 ->D0.0 ;  perimeter
G1 X96.051 Y45.578 E0.13491 D0 ; ->L1.6610000000000014 ->E0.13491 ->D0.0 ;  perimeter
M106 S255 ;  enable fan
G1 X94.459 Y45.578 E0.79789 D0 F1500 ; ->L1.5919999999999987 ->E0.79789 ->D0.0 ;  perimeter
G1 X94.459 Y46.578 E0.50121 D0 ; ->L1.0 ->E0.50121 ->D0.0 ;  perimeter
G1 X88.759 Y46.578 E2.85692 D0 ; ->L5.700000000000003 ->E2.85692 ->D0.0 ;  perimeter
G1 X88.759 Y45.733 E0.42357 D0 ; ->L0.845000000000006 ->E0.42357 ->D0.0 ;  perimeter
G1 X88.81 Y44.965 E0.38599 D0 ; ->L0.7696914966400437 ->E0.38599 ->D0.0 ;  perimeter
G1 X88.959 Y44.214 E0.38351 D0 ; ->L0.7656382958029251 ->E0.38351 ->D0.0 ;  perimeter
G1 X89.205 Y43.49 E0.38352 D0 ; ->L0.7646515546312533 ->E0.38352 ->D0.0 ;  perimeter
G1 X89.543 Y42.803 E0.38352 D0 ; ->L0.765645479317949 ->E0.38352 ->D0.0 ;  perimeter
G1 X89.968 Y42.167 E0.38351 D0 ; ->L0.7649320231236185 ->E0.38351 ->D0.0 ;  perimeter
G1 X90.473 Y41.592 E0.38352 D0 ; ->L0.7652777273643855 ->E0.38352 ->D0.0 ;  perimeter
G1 X91.048 Y41.087 E0.38352 D0 ; ->L0.7652777273643855 ->E0.38352 ->D0.0 ;  perimeter
G1 X91.684 Y40.662 E0.38352 D0 ; ->L0.7649320231236225 ->E0.38352 ->D0.0 ;  perimeter
G1 X92.371 Y40.324 E0.38351 D0 ; ->L0.7656454793179395 ->E0.38351 ->D0.0 ;  perimeter
G1 X93.095 Y40.078 E0.38352 D0 ; ->L0.7646515546312601 ->E0.38352 ->D0.0 ;  perimeter
G1 X93.846 Y39.928 E0.38352 D0 ; ->L0.7658335328255148 ->E0.38352 ->D0.0 ;  perimeter
G1 X94.614 Y39.878 E0.38598 D0 ; ->L0.769625883140634 ->E0.38598 ->D0.0 ;  perimeter
G1 X95.314 Y39.878 E0.35052 D0 ; ->L0.6999999999999886 ->E0.35052 ->D0.0 ;  perimeter
G1 X95.314 Y42.758 E1.4435 D0 ; ->L2.8800000000000026 ->E1.4435 ->D0.0 ;  perimeter
G1 X95.314 Y39.878 B0.416 F1500 ; ->L0.0  ; ->E0.35052  ; Wipe - reverse start Normal close
G1 X94.614 Y39.878 B0 F1500 ; ->L0.0  ; ->E0.2494800238418579  ; Wipe - reverse end Normal close
M106 S255 ;  enable fan
G1 X93.854 Y41.128 F18000 ; ->2.188264152244877  ;  move to first fill point
M106 S255 ;  enable fan
T1 ; Selecting nozzle 1
G1 B1.0 E0.6 F400 ; Open and replenish from extrusion
G1 X90.009 Y44.973 E2.72546 D0 F1500 ; ->L5.437651147324549 ->E2.72546 ->D0.0 ;  fill
G1 X90.802 Y45.4 E0.45126 D0 ; ->L0.9006542066742428 ->E0.45126 ->D0.0 ;  fill
G1 X94.135 Y42.067 E2.3627 D0 ; ->L4.713573803389523 ->E2.3627 ->D0.0 ;  fill
G1 X94.135 Y43.286 E0.61124 D0 ; ->L1.2190000000000012 ->E0.61124 ->D0.0 ;  fill
G1 X92.022 Y45.4 E1.49828 D0 ; ->L2.9889404477172152 ->E1.49828 ->D0.0 ;  fill
G1 X93.241 Y45.4 E0.61124 D0 ; ->L1.218999999999994 ->E0.61124 ->D0.0 ;  fill
G1 X93.281 Y45.36 E0.02835 D0 ; ->L0.05656854249492762 ->E0.02835 ->D0.0 ;  fill
M106 S255 ;  enable fan
G1 X91.106 Y42.657 F18000 ; ->3.4694140715688673  ;  move to first fill point
M106 S255 ;  enable fan
G1 X91.538 Y42.225 E0.30651 D0 F1500 ; ->L0.6109402589451751 ->E0.30651 ->D0.0 ;  fill
M106 S255 ;  enable fan
G1 X94.295 Y44.228 F18000 ; ->3.4077937144140673  ;  move to first fill point
G1 X98.282 Y44.228 E0.41752 D0 F900 ; ->L3.9869999999999948 ->E0.41752 ->D0.0 ;  fill
G1 X98.646 Y44.096 F18000 ; ->0.38719504129056775  ;  move to first fill point
G1 X98.686 Y44.056 E0.00902 D0 F1005.732 ; ->L0.05656854249492762 ->E0.00902 ->D0.0 ;  fill
G1 X99.832 Y44.056 E0.18286 D0 ; ->L1.1459999999999866 ->E0.18286 ->D0.0 ;  fill
G1 X98.79 Y45.098 E0.23512 D0 ; ->L1.4736105319927573 ->E0.23512 ->D0.0 ;  fill
G1 X99.109 Y45.925 E0.1414 D0 ; ->L0.8863915613316665 ->E0.1414 ->D0.0 ;  fill
G1 X100.179 Y44.856 E0.24132 D0 ; ->L1.5125015702471207 ->E0.24132 ->D0.0 ;  fill
G1 X100.434 Y45.746 E0.14783 D0 ; ->L0.9258104557629486 ->E0.14783 ->D0.0 ;  fill
G1 X99.429 Y46.752 E0.2269 D0 ; ->L1.4219919127758747 ->E0.2269 ->D0.0 ;  fill
G1 X99.748 Y47.579 E0.1414 D0 ; ->L0.8863915613316716 ->E0.1414 ->D0.0 ;  fill
G1 X100.69 Y46.637 E0.21248 D0 ; ->L1.3321891757554507 ->E0.21248 ->D0.0 ;  fill
G1 X100.945 Y47.528 E0.14783 D0 ; ->L0.9267718165762242 ->E0.14783 ->D0.0 ;  fill
G1 X100.067 Y48.406 E0.19805 D0 ; ->L1.2416795077635776 ->E0.19805 ->D0.0 ;  fill
G1 X100.387 Y49.232 E0.1414 D0 ; ->L0.8858193946849469 ->E0.1414 ->D0.0 ;  fill
G1 X101.2 Y48.419 E0.18363 D0 ; ->L1.1497556262093296 ->E0.18363 ->D0.0 ;  fill
G1 X101.456 Y49.309 E0.14783 D0 ; ->L0.9260863890588185 ->E0.14783 ->D0.0 ;  fill
G1 X100.706 Y50.059 E0.1692 D0 ; ->L1.0606601717798212 ->E0.1692 ->D0.0 ;  fill
G1 X101.025 Y50.886 E0.1414 D0 ; ->L0.8863915613316783 ->E0.1414 ->D0.0 ;  fill
G1 X101.711 Y50.2 E0.15478 D0 ; ->L0.9701505037879381 ->E0.15478 ->D0.0 ;  fill
G1 X101.967 Y51.091 E0.14783 D0 ; ->L0.9270474637255619 ->E0.14783 ->D0.0 ;  fill
G1 X101.345 Y51.713 E0.14036 D0 ; ->L0.8796408357960649 ->E0.14036 ->D0.0 ;  fill
G1 X102.222 Y51.981 E0.14641 D0 ; ->L0.917034895737339 ->E0.14641 ->D0.0 ;  fill
G1 X101.664 Y52.54 E0.12593 D0 ; ->L0.7898385911057962 ->E0.12593 ->D0.0 ;  fill
G1 X101.707 Y52.557 E0.00735 D0 ; ->L0.04608039577552665 ->E0.007349994039535179 ->D0.0 ; retract trigger
G1 X102.478 Y52.872 B0.867 ; ->L0.8330214185781857  ; ->E0.13287000596046483  ; retract trigger Normal close
G1 X101.983 Y53.366 B0.756 ; ->L0.6993289640791308  ; ->E0.11151  ;  fill Normal close
G1 X102.733 Y53.763 B0.62 ; ->L0.848592363859114  ; ->E0.1353  ;  fill Normal close
G1 X102.303 Y54.193 B0.523 ; ->L0.6081118318204355  ; ->E0.09709  ;  fill Normal close
G1 X102.988 Y54.654 B0.391 ; ->L0.8256791144264267  ; ->E0.13177  ;  fill Normal close
G1 X102.622 Y55.02 B0.309 ; ->L0.5176021638285523  ; ->E0.08266  ;  fill Normal close
G1 X103.244 Y55.544 B0.179 ; ->L0.8133019119613536  ; ->E0.12976  ;  fill Normal close
G1 X102.941 Y55.847 B0.111 ; ->L0.42850670939904895  ; ->E0.06824  ;  fill Normal close
G1 X103.375 Y56.389 B0 ; ->L0.6943973748160847  ; ->E0.11079999403953544  ; retract trigger Normal close
G1 X103.451 Y56.483 ; ->0.12083020077246551  ; Wipe
G1 X103.499 Y56.435 ; ->0.06788225099390612  ; Wipe
G1 X103.601 Y57.225 F18000 ; ->0.7965575936490715  ;  move to first fill point
G1 X104.571 Y60.113 F900 ; ->3.0465462412377704  ; Wipe
G1 X104.571 Y60.113 F18000 ; ->0.0  ;  move to first fill point
G1 X104.852 Y60.948 F900 ; ->0.8810141883080004  ; Wipe
G1 Z3.4 F18000 ;  move to next layer (16)
G1 X94.499 Y43.693 F18000 ; ->20.12261498911114  ;  move to first perimeter point
G1 X94.499 Y43.693 F18000 ; ->20.12261498911114  ;  move to first perimeter point
T0 ; Selecting nozzle 0
G1 B1.0 E1.4 F400 ; Open and replenish from extrusion
G1 X100.224 Y43.693 E0.465 D0 F1001.859 ; ->L5.7250000000000085 ->E0.465 ->D0.0 ;  perimeter
G1 X105.219 Y61.114 E1.47212 D0 ; ->L18.122948601152075 ->E1.47212 ->D0.0 ;  perimeter
G1 X104.611 Y61.178 E0.0497 D0 ; ->L0.6113591415853595 ->E0.0497 ->D0.0 ;  perimeter
G1 X98.271 Y44.764 E1.4293 D0 ; ->L17.595880085974667 ->E1.4293 ->D0.0 ;  perimeter
G1 X93.645 Y44.764 E0.37576 D0 ; ->L4.626000000000005 ->E0.37576 ->D0.0 ;  perimeter
G1 X93.645 Y45.764 E0.08123 D0 ; ->L1.0 ->E0.08123 ->D0.0 ;  perimeter
G1 X89.574 Y45.764 E0.33068 D0 ; ->L4.070999999999998 ->E0.33068 ->D0.0 ;  perimeter
G1 X89.619 Y45.071 E0.05636 D0 ; ->L0.6944595020589804 ->E0.05636 ->D0.0 ;  perimeter
G1 X89.747 Y44.425 E0.05348 D0 ; ->L0.658559033041079 ->E0.05348 ->D0.0 ;  perimeter
G1 X89.959 Y43.802 E0.05348 D0 ; ->L0.658082821535404 ->E0.05348 ->D0.0 ;  perimeter
G1 X90.25 Y43.211 E0.05348 D0 ; ->L0.658757922153502 ->E0.05348 ->D0.0 ;  perimeter
G1 X90.616 Y42.664 E0.05348 D0 ; ->L0.6581527178398616 ->E0.05348 ->D0.0 ;  perimeter
G1 X91.05 Y42.169 E0.05348 D0 ; ->L0.6583167930411636 ->E0.05348 ->D0.0 ;  perimeter
G1 X91.545 Y41.735 E0.05348 D0 ; ->L0.6583167930411636 ->E0.05348 ->D0.0 ;  perimeter
G1 X92.093 Y41.369 E0.05348 D0 ; ->L0.6589840665752107 ->E0.05348 ->D0.0 ;  perimeter
G1 X92.683 Y41.078 E0.05348 D0 ; ->L0.6578609275523225 ->E0.05348 ->D0.0 ;  perimeter
G1 X93.307 Y40.866 E0.05348 D0 ; ->L0.6590295896240134 ->E0.05348 ->D0.0 ;  perimeter
G1 X93.952 Y40.738 E0.05348 D0 ; ->L0.6575781322398083 ->E0.05348 ->D0.0 ;  perimeter
G1 X94.499 Y40.702 E0.0445 D0 ; ->L0.5481833634834213 ->E0.0445 ->D0.0 ;  perimeter
G1 X94.499 Y43.573 E0.23318 D0 ; ->L2.871000000000002 ->E0.23318 ->D0.0 ;  perimeter
G1 X94.906 Y43.285 F18000 ; ->0.4985910147606061  ;  move to first perimeter point
G1 X100.531 Y43.285 E0.45685 D0 F1001.859 ; ->L5.625 ->E0.45685 ->D0.0 ;  perimeter
G1 X105.745 Y61.469 E1.53647 D0 ; ->L18.91675585294688 ->E1.53647 ->D0.0 ;  perimeter
G1 X104.343 Y61.616 E0.11446 D0 ; ->L1.4096854259018223 ->E0.11446 ->D0.0 ;  perimeter
G1 X97.991 Y45.171 E1.43195 D0 ; ->L17.629121617369368 ->E1.43195 ->D0.0 ;  perimeter
G1 X94.052 Y45.171 E0.31999 D0 ; ->L3.938999999999993 ->E0.31999 ->D0.0 ;  perimeter
G1 X94.052 Y46.171 E0.08123 D0 ; ->L1.0 ->E0.08123 ->D0.0 ;  perimeter
G1 X89.167 Y46.171 E0.39682 D0 ; ->L4.885000000000005 ->E0.39682 ->D0.0 ;  perimeter
G1 X89.167 Y45.746 E0.03448 D0 ; ->L0.42499999999999716 ->E0.03448 ->D0.0 ;  perimeter
G1 X89.214 Y45.018 E0.0593 D0 ; ->L0.7295155927051881 ->E0.0593 ->D0.0 ;  perimeter
G1 X89.353 Y44.32 E0.05782 D0 ; ->L0.7117056976025972 ->E0.05782 ->D0.0 ;  perimeter
G1 X89.582 Y43.646 E0.05782 D0 ; ->L0.7118405720384298 ->E0.05782 ->D0.0 ;  perimeter
G1 X89.897 Y43.007 E0.05782 D0 ; ->L0.7124226273778868 ->E0.05782 ->D0.0 ;  perimeter
G1 X90.292 Y42.416 E0.05782 D0 ; ->L0.7108487884212775 ->E0.05782 ->D0.0 ;  perimeter
G1 X90.762 Y41.88 E0.05782 D0 ; ->L0.7128786713038852 ->E0.05782 ->D0.0 ;  perimeter
G1 X91.297 Y41.411 E0.05782 D0 ; ->L0.7114674975007624 ->E0.05782 ->D0.0 ;  perimeter
G1 X91.889 Y41.016 E0.05782 D0 ; ->L0.7116804058002447 ->E0.05782 ->D0.0 ;  perimeter
G1 X92.527 Y40.701 E0.05781 D0 ; ->L0.7115258252516244 ->E0.05781 ->D0.0 ;  perimeter
G1 X93.201 Y40.472 E0.05782 D0 ; ->L0.7118405720384231 ->E0.05782 ->D0.0 ;  perimeter
G1 X93.899 Y40.333 E0.05781 D0 ; ->L0.7117056976026054 ->E0.05781 ->D0.0 ;  perimeter
G1 X94.628 Y40.285 E0.0593 D0 ; ->L0.7305785378725541 ->E0.0593 ->D0.0 ;  perimeter
G1 X94.906 Y40.285 E0.02264 D0 ; ->L0.2780000000000058 ->E0.02264 ->D0.0 ;  perimeter
G1 X94.906 Y43.165 E0.23393 D0 ; ->L2.8800000000000026 ->E0.23393 ->D0.0 ;  perimeter
G1 X95.314 Y42.878 F18000 ; ->0.4988316349230358  ;  move to first perimeter point
G1 X100.838 Y42.878 E0.4487 D0 F1001.859 ; ->L5.524000000000001 ->E0.4487 ->D0.0 ;  perimeter
G1 X106.27 Y61.823 E1.60083 D0 ; ->L19.708364949939405 ->E1.60083 ->D0.0 ;  perimeter
G1 X104.076 Y62.053 E0.17922 D0 ; ->L2.206022665341408 ->E0.17922 ->D0.0 ;  perimeter
G1 X97.712 Y45.578 E1.43459 D0 ; ->L17.66143032146603 ->E1.43459 ->D0.0 ;  perimeter
G1 X94.459 Y45.578 E0.26422 D0 ; ->L3.253 ->E0.26422 ->D0.0 ;  perimeter
G1 X94.459 Y46.578 E0.08123 D0 ; ->L1.0 ->E0.08123 ->D0.0 ;  perimeter
G1 X88.759 Y46.578 E0.46299 D0 ; ->L5.700000000000003 ->E0.46299 ->D0.0 ;  perimeter
G1 X88.759 Y45.733 E0.06864 D0 ; ->L0.845000000000006 ->E0.06864 ->D0.0 ;  perimeter
G1 X88.81 Y44.965 E0.06255 D0 ; ->L0.7696914966400437 ->E0.06255 ->D0.0 ;  perimeter
G1 X88.959 Y44.214 E0.06215 D0 ; ->L0.7656382958029251 ->E0.06215 ->D0.0 ;  perimeter
G1 X89.205 Y43.49 E0.06215 D0 ; ->L0.7646515546312533 ->E0.06215 ->D0.0 ;  perimeter
G1 X89.543 Y42.803 E0.06215 D0 ; ->L0.765645479317949 ->E0.06215 ->D0.0 ;  perimeter
G1 X89.968 Y42.167 E0.06215 D0 ; ->L0.7649320231236185 ->E0.06215 ->D0.0 ;  perimeter
G1 X90.473 Y41.592 E0.06215 D0 ; ->L0.7652777273643855 ->E0.06215 ->D0.0 ;  perimeter
G1 X91.048 Y41.087 E0.06215 D0 ; ->L0.7652777273643855 ->E0.06215 ->D0.0 ;  perimeter
G1 X91.684 Y40.662 E0.06215 D0 ; ->L0.7649320231236225 ->E0.06215 ->D0.0 ;  perimeter
G1 X92.371 Y40.324 E0.06215 D0 ; ->L0.7656454793179395 ->E0.06215 ->D0.0 ;  perimeter
G1 X93.095 Y40.078 E0.06215 D0 ; ->L0.7646515546312601 ->E0.06215 ->D0.0 ;  perimeter
G1 X93.846 Y39.928 E0.06215 D0 ; ->L0.7658335328255148 ->E0.06215 ->D0.0 ;  perimeter
G1 X94.614 Y39.878 E0.06255 D0 ; ->L0.769625883140634 ->E0.06255 ->D0.0 ;  perimeter
G1 X95.314 Y39.878 E0.0568 D0 ; ->L0.6999999999999886 ->E0.0568 ->D0.0 ;  perimeter
G1 X95.314 Y42.758 E0.23393 D0 ; ->L2.8800000000000026 ->E0.23393 ->D0.0 ;  perimeter
G1 X95.314 Y39.878 B0.905 F1500 ; ->L0.0  ; ->E0.0568  ; Wipe - reverse start Normal close
G1 X94.614 Y39.878 B0.801 F1500 ; ->L0.0  ; ->E0.06255  ; Wipe - reverse start Normal close
G1 X93.846 Y39.928 B0.698 F1500 ; ->L0.0  ; ->E0.06215  ; Wipe - reverse start Normal close
G1 X93.095 Y40.078 B0.594 F1500 ; ->L0.0  ; ->E0.06215  ; Wipe - reverse start Normal close
G1 X92.371 Y40.324 B0.49 F1500 ; ->L0.0  ; ->E0.06215  ; Wipe - reverse start Normal close
G1 X91.684 Y40.662 B0.387 F1500 ; ->L0.0  ; ->E0.06215  ; Wipe - reverse start Normal close
G1 X91.048 Y41.087 B0.283 F1500 ; ->L0.0  ; ->E0.06215  ; Wipe - reverse start Normal close
G1 X90.473 Y41.592 B0.18 F1500 ; ->L0.0  ; ->E0.06215  ; Wipe - reverse start Normal close
G1 X89.968 Y42.167 B0.076 F1500 ; ->L0.0  ; ->E0.06215  ; Wipe - reverse start Normal close
G1 X89.543 Y42.803 B0 F1500 ; ->L0.0  ; ->E0.04560002384185802  ; Wipe - reverse end Normal close
G1 X99.915 Y44.056 F18000 ; ->4.616501380916085  ;  move to first fill point
T1 ; Selecting nozzle 1
G1 B1.0 E0.6 F400 ; Open and replenish from extrusion
G1 X99.964 Y44.106 E0.01109 D0 F1001.859 ; ->L0.07000714249274627 ->E0.01109 ->D0.0 ;  fill
G1 X98.769 Y44.056 E0.19079 D0 ; ->L1.1960455676938 ->E0.19079 ->D0.0 ;  fill
G1 X100.424 Y45.712 E0.37351 D0 ; ->L2.341230659290114 ->E0.37351 ->D0.0 ;  fill
G1 X98.868 Y45.302 E0.25673 D0 ; ->L1.6091103131855315 ->E0.25673 ->D0.0 ;  fill
G1 X100.885 Y47.318 E0.45499 D0 ; ->L2.8517617361904612 ->E0.45499 ->D0.0 ;  fill
G1 X99.589 Y47.168 E0.20808 D0 ; ->L1.3046516776519381 ->E0.20808 ->D0.0 ;  fill
G1 X101.346 Y48.924 E0.39624 D0 ; ->L2.4840662229497865 ->E0.39624 ->D0.0 ;  fill
G1 X100.31 Y49.035 E0.1661 D0 ; ->L1.0419294601843265 ->E0.1661 ->D0.0 ;  fill
G1 X101.806 Y50.531 E0.33749 D0 ; ->L2.1156634893101485 ->E0.33749 ->D0.0 ;  fill
G1 X101.031 Y50.902 E0.13705 D0 ; ->L0.8592240685641833 ->E0.13705 ->D0.0 ;  fill
G1 X102.267 Y52.137 E0.27874 D0 ; ->L1.7472609993930426 ->E0.27874 ->D0.0 ;  fill
G1 X101.752 Y52.768 E0.12992 D0 ; ->L0.8144851134305654 ->E0.12992 ->D0.0 ;  fill
G1 X102.727 Y53.743 E0.21999 D0 ; ->L1.3788582233137747 ->E0.21999 ->D0.0 ;  fill
G1 X102.473 Y54.635 E0.14791 D0 ; ->L0.9274588939678109 ->E0.14791 ->D0.0 ;  fill
G1 X103.188 Y55.35 E0.16125 D0 ; ->L1.0111626970967678 ->E0.16125 ->D0.0 ;  fill
G1 X103.194 Y56.502 E0.1838 D0 ; ->L1.1520156248940385 ->E0.1838 ->D0.0 ;  fill
G1 X103.245 Y56.552 E0.01144 D0 ; ->L0.07142128534267578 ->E0.01144 ->D0.0 ;  fill
G1 X98.282 Y44.228 F18000 ; ->13.285794857666591  ;  move to first fill point
G1 X94.295 Y44.228 E0.41752 D0 F900 ; ->L3.9869999999999948 ->E0.41752 ->D0.0 ;  fill
G1 X94.098 Y41.08 F18000 ; ->3.154158049305713  ;  move to first fill point
G1 X94.135 Y41.117 E0.00835 D0 F1001.859 ; ->L0.05232590180780817 ->E0.00835 ->D0.0 ;  fill
G1 X93.128 Y41.311 E0.16374 D0 ; ->L1.025516942814701 ->E0.16374 ->D0.0 ;  fill
G1 X94.135 Y42.319 E0.22737 D0 ; ->L1.4248203395516275 ->E0.22737 ->D0.0 ;  fill
G1 X94.135 Y43.521 E0.1918 D0 ; ->L1.2019999999999982 ->E0.1918 ->D0.0 ;  fill
G1 X92.291 Y41.677 E0.41611 D0 ; ->L2.607809809015994 ->E0.41611 ->D0.0 ;  fill
G1 X91.591 Y42.179 E0.13746 D0 ; ->L0.8613965405084968 ->E0.13746 ->D0.0 ;  fill
G1 X93.812 Y44.4 E0.50118 D0 ; ->L3.140968322030644 ->E0.50118 ->D0.0 ;  fill
G1 X93.281 Y45.071 E0.13654 D0 ; ->L0.8556880272622671 ->E0.13654 ->D0.0 ;  fill
G1 X92.026 Y43.816 E0.28319 D0 ; ->L1.7751826013527547 ->E0.2831899940395355 ->D0.0 ; retract trigger
G1 X90.994 Y42.784 B0.767 ; ->L1.4591238157945172  ; ->E0.2327700059604645  ; retract trigger Normal close
G1 X90.512 Y43.504 B0.629 ; ->L0.8664433045502733  ; ->E0.13823  ;  fill Normal close
G1 X92.408 Y45.4 B0.201 ; ->L2.6813489142593894  ; ->E0.4278  ;  fill Normal close
G1 X91.205 Y45.4 B0.009 ; ->L1.203000000000003  ; ->E0.1918  ;  fill Normal close
G1 X91.163 Y45.358 B0 ; ->L0.058906010464179356  ; ->E0.009399994039535509  ; retract trigger Normal close
G1 X90.157 Y44.351 ; ->1.423897078283616  ; Wipe
G1 X89.964 Y45.361 ; ->1.0282747687267229  ; Wipe
G1 X90.003 Y45.4 ; ->0.0551543289325528  ; Wipe
G1 X103.807 Y57.838 F18000 ; ->18.58101880952711  ;  move to first fill point
G0 B0.3 E1.4 F400 ; Partial open with replenish
G1 X104.571 Y60.113 B0.049 F900 ; ->L2.3998585374975723  ; ->E0.2513  ; Shortened wipe volume Normal close
G1 X104.571 Y60.113 F18000 ; ->0.0  ;  move to first fill point
G1 X104.84 Y60.912 B0 F900 ; ->L0.8432665383865402  ; ->E0.04870001192092895  ; retract trigger Normal close
G1 X104.852 Y60.948 F900 ; ->0.03774764992146022  ; Wipe
G1 Z3.6 F18000 ;  move to next layer (17)
G1 X94.499 Y43.693 F18000 ; ->20.12261498911114  ;  move to first perimeter point
G1 X94.499 Y43.693 F18000 ; ->20.12261498911114  ;  move to first perimeter point
T0 ; Selecting nozzle 0
G1 B1.0 E0.30218 F400 ; Open and replenish from extrusion
G1 X100.224 Y43.693 E0.465 D0 F1003.678 ; ->L5.7250000000000085 ->E0.465 ->D0.0 ;  perimeter
G1 X105.219 Y61.114 E1.47212 D0 ; ->L18.122948601152075 ->E1.47212 ->D0.0 ;  perimeter
G1 X104.611 Y61.178 E0.0497 D0 ; ->L0.6113591415853595 ->E0.0497 ->D0.0 ;  perimeter
G1 X98.271 Y44.764 E1.4293 D0 ; ->L17.595880085974667 ->E1.4293 ->D0.0 ;  perimeter
G1 X93.645 Y44.764 E0.37576 D0 ; ->L4.626000000000005 ->E0.37576 ->D0.0 ;  perimeter
G1 X93.645 Y45.764 E0.08123 D0 ; ->L1.0 ->E0.08123 ->D0.0 ;  perimeter
G1 X89.574 Y45.764 E0.33068 D0 ; ->L4.070999999999998 ->E0.33068 ->D0.0 ;  perimeter
G1 X89.619 Y45.071 E0.05636 D0 ; ->L0.6944595020589804 ->E0.05636 ->D0.0 ;  perimeter
G1 X89.747 Y44.425 E0.05348 D0 ; ->L0.658559033041079 ->E0.05348 ->D0.0 ;  perimeter
G1 X89.959 Y43.802 E0.05348 D0 ; ->L0.658082821535404 ->E0.05348 ->D0.0 ;  perimeter
G1 X90.25 Y43.211 E0.05348 D0 ; ->L0.658757922153502 ->E0.05348 ->D0.0 ;  perimeter
G1 X90.616 Y42.664 E0.05348 D0 ; ->L0.6581527178398616 ->E0.05348 ->D0.0 ;  perimeter
